( pcb2gcode 1.1.2 )

G94     ( Inches per minute feed rate. )
G20     ( Units == INCHES.             )
G90     ( Absolute coordinates.        )
S20000  ( RPM spindle speed.           )
M3      ( Spindle on clockwise.        )

G64 P0.00075 ( set maximum deviation from commanded toolpath )

G04 P0 ( dwell for no time -- G64 should not smooth over this point )
G00 Z0.19685 ( retract )

G00 X0.73800 Y1.48620 ( rapid move to begin. )
G01 Z-0.11417 F43.30709 ( plunge. )
G04 P0 ( dwell for no time -- G64 should not smooth over this point )
X0.73800 Y1.48620
X0.73800 Y1.47820
X0.73700 Y1.47820
X0.73700 Y1.44320
X0.73800 Y1.44320
X0.73800 Y1.42320
X0.73700 Y1.42320
X0.73700 Y1.42220
X0.73600 Y1.42220
X0.73600 Y1.42120
X0.73500 Y1.42120
X0.73500 Y1.42020
X0.73400 Y1.42020
X0.73400 Y1.41920
X0.73300 Y1.41920
X0.73300 Y1.41820
X0.73200 Y1.41820
X0.73200 Y1.41720
X0.73100 Y1.41720
X0.73100 Y1.41620
X0.73000 Y1.41620
X0.73000 Y1.41520
X0.66900 Y1.41520
X0.66900 Y1.41620
X0.66800 Y1.41620
X0.66800 Y1.41720
X0.66700 Y1.41720
X0.66700 Y1.41820
X0.66600 Y1.41820
X0.66600 Y1.41920
X0.66500 Y1.41920
X0.66500 Y1.42020
X0.66400 Y1.42020
X0.66400 Y1.42120
X0.66300 Y1.42120
X0.66300 Y1.42220
X0.66200 Y1.42220
X0.66200 Y1.42320
X0.66100 Y1.42320
X0.66100 Y1.42420
X0.66000 Y1.42420
X0.66000 Y1.42520
X0.65900 Y1.42520
X0.65900 Y1.42620
X0.65800 Y1.42620
X0.65800 Y1.42720
X0.65700 Y1.42720
X0.65700 Y1.42820
X0.65600 Y1.42820
X0.65600 Y1.42920
X0.65500 Y1.42920
X0.65500 Y1.43020
X0.65400 Y1.43020
X0.65400 Y1.49120
X0.65500 Y1.49120
X0.65500 Y1.49220
X0.65600 Y1.49220
X0.65600 Y1.49320
X0.65700 Y1.49320
X0.65700 Y1.49420
X0.65800 Y1.49420
X0.65800 Y1.49520
X0.65900 Y1.49520
X0.65900 Y1.49620
X0.66000 Y1.49620
X0.66000 Y1.49720
X0.66100 Y1.49720
X0.66100 Y1.49820
X0.66200 Y1.49820
X0.66200 Y1.49920
X0.66300 Y1.49920
X0.66300 Y1.50020
X0.66400 Y1.50020
X0.66400 Y1.50120
X0.66500 Y1.50120
X0.66500 Y1.50220
X0.66600 Y1.50220
X0.66600 Y1.50320
X0.66700 Y1.50320
X0.66700 Y1.50420
X0.66800 Y1.50420
X0.66800 Y1.50520
X0.66900 Y1.50520
X0.66900 Y1.50620
X0.72900 Y1.50620
X0.72900 Y1.50320
X0.73200 Y1.50320
X0.73200 Y1.50020
X0.73500 Y1.50020
X0.73500 Y1.49720
X0.73700 Y1.49720
X0.73700 Y1.49420
X0.73600 Y1.49420
X0.73600 Y1.49220
X0.73700 Y1.49220
X0.73700 Y1.48720
X0.73800 Y1.48720
X0.73800 Y1.48620
G04 P0 ( dwell for no time -- G64 should not smooth over this point )
G00 Z0.19685 ( retract )

G00 X0.86600 Y1.48620 ( rapid move to begin. )
G01 Z-0.11417 F43.30709 ( plunge. )
G04 P0 ( dwell for no time -- G64 should not smooth over this point )
X0.86600 Y1.48620
X0.86600 Y1.48520
X0.86800 Y1.48520
X0.86800 Y1.48620
X0.87000 Y1.48620
X0.87000 Y1.48220
X0.87100 Y1.48220
X0.87100 Y1.43920
X0.87000 Y1.43920
X0.87000 Y1.43520
X0.86900 Y1.43520
X0.86900 Y1.43220
X0.86800 Y1.43220
X0.86800 Y1.42820
X0.86700 Y1.42820
X0.86700 Y1.42720
X0.86600 Y1.42720
X0.86600 Y1.42620
X0.86500 Y1.42620
X0.86500 Y1.42520
X0.86400 Y1.42520
X0.86400 Y1.42420
X0.86300 Y1.42420
X0.86300 Y1.42320
X0.86200 Y1.42320
X0.86200 Y1.42220
X0.86100 Y1.42220
X0.86100 Y1.42120
X0.86000 Y1.42120
X0.86000 Y1.42020
X0.85900 Y1.42020
X0.85900 Y1.41920
X0.85800 Y1.41920
X0.85800 Y1.41820
X0.85400 Y1.41820
X0.85400 Y1.41720
X0.85100 Y1.41720
X0.85100 Y1.41620
X0.84700 Y1.41620
X0.84700 Y1.41520
X0.75200 Y1.41520
X0.75200 Y1.41620
X0.74800 Y1.41620
X0.74800 Y1.41720
X0.74500 Y1.41720
X0.74500 Y1.41820
X0.74100 Y1.41820
X0.74100 Y1.41920
X0.74000 Y1.41920
X0.74000 Y1.42020
X0.73900 Y1.42020
X0.73900 Y1.42120
X0.73800 Y1.42120
X0.73800 Y1.44320
X0.73700 Y1.44320
X0.73700 Y1.47820
X0.73800 Y1.47820
X0.73800 Y1.48720
X0.73700 Y1.48720
X0.73700 Y1.49220
X0.73600 Y1.49220
X0.73600 Y1.49420
X0.73700 Y1.49420
X0.73700 Y1.49920
X0.73800 Y1.49920
X0.73800 Y1.50020
X0.73900 Y1.50020
X0.73900 Y1.50120
X0.74000 Y1.50120
X0.74000 Y1.50220
X0.74100 Y1.50220
X0.74100 Y1.50320
X0.74500 Y1.50320
X0.74500 Y1.50420
X0.74800 Y1.50420
X0.74800 Y1.50520
X0.75200 Y1.50520
X0.75200 Y1.50620
X0.84600 Y1.50620
X0.84600 Y1.50520
X0.85000 Y1.50520
X0.85000 Y1.50420
X0.85300 Y1.50420
X0.85300 Y1.50320
X0.85700 Y1.50320
X0.85700 Y1.50020
X0.86000 Y1.50020
X0.86000 Y1.49720
X0.86300 Y1.49720
X0.86300 Y1.49420
X0.86600 Y1.49420
X0.86600 Y1.48620
G04 P0 ( dwell for no time -- G64 should not smooth over this point )
G00 Z0.19685 ( retract )

G00 X1.16600 Y1.48620 ( rapid move to begin. )
G01 Z-0.11417 F43.30709 ( plunge. )
G04 P0 ( dwell for no time -- G64 should not smooth over this point )
X1.16600 Y1.48620
X1.16600 Y1.48520
X1.16800 Y1.48520
X1.16800 Y1.48620
X1.17000 Y1.48620
X1.17000 Y1.48220
X1.17100 Y1.48220
X1.17100 Y1.43920
X1.17000 Y1.43920
X1.17000 Y1.43520
X1.16900 Y1.43520
X1.16900 Y1.43220
X1.16800 Y1.43220
X1.16800 Y1.42820
X1.16700 Y1.42820
X1.16700 Y1.42720
X1.16600 Y1.42720
X1.16600 Y1.42620
X1.16500 Y1.42620
X1.16500 Y1.42520
X1.16400 Y1.42520
X1.16400 Y1.42420
X1.16300 Y1.42420
X1.16300 Y1.42320
X1.16200 Y1.42320
X1.16200 Y1.42220
X1.16100 Y1.42220
X1.16100 Y1.42120
X1.16000 Y1.42120
X1.16000 Y1.42020
X1.15900 Y1.42020
X1.15900 Y1.41920
X1.15800 Y1.41920
X1.15800 Y1.41820
X1.15400 Y1.41820
X1.15400 Y1.41720
X1.15100 Y1.41720
X1.15100 Y1.41620
X1.14700 Y1.41620
X1.14700 Y1.41520
X1.05200 Y1.41520
X1.05200 Y1.41620
X1.04800 Y1.41620
X1.04800 Y1.41720
X1.04500 Y1.41720
X1.04500 Y1.41820
X1.04100 Y1.41820
X1.04100 Y1.41920
X1.04000 Y1.41920
X1.04000 Y1.42020
X1.03900 Y1.42020
X1.03900 Y1.42120
X1.03800 Y1.42120
X1.03800 Y1.42220
X1.03700 Y1.42220
X1.03700 Y1.42320
X1.03600 Y1.42320
X1.03600 Y1.42420
X1.03500 Y1.42420
X1.03500 Y1.42520
X1.03400 Y1.42520
X1.03400 Y1.42620
X1.03300 Y1.42620
X1.03300 Y1.42720
X1.03200 Y1.42720
X1.03200 Y1.42820
X1.03100 Y1.42820
X1.03100 Y1.43220
X1.03000 Y1.43220
X1.03000 Y1.43520
X1.02900 Y1.43520
X1.02900 Y1.43920
X1.02800 Y1.43920
X1.02800 Y1.48220
X1.02900 Y1.48220
X1.02900 Y1.48620
X1.03000 Y1.48620
X1.03000 Y1.48920
X1.03100 Y1.48920
X1.03100 Y1.49320
X1.03200 Y1.49320
X1.03200 Y1.49420
X1.03300 Y1.49420
X1.03300 Y1.49520
X1.03400 Y1.49520
X1.03400 Y1.49620
X1.03500 Y1.49620
X1.03500 Y1.49720
X1.03600 Y1.49720
X1.03600 Y1.49820
X1.03700 Y1.49820
X1.03700 Y1.49920
X1.03800 Y1.49920
X1.03800 Y1.50020
X1.03900 Y1.50020
X1.03900 Y1.50120
X1.04000 Y1.50120
X1.04000 Y1.50220
X1.04100 Y1.50220
X1.04100 Y1.50320
X1.04500 Y1.50320
X1.04500 Y1.50420
X1.04800 Y1.50420
X1.04800 Y1.50520
X1.05200 Y1.50520
X1.05200 Y1.50620
X1.14600 Y1.50620
X1.14600 Y1.50520
X1.15000 Y1.50520
X1.15000 Y1.50420
X1.15300 Y1.50420
X1.15300 Y1.50320
X1.15700 Y1.50320
X1.15700 Y1.50020
X1.16000 Y1.50020
X1.16000 Y1.49720
X1.16300 Y1.49720
X1.16300 Y1.49420
X1.16600 Y1.49420
X1.16600 Y1.48620
G04 P0 ( dwell for no time -- G64 should not smooth over this point )
G00 Z0.19685 ( retract )

G00 X1.43900 Y1.48020 ( rapid move to begin. )
G01 Z-0.11417 F43.30709 ( plunge. )
G04 P0 ( dwell for no time -- G64 should not smooth over this point )
X1.43900 Y1.48020
X1.43900 Y1.43920
X1.43800 Y1.43920
X1.43800 Y1.43420
X1.43700 Y1.43420
X1.43700 Y1.43220
X1.43600 Y1.43220
X1.43600 Y1.43020
X1.43500 Y1.43020
X1.43500 Y1.42920
X1.43400 Y1.42920
X1.43400 Y1.42720
X1.43300 Y1.42720
X1.43300 Y1.42620
X1.43100 Y1.42620
X1.43100 Y1.42520
X1.43000 Y1.42520
X1.43000 Y1.42420
X1.42800 Y1.42420
X1.42800 Y1.42320
X1.42700 Y1.42320
X1.42700 Y1.39820
X1.42800 Y1.39820
X1.42800 Y1.39720
X1.43000 Y1.39720
X1.43000 Y1.39620
X1.43200 Y1.39620
X1.43200 Y1.39520
X1.43300 Y1.39520
X1.43300 Y1.39420
X1.43400 Y1.39420
X1.43400 Y1.39220
X1.43500 Y1.39220
X1.43500 Y1.39120
X1.43600 Y1.39120
X1.43600 Y1.38920
X1.43700 Y1.38920
X1.43700 Y1.38720
X1.43800 Y1.38720
X1.43800 Y1.38220
X1.43900 Y1.38220
X1.43900 Y1.33920
X1.43800 Y1.33920
X1.43800 Y1.33420
X1.43700 Y1.33420
X1.43700 Y1.33220
X1.43600 Y1.33220
X1.43600 Y1.33020
X1.43500 Y1.33020
X1.43500 Y1.32920
X1.43400 Y1.32920
X1.43400 Y1.32720
X1.43300 Y1.32720
X1.43300 Y1.32620
X1.43100 Y1.32620
X1.43100 Y1.32520
X1.43000 Y1.32520
X1.43000 Y1.32420
X1.42800 Y1.32420
X1.42800 Y1.32320
X1.42600 Y1.32320
X1.42600 Y1.32220
X1.42100 Y1.32220
X1.42100 Y1.32120
X1.37800 Y1.32120
X1.37800 Y1.32220
X1.37300 Y1.32220
X1.37300 Y1.32320
X1.37100 Y1.32320
X1.37100 Y1.32420
X1.36900 Y1.32420
X1.36900 Y1.32520
X1.36800 Y1.32520
X1.36800 Y1.32620
X1.36600 Y1.32620
X1.36600 Y1.32720
X1.36500 Y1.32720
X1.36500 Y1.32920
X1.36400 Y1.32920
X1.36400 Y1.33020
X1.36300 Y1.33020
X1.36300 Y1.33220
X1.36200 Y1.33220
X1.36200 Y1.33420
X1.36100 Y1.33420
X1.36100 Y1.33920
X1.36000 Y1.33920
X1.36000 Y1.38220
X1.36100 Y1.38220
X1.36100 Y1.38720
X1.36200 Y1.38720
X1.36200 Y1.38920
X1.36300 Y1.38920
X1.36300 Y1.39120
X1.36400 Y1.39120
X1.36400 Y1.39220
X1.36500 Y1.39220
X1.36500 Y1.39420
X1.36600 Y1.39420
X1.36600 Y1.39520
X1.36700 Y1.39520
X1.36700 Y1.39620
X1.36900 Y1.39620
X1.36900 Y1.39720
X1.37100 Y1.39720
X1.37100 Y1.39820
X1.37200 Y1.39820
X1.37200 Y1.42320
X1.37100 Y1.42320
X1.37100 Y1.42420
X1.36900 Y1.42420
X1.36900 Y1.42520
X1.36800 Y1.42520
X1.36800 Y1.42620
X1.36600 Y1.42620
X1.36600 Y1.42720
X1.36500 Y1.42720
X1.36500 Y1.42920
X1.36400 Y1.42920
X1.36400 Y1.43020
X1.36300 Y1.43020
X1.36300 Y1.43220
X1.36200 Y1.43220
X1.36200 Y1.43420
X1.36100 Y1.43420
X1.36100 Y1.43920
X1.36000 Y1.43920
X1.36000 Y1.48220
X1.36100 Y1.48220
X1.36100 Y1.48720
X1.36200 Y1.48720
X1.36200 Y1.48920
X1.36300 Y1.48920
X1.36300 Y1.49120
X1.36400 Y1.49120
X1.36400 Y1.49220
X1.36500 Y1.49220
X1.36500 Y1.49420
X1.36600 Y1.49420
X1.36600 Y1.49520
X1.36700 Y1.49520
X1.36700 Y1.49620
X1.36900 Y1.49620
X1.36900 Y1.49720
X1.37100 Y1.49720
X1.37100 Y1.49820
X1.37300 Y1.49820
X1.37300 Y1.49920
X1.37800 Y1.49920
X1.37800 Y1.50020
X1.42000 Y1.50020
X1.42000 Y1.49920
X1.42500 Y1.49920
X1.42500 Y1.49720
X1.42900 Y1.49720
X1.42900 Y1.49520
X1.43200 Y1.49520
X1.43200 Y1.49120
X1.43500 Y1.49120
X1.43500 Y1.48220
X1.43900 Y1.48220
X1.43900 Y1.48020
G04 P0 ( dwell for no time -- G64 should not smooth over this point )
G00 Z0.19685 ( retract )

G00 X1.69600 Y1.39020 ( rapid move to begin. )
G01 Z-0.11417 F43.30709 ( plunge. )
G04 P0 ( dwell for no time -- G64 should not smooth over this point )
X1.69600 Y1.39020
X1.69600 Y1.38920
X1.69900 Y1.38920
X1.69900 Y1.32820
X1.69800 Y1.32820
X1.69800 Y1.32720
X1.69700 Y1.32720
X1.69700 Y1.32620
X1.69600 Y1.32620
X1.69600 Y1.32520
X1.69500 Y1.32520
X1.69500 Y1.32420
X1.69400 Y1.32420
X1.69400 Y1.32320
X1.69300 Y1.32320
X1.69300 Y1.32220
X1.69200 Y1.32220
X1.69200 Y1.32120
X1.69100 Y1.32120
X1.69100 Y1.32020
X1.69000 Y1.32020
X1.69000 Y1.31920
X1.68900 Y1.31920
X1.68900 Y1.31820
X1.68800 Y1.31820
X1.68800 Y1.31720
X1.68700 Y1.31720
X1.68700 Y1.31620
X1.68600 Y1.31620
X1.68600 Y1.31520
X1.68500 Y1.31520
X1.68500 Y1.31420
X1.68400 Y1.31420
X1.68400 Y1.31320
X1.68300 Y1.31320
X1.68300 Y1.31220
X1.68200 Y1.31220
X1.68200 Y1.31120
X1.61700 Y1.31120
X1.61700 Y1.31220
X1.61600 Y1.31220
X1.61600 Y1.31320
X1.61500 Y1.31320
X1.61500 Y1.31420
X1.61400 Y1.31420
X1.61400 Y1.31520
X1.61300 Y1.31520
X1.61300 Y1.31620
X1.61200 Y1.31620
X1.61200 Y1.31720
X1.61100 Y1.31720
X1.61100 Y1.31820
X1.61000 Y1.31820
X1.61000 Y1.31920
X1.60900 Y1.31920
X1.60900 Y1.32020
X1.60800 Y1.32020
X1.60800 Y1.32120
X1.60700 Y1.32120
X1.60700 Y1.32220
X1.60600 Y1.32220
X1.60600 Y1.32320
X1.60500 Y1.32320
X1.60500 Y1.32420
X1.60400 Y1.32420
X1.60400 Y1.32520
X1.60300 Y1.32520
X1.60300 Y1.32620
X1.60200 Y1.32620
X1.60200 Y1.32720
X1.60100 Y1.32720
X1.60100 Y1.32820
X1.60000 Y1.32820
X1.60000 Y1.39320
X1.60100 Y1.39320
X1.60100 Y1.39420
X1.60200 Y1.39420
X1.60200 Y1.39520
X1.60300 Y1.39520
X1.60300 Y1.39620
X1.60400 Y1.39620
X1.60400 Y1.39720
X1.60500 Y1.39720
X1.60500 Y1.39820
X1.60600 Y1.39820
X1.60600 Y1.39920
X1.60700 Y1.39920
X1.60700 Y1.40020
X1.60800 Y1.40020
X1.60800 Y1.40120
X1.60900 Y1.40120
X1.60900 Y1.40220
X1.61000 Y1.40220
X1.61000 Y1.40320
X1.61100 Y1.40320
X1.61100 Y1.40420
X1.61200 Y1.40420
X1.61200 Y1.40520
X1.61300 Y1.40520
X1.61300 Y1.40620
X1.61400 Y1.40620
X1.61400 Y1.40720
X1.61500 Y1.40720
X1.61500 Y1.40820
X1.61600 Y1.40820
X1.61600 Y1.40920
X1.61700 Y1.40920
X1.61700 Y1.41020
X1.68100 Y1.41020
X1.68100 Y1.40720
X1.68400 Y1.40720
X1.68400 Y1.40420
X1.68700 Y1.40420
X1.68700 Y1.40120
X1.69000 Y1.40120
X1.69000 Y1.39820
X1.69300 Y1.39820
X1.69300 Y1.39520
X1.69600 Y1.39520
X1.69600 Y1.39020
G04 P0 ( dwell for no time -- G64 should not smooth over this point )
G00 Z0.19685 ( retract )

G00 X1.79600 Y1.39020 ( rapid move to begin. )
G01 Z-0.11417 F43.30709 ( plunge. )
G04 P0 ( dwell for no time -- G64 should not smooth over this point )
X1.79600 Y1.39020
X1.79600 Y1.38920
X1.79900 Y1.38920
X1.79900 Y1.32820
X1.79800 Y1.32820
X1.79800 Y1.32720
X1.79700 Y1.32720
X1.79700 Y1.32620
X1.79600 Y1.32620
X1.79600 Y1.32520
X1.79500 Y1.32520
X1.79500 Y1.32420
X1.79400 Y1.32420
X1.79400 Y1.32320
X1.79300 Y1.32320
X1.79300 Y1.32220
X1.79200 Y1.32220
X1.79200 Y1.32120
X1.79100 Y1.32120
X1.79100 Y1.32020
X1.79000 Y1.32020
X1.79000 Y1.31920
X1.78900 Y1.31920
X1.78900 Y1.31820
X1.78800 Y1.31820
X1.78800 Y1.31720
X1.78700 Y1.31720
X1.78700 Y1.31620
X1.78600 Y1.31620
X1.78600 Y1.31520
X1.78500 Y1.31520
X1.78500 Y1.31420
X1.78400 Y1.31420
X1.78400 Y1.31320
X1.78300 Y1.31320
X1.78300 Y1.31220
X1.78200 Y1.31220
X1.78200 Y1.31120
X1.71700 Y1.31120
X1.71700 Y1.31220
X1.71600 Y1.31220
X1.71600 Y1.31320
X1.71500 Y1.31320
X1.71500 Y1.31420
X1.71400 Y1.31420
X1.71400 Y1.31520
X1.71300 Y1.31520
X1.71300 Y1.31620
X1.71200 Y1.31620
X1.71200 Y1.31720
X1.71100 Y1.31720
X1.71100 Y1.31820
X1.71000 Y1.31820
X1.71000 Y1.31920
X1.70900 Y1.31920
X1.70900 Y1.32020
X1.70800 Y1.32020
X1.70800 Y1.32120
X1.70700 Y1.32120
X1.70700 Y1.32220
X1.70600 Y1.32220
X1.70600 Y1.32320
X1.70500 Y1.32320
X1.70500 Y1.32420
X1.70400 Y1.32420
X1.70400 Y1.32520
X1.70300 Y1.32520
X1.70300 Y1.32620
X1.70200 Y1.32620
X1.70200 Y1.32720
X1.70100 Y1.32720
X1.70100 Y1.32820
X1.70000 Y1.32820
X1.70000 Y1.39320
X1.70100 Y1.39320
X1.70100 Y1.39420
X1.70200 Y1.39420
X1.70200 Y1.39520
X1.70300 Y1.39520
X1.70300 Y1.39620
X1.70400 Y1.39620
X1.70400 Y1.39720
X1.70500 Y1.39720
X1.70500 Y1.39820
X1.70600 Y1.39820
X1.70600 Y1.39920
X1.70700 Y1.39920
X1.70700 Y1.40020
X1.70800 Y1.40020
X1.70800 Y1.40120
X1.70900 Y1.40120
X1.70900 Y1.40220
X1.71000 Y1.40220
X1.71000 Y1.40320
X1.71100 Y1.40320
X1.71100 Y1.40420
X1.71200 Y1.40420
X1.71200 Y1.40520
X1.71300 Y1.40520
X1.71300 Y1.40620
X1.71400 Y1.40620
X1.71400 Y1.40720
X1.71500 Y1.40720
X1.71500 Y1.40820
X1.71600 Y1.40820
X1.71600 Y1.40920
X1.71700 Y1.40920
X1.71700 Y1.41020
X1.78100 Y1.41020
X1.78100 Y1.40720
X1.78400 Y1.40720
X1.78400 Y1.40420
X1.78700 Y1.40420
X1.78700 Y1.40120
X1.79000 Y1.40120
X1.79000 Y1.39820
X1.79300 Y1.39820
X1.79300 Y1.39520
X1.79600 Y1.39520
X1.79600 Y1.39020
G04 P0 ( dwell for no time -- G64 should not smooth over this point )
G00 Z0.19685 ( retract )

G00 X0.86600 Y1.38620 ( rapid move to begin. )
G01 Z-0.11417 F43.30709 ( plunge. )
G04 P0 ( dwell for no time -- G64 should not smooth over this point )
X0.86600 Y1.38620
X0.86600 Y1.38520
X0.86800 Y1.38520
X0.86800 Y1.38620
X0.87000 Y1.38620
X0.87000 Y1.38220
X0.87100 Y1.38220
X0.87100 Y1.33920
X0.87000 Y1.33920
X0.87000 Y1.33520
X0.86900 Y1.33520
X0.86900 Y1.33220
X0.86800 Y1.33220
X0.86800 Y1.32820
X0.86700 Y1.32820
X0.86700 Y1.32720
X0.86600 Y1.32720
X0.86600 Y1.32620
X0.86500 Y1.32620
X0.86500 Y1.32520
X0.86400 Y1.32520
X0.86400 Y1.32420
X0.86300 Y1.32420
X0.86300 Y1.32320
X0.86200 Y1.32320
X0.86200 Y1.32220
X0.86100 Y1.32220
X0.86100 Y1.32120
X0.86000 Y1.32120
X0.86000 Y1.32020
X0.85900 Y1.32020
X0.85900 Y1.31920
X0.85800 Y1.31920
X0.85800 Y1.31820
X0.85400 Y1.31820
X0.85400 Y1.31720
X0.85100 Y1.31720
X0.85100 Y1.31620
X0.84700 Y1.31620
X0.84700 Y1.31520
X0.75200 Y1.31520
X0.75200 Y1.31620
X0.74800 Y1.31620
X0.74800 Y1.31720
X0.74500 Y1.31720
X0.74500 Y1.31820
X0.74100 Y1.31820
X0.74100 Y1.31920
X0.74000 Y1.31920
X0.74000 Y1.32020
X0.73900 Y1.32020
X0.73900 Y1.32120
X0.73800 Y1.32120
X0.73800 Y1.32220
X0.73700 Y1.32220
X0.73700 Y1.32320
X0.73600 Y1.32320
X0.73600 Y1.32420
X0.73500 Y1.32420
X0.73500 Y1.32520
X0.73400 Y1.32520
X0.73400 Y1.32620
X0.73300 Y1.32620
X0.73300 Y1.32720
X0.73200 Y1.32720
X0.73200 Y1.32820
X0.73100 Y1.32820
X0.73100 Y1.33220
X0.73000 Y1.33220
X0.73000 Y1.33520
X0.72900 Y1.33520
X0.72900 Y1.33920
X0.72800 Y1.33920
X0.72800 Y1.38220
X0.72900 Y1.38220
X0.72900 Y1.38620
X0.73000 Y1.38620
X0.73000 Y1.38920
X0.73100 Y1.38920
X0.73100 Y1.39320
X0.73200 Y1.39320
X0.73200 Y1.39420
X0.73300 Y1.39420
X0.73300 Y1.39520
X0.73400 Y1.39520
X0.73400 Y1.39620
X0.73500 Y1.39620
X0.73500 Y1.39720
X0.73600 Y1.39720
X0.73600 Y1.39820
X0.73700 Y1.39820
X0.73700 Y1.39920
X0.73800 Y1.39920
X0.73800 Y1.40020
X0.73900 Y1.40020
X0.73900 Y1.40120
X0.74000 Y1.40120
X0.74000 Y1.40220
X0.74100 Y1.40220
X0.74100 Y1.40320
X0.74500 Y1.40320
X0.74500 Y1.40420
X0.74800 Y1.40420
X0.74800 Y1.40520
X0.75200 Y1.40520
X0.75200 Y1.40620
X0.84600 Y1.40620
X0.84600 Y1.40520
X0.85000 Y1.40520
X0.85000 Y1.40420
X0.85300 Y1.40420
X0.85300 Y1.40320
X0.85700 Y1.40320
X0.85700 Y1.40020
X0.86000 Y1.40020
X0.86000 Y1.39720
X0.86300 Y1.39720
X0.86300 Y1.39420
X0.86600 Y1.39420
X0.86600 Y1.38620
G04 P0 ( dwell for no time -- G64 should not smooth over this point )
G00 Z0.19685 ( retract )

G00 X1.16600 Y1.38620 ( rapid move to begin. )
G01 Z-0.11417 F43.30709 ( plunge. )
G04 P0 ( dwell for no time -- G64 should not smooth over this point )
X1.16600 Y1.38620
X1.16600 Y1.38520
X1.16800 Y1.38520
X1.16800 Y1.38620
X1.17000 Y1.38620
X1.17000 Y1.38220
X1.17100 Y1.38220
X1.17100 Y1.33920
X1.17000 Y1.33920
X1.17000 Y1.33520
X1.16900 Y1.33520
X1.16900 Y1.33220
X1.16800 Y1.33220
X1.16800 Y1.32820
X1.16700 Y1.32820
X1.16700 Y1.32720
X1.16600 Y1.32720
X1.16600 Y1.32620
X1.16500 Y1.32620
X1.16500 Y1.32520
X1.16400 Y1.32520
X1.16400 Y1.32420
X1.16300 Y1.32420
X1.16300 Y1.32320
X1.16200 Y1.32320
X1.16200 Y1.32220
X1.16100 Y1.32220
X1.16100 Y1.32120
X1.16000 Y1.32120
X1.16000 Y1.32020
X1.15900 Y1.32020
X1.15900 Y1.31920
X1.15800 Y1.31920
X1.15800 Y1.31820
X1.15400 Y1.31820
X1.15400 Y1.31720
X1.15100 Y1.31720
X1.15100 Y1.31620
X1.14700 Y1.31620
X1.14700 Y1.31520
X1.05200 Y1.31520
X1.05200 Y1.31620
X1.04800 Y1.31620
X1.04800 Y1.31720
X1.04500 Y1.31720
X1.04500 Y1.31820
X1.04100 Y1.31820
X1.04100 Y1.31920
X1.04000 Y1.31920
X1.04000 Y1.32020
X1.03900 Y1.32020
X1.03900 Y1.32120
X1.03800 Y1.32120
X1.03800 Y1.32220
X1.03700 Y1.32220
X1.03700 Y1.32320
X1.03600 Y1.32320
X1.03600 Y1.32420
X1.03500 Y1.32420
X1.03500 Y1.32520
X1.03400 Y1.32520
X1.03400 Y1.32620
X1.03300 Y1.32620
X1.03300 Y1.32720
X1.03200 Y1.32720
X1.03200 Y1.32820
X1.03100 Y1.32820
X1.03100 Y1.33220
X1.03000 Y1.33220
X1.03000 Y1.33520
X1.02900 Y1.33520
X1.02900 Y1.33920
X1.02800 Y1.33920
X1.02800 Y1.38220
X1.02900 Y1.38220
X1.02900 Y1.38620
X1.03000 Y1.38620
X1.03000 Y1.38920
X1.03100 Y1.38920
X1.03100 Y1.39320
X1.03200 Y1.39320
X1.03200 Y1.39420
X1.03300 Y1.39420
X1.03300 Y1.39520
X1.03400 Y1.39520
X1.03400 Y1.39620
X1.03500 Y1.39620
X1.03500 Y1.39720
X1.03600 Y1.39720
X1.03600 Y1.39820
X1.03700 Y1.39820
X1.03700 Y1.39920
X1.03800 Y1.39920
X1.03800 Y1.40020
X1.03900 Y1.40020
X1.03900 Y1.40120
X1.04000 Y1.40120
X1.04000 Y1.40220
X1.04100 Y1.40220
X1.04100 Y1.40320
X1.04500 Y1.40320
X1.04500 Y1.40420
X1.04800 Y1.40420
X1.04800 Y1.40520
X1.05200 Y1.40520
X1.05200 Y1.40620
X1.14600 Y1.40620
X1.14600 Y1.40520
X1.15000 Y1.40520
X1.15000 Y1.40420
X1.15300 Y1.40420
X1.15300 Y1.40320
X1.15700 Y1.40320
X1.15700 Y1.40020
X1.16000 Y1.40020
X1.16000 Y1.39720
X1.16300 Y1.39720
X1.16300 Y1.39420
X1.16600 Y1.39420
X1.16600 Y1.38620
G04 P0 ( dwell for no time -- G64 should not smooth over this point )
G00 Z0.19685 ( retract )

G00 X0.52400 Y1.29020 ( rapid move to begin. )
G01 Z-0.11417 F43.30709 ( plunge. )
G04 P0 ( dwell for no time -- G64 should not smooth over this point )
X0.52400 Y1.29020
X0.52400 Y1.28920
X0.52700 Y1.28920
X0.52700 Y1.28720
X0.52800 Y1.28720
X0.52800 Y1.28220
X0.52900 Y1.28220
X0.52900 Y1.23920
X0.52800 Y1.23920
X0.52800 Y1.23420
X0.52700 Y1.23420
X0.52700 Y1.23020
X0.52600 Y1.23020
X0.52600 Y1.22720
X0.52500 Y1.22720
X0.52500 Y1.22620
X0.52400 Y1.22620
X0.52400 Y1.22520
X0.52300 Y1.22520
X0.52300 Y1.22420
X0.52200 Y1.22420
X0.52200 Y1.22220
X0.52100 Y1.22220
X0.52100 Y1.22120
X0.52000 Y1.22120
X0.52000 Y1.22020
X0.51900 Y1.22020
X0.51900 Y1.21920
X0.51800 Y1.21920
X0.51800 Y1.21720
X0.51600 Y1.21720
X0.51600 Y1.21620
X0.51300 Y1.21620
X0.51300 Y1.21520
X0.51100 Y1.21520
X0.51100 Y1.21420
X0.50900 Y1.21420
X0.50900 Y1.21320
X0.50700 Y1.21320
X0.50700 Y1.21220
X0.50300 Y1.21220
X0.50300 Y1.21120
X0.39600 Y1.21120
X0.39600 Y1.21220
X0.39200 Y1.21220
X0.39200 Y1.21320
X0.39000 Y1.21320
X0.39000 Y1.21420
X0.38800 Y1.21420
X0.38800 Y1.21520
X0.38600 Y1.21520
X0.38600 Y1.21620
X0.38300 Y1.21620
X0.38300 Y1.21720
X0.38100 Y1.21720
X0.38100 Y1.21920
X0.38000 Y1.21920
X0.38000 Y1.22020
X0.37900 Y1.22020
X0.37900 Y1.22120
X0.37800 Y1.22120
X0.37800 Y1.22220
X0.37700 Y1.22220
X0.37700 Y1.22420
X0.37600 Y1.22420
X0.37600 Y1.22520
X0.37500 Y1.22520
X0.37500 Y1.22620
X0.37400 Y1.22620
X0.37400 Y1.22720
X0.37300 Y1.22720
X0.37300 Y1.23020
X0.37200 Y1.23020
X0.37200 Y1.23420
X0.37100 Y1.23420
X0.37100 Y1.23920
X0.37000 Y1.23920
X0.37000 Y1.28220
X0.37100 Y1.28220
X0.37100 Y1.28720
X0.37200 Y1.28720
X0.37200 Y1.29120
X0.37300 Y1.29120
X0.37300 Y1.29420
X0.37400 Y1.29420
X0.37400 Y1.29520
X0.37500 Y1.29520
X0.37500 Y1.29620
X0.37600 Y1.29620
X0.37600 Y1.29720
X0.37700 Y1.29720
X0.37700 Y1.29920
X0.37800 Y1.29920
X0.37800 Y1.30020
X0.37900 Y1.30020
X0.37900 Y1.30120
X0.38000 Y1.30120
X0.38000 Y1.30220
X0.38100 Y1.30220
X0.38100 Y1.30420
X0.38300 Y1.30420
X0.38300 Y1.30520
X0.38600 Y1.30520
X0.38600 Y1.30620
X0.38800 Y1.30620
X0.38800 Y1.30720
X0.39000 Y1.30720
X0.39000 Y1.30820
X0.39200 Y1.30820
X0.39200 Y1.30920
X0.39600 Y1.30920
X0.39600 Y1.31020
X0.50200 Y1.31020
X0.50200 Y1.30920
X0.50600 Y1.30920
X0.50600 Y1.30720
X0.51000 Y1.30720
X0.51000 Y1.30520
X0.51500 Y1.30520
X0.51500 Y1.30220
X0.51800 Y1.30220
X0.51800 Y1.29920
X0.52100 Y1.29920
X0.52100 Y1.29520
X0.52400 Y1.29520
X0.52400 Y1.29020
G04 P0 ( dwell for no time -- G64 should not smooth over this point )
G00 Z0.19685 ( retract )

G00 X1.69600 Y1.29020 ( rapid move to begin. )
G01 Z-0.11417 F43.30709 ( plunge. )
G04 P0 ( dwell for no time -- G64 should not smooth over this point )
X1.69600 Y1.29020
X1.69600 Y1.28920
X1.69900 Y1.28920
X1.69900 Y1.22820
X1.69800 Y1.22820
X1.69800 Y1.22720
X1.69700 Y1.22720
X1.69700 Y1.22620
X1.69600 Y1.22620
X1.69600 Y1.22520
X1.69500 Y1.22520
X1.69500 Y1.22420
X1.69400 Y1.22420
X1.69400 Y1.22320
X1.69300 Y1.22320
X1.69300 Y1.22220
X1.69200 Y1.22220
X1.69200 Y1.22120
X1.69100 Y1.22120
X1.69100 Y1.22020
X1.69000 Y1.22020
X1.69000 Y1.21920
X1.68900 Y1.21920
X1.68900 Y1.21820
X1.68800 Y1.21820
X1.68800 Y1.21720
X1.68700 Y1.21720
X1.68700 Y1.21620
X1.68600 Y1.21620
X1.68600 Y1.21520
X1.68500 Y1.21520
X1.68500 Y1.21420
X1.68400 Y1.21420
X1.68400 Y1.21320
X1.68300 Y1.21320
X1.68300 Y1.21220
X1.68200 Y1.21220
X1.68200 Y1.21120
X1.61700 Y1.21120
X1.61700 Y1.21220
X1.61600 Y1.21220
X1.61600 Y1.21320
X1.61500 Y1.21320
X1.61500 Y1.21420
X1.61400 Y1.21420
X1.61400 Y1.21520
X1.61300 Y1.21520
X1.61300 Y1.21620
X1.61200 Y1.21620
X1.61200 Y1.21720
X1.61100 Y1.21720
X1.61100 Y1.21820
X1.61000 Y1.21820
X1.61000 Y1.21920
X1.60900 Y1.21920
X1.60900 Y1.22020
X1.60800 Y1.22020
X1.60800 Y1.22120
X1.60700 Y1.22120
X1.60700 Y1.22220
X1.60600 Y1.22220
X1.60600 Y1.22320
X1.60500 Y1.22320
X1.60500 Y1.22420
X1.60400 Y1.22420
X1.60400 Y1.22520
X1.60300 Y1.22520
X1.60300 Y1.22620
X1.60200 Y1.22620
X1.60200 Y1.22720
X1.60100 Y1.22720
X1.60100 Y1.22820
X1.60000 Y1.22820
X1.60000 Y1.29320
X1.60100 Y1.29320
X1.60100 Y1.29420
X1.60200 Y1.29420
X1.60200 Y1.29520
X1.60300 Y1.29520
X1.60300 Y1.29620
X1.60400 Y1.29620
X1.60400 Y1.29720
X1.60500 Y1.29720
X1.60500 Y1.29820
X1.60600 Y1.29820
X1.60600 Y1.29920
X1.60700 Y1.29920
X1.60700 Y1.30020
X1.60800 Y1.30020
X1.60800 Y1.30120
X1.60900 Y1.30120
X1.60900 Y1.30220
X1.61000 Y1.30220
X1.61000 Y1.30320
X1.61100 Y1.30320
X1.61100 Y1.30420
X1.61200 Y1.30420
X1.61200 Y1.30520
X1.61300 Y1.30520
X1.61300 Y1.30620
X1.61400 Y1.30620
X1.61400 Y1.30720
X1.61500 Y1.30720
X1.61500 Y1.30820
X1.61600 Y1.30820
X1.61600 Y1.30920
X1.61700 Y1.30920
X1.61700 Y1.31020
X1.68100 Y1.31020
X1.68100 Y1.30720
X1.68400 Y1.30720
X1.68400 Y1.30420
X1.68700 Y1.30420
X1.68700 Y1.30120
X1.69000 Y1.30120
X1.69000 Y1.29820
X1.69300 Y1.29820
X1.69300 Y1.29520
X1.69600 Y1.29520
X1.69600 Y1.29020
G04 P0 ( dwell for no time -- G64 should not smooth over this point )
G00 Z0.19685 ( retract )

G00 X1.79600 Y1.29020 ( rapid move to begin. )
G01 Z-0.11417 F43.30709 ( plunge. )
G04 P0 ( dwell for no time -- G64 should not smooth over this point )
X1.79600 Y1.29020
X1.79600 Y1.28920
X1.79900 Y1.28920
X1.79900 Y1.22820
X1.79800 Y1.22820
X1.79800 Y1.22720
X1.79700 Y1.22720
X1.79700 Y1.22620
X1.79600 Y1.22620
X1.79600 Y1.22520
X1.79500 Y1.22520
X1.79500 Y1.22420
X1.79400 Y1.22420
X1.79400 Y1.22320
X1.79300 Y1.22320
X1.79300 Y1.22220
X1.79200 Y1.22220
X1.79200 Y1.22120
X1.79100 Y1.22120
X1.79100 Y1.22020
X1.79000 Y1.22020
X1.79000 Y1.21920
X1.78900 Y1.21920
X1.78900 Y1.21820
X1.78800 Y1.21820
X1.78800 Y1.21720
X1.78700 Y1.21720
X1.78700 Y1.21620
X1.78600 Y1.21620
X1.78600 Y1.21520
X1.78500 Y1.21520
X1.78500 Y1.21420
X1.78400 Y1.21420
X1.78400 Y1.21320
X1.78300 Y1.21320
X1.78300 Y1.21220
X1.78200 Y1.21220
X1.78200 Y1.21120
X1.71700 Y1.21120
X1.71700 Y1.21220
X1.71600 Y1.21220
X1.71600 Y1.21320
X1.71500 Y1.21320
X1.71500 Y1.21420
X1.71400 Y1.21420
X1.71400 Y1.21520
X1.71300 Y1.21520
X1.71300 Y1.21620
X1.71200 Y1.21620
X1.71200 Y1.21720
X1.71100 Y1.21720
X1.71100 Y1.21820
X1.71000 Y1.21820
X1.71000 Y1.21920
X1.70900 Y1.21920
X1.70900 Y1.22020
X1.70800 Y1.22020
X1.70800 Y1.22120
X1.70700 Y1.22120
X1.70700 Y1.22220
X1.70600 Y1.22220
X1.70600 Y1.22320
X1.70500 Y1.22320
X1.70500 Y1.22420
X1.70400 Y1.22420
X1.70400 Y1.22520
X1.70300 Y1.22520
X1.70300 Y1.22620
X1.70200 Y1.22620
X1.70200 Y1.22720
X1.70100 Y1.22720
X1.70100 Y1.22820
X1.70000 Y1.22820
X1.70000 Y1.29320
X1.70100 Y1.29320
X1.70100 Y1.29420
X1.70200 Y1.29420
X1.70200 Y1.29520
X1.70300 Y1.29520
X1.70300 Y1.29620
X1.70400 Y1.29620
X1.70400 Y1.29720
X1.70500 Y1.29720
X1.70500 Y1.29820
X1.70600 Y1.29820
X1.70600 Y1.29920
X1.70700 Y1.29920
X1.70700 Y1.30020
X1.70800 Y1.30020
X1.70800 Y1.30120
X1.70900 Y1.30120
X1.70900 Y1.30220
X1.71000 Y1.30220
X1.71000 Y1.30320
X1.71100 Y1.30320
X1.71100 Y1.30420
X1.71200 Y1.30420
X1.71200 Y1.30520
X1.71300 Y1.30520
X1.71300 Y1.30620
X1.71400 Y1.30620
X1.71400 Y1.30720
X1.71500 Y1.30720
X1.71500 Y1.30820
X1.71600 Y1.30820
X1.71600 Y1.30920
X1.71700 Y1.30920
X1.71700 Y1.31020
X1.78100 Y1.31020
X1.78100 Y1.30720
X1.78400 Y1.30720
X1.78400 Y1.30420
X1.78700 Y1.30420
X1.78700 Y1.30120
X1.79000 Y1.30120
X1.79000 Y1.29820
X1.79300 Y1.29820
X1.79300 Y1.29520
X1.79600 Y1.29520
X1.79600 Y1.29020
G04 P0 ( dwell for no time -- G64 should not smooth over this point )
G00 Z0.19685 ( retract )

G00 X0.86600 Y1.28620 ( rapid move to begin. )
G01 Z-0.11417 F43.30709 ( plunge. )
G04 P0 ( dwell for no time -- G64 should not smooth over this point )
X0.86600 Y1.28620
X0.86600 Y1.28520
X0.86800 Y1.28520
X0.86800 Y1.28620
X0.87000 Y1.28620
X0.87000 Y1.28220
X0.87100 Y1.28220
X0.87100 Y1.23920
X0.87000 Y1.23920
X0.87000 Y1.23520
X0.86900 Y1.23520
X0.86900 Y1.23220
X0.86800 Y1.23220
X0.86800 Y1.22820
X0.86700 Y1.22820
X0.86700 Y1.22720
X0.86600 Y1.22720
X0.86600 Y1.22620
X0.86500 Y1.22620
X0.86500 Y1.22520
X0.86400 Y1.22520
X0.86400 Y1.22420
X0.86300 Y1.22420
X0.86300 Y1.22320
X0.86200 Y1.22320
X0.86200 Y1.22220
X0.86100 Y1.22220
X0.86100 Y1.22120
X0.86000 Y1.22120
X0.86000 Y1.22020
X0.85900 Y1.22020
X0.85900 Y1.21920
X0.85800 Y1.21920
X0.85800 Y1.21820
X0.85400 Y1.21820
X0.85400 Y1.21720
X0.85100 Y1.21720
X0.85100 Y1.21620
X0.84700 Y1.21620
X0.84700 Y1.21520
X0.75200 Y1.21520
X0.75200 Y1.21620
X0.74800 Y1.21620
X0.74800 Y1.21720
X0.74500 Y1.21720
X0.74500 Y1.21820
X0.74100 Y1.21820
X0.74100 Y1.21920
X0.74000 Y1.21920
X0.74000 Y1.22020
X0.73900 Y1.22020
X0.73900 Y1.22120
X0.73800 Y1.22120
X0.73800 Y1.22220
X0.73700 Y1.22220
X0.73700 Y1.22320
X0.73600 Y1.22320
X0.73600 Y1.22420
X0.73500 Y1.22420
X0.73500 Y1.22520
X0.73400 Y1.22520
X0.73400 Y1.22620
X0.73300 Y1.22620
X0.73300 Y1.22720
X0.73200 Y1.22720
X0.73200 Y1.22820
X0.73100 Y1.22820
X0.73100 Y1.23220
X0.73000 Y1.23220
X0.73000 Y1.23520
X0.72900 Y1.23520
X0.72900 Y1.23920
X0.72800 Y1.23920
X0.72800 Y1.28220
X0.72900 Y1.28220
X0.72900 Y1.28620
X0.73000 Y1.28620
X0.73000 Y1.28920
X0.73100 Y1.28920
X0.73100 Y1.29320
X0.73200 Y1.29320
X0.73200 Y1.29420
X0.73300 Y1.29420
X0.73300 Y1.29520
X0.73400 Y1.29520
X0.73400 Y1.29620
X0.73500 Y1.29620
X0.73500 Y1.29720
X0.73600 Y1.29720
X0.73600 Y1.29820
X0.73700 Y1.29820
X0.73700 Y1.29920
X0.73800 Y1.29920
X0.73800 Y1.30020
X0.73900 Y1.30020
X0.73900 Y1.30120
X0.74000 Y1.30120
X0.74000 Y1.30220
X0.74100 Y1.30220
X0.74100 Y1.30320
X0.74500 Y1.30320
X0.74500 Y1.30420
X0.74800 Y1.30420
X0.74800 Y1.30520
X0.75200 Y1.30520
X0.75200 Y1.30620
X0.84600 Y1.30620
X0.84600 Y1.30520
X0.85000 Y1.30520
X0.85000 Y1.30420
X0.85300 Y1.30420
X0.85300 Y1.30320
X0.85700 Y1.30320
X0.85700 Y1.30020
X0.86000 Y1.30020
X0.86000 Y1.29720
X0.86300 Y1.29720
X0.86300 Y1.29420
X0.86600 Y1.29420
X0.86600 Y1.28620
G04 P0 ( dwell for no time -- G64 should not smooth over this point )
G00 Z0.19685 ( retract )

G00 X1.16600 Y1.28620 ( rapid move to begin. )
G01 Z-0.11417 F43.30709 ( plunge. )
G04 P0 ( dwell for no time -- G64 should not smooth over this point )
X1.16600 Y1.28620
X1.16600 Y1.28520
X1.16800 Y1.28520
X1.16800 Y1.28620
X1.17000 Y1.28620
X1.17000 Y1.28220
X1.17100 Y1.28220
X1.17100 Y1.23920
X1.17000 Y1.23920
X1.17000 Y1.23520
X1.16900 Y1.23520
X1.16900 Y1.23220
X1.16800 Y1.23220
X1.16800 Y1.22820
X1.16700 Y1.22820
X1.16700 Y1.22720
X1.16600 Y1.22720
X1.16600 Y1.22620
X1.16500 Y1.22620
X1.16500 Y1.22520
X1.16400 Y1.22520
X1.16400 Y1.22420
X1.16300 Y1.22420
X1.16300 Y1.22320
X1.16200 Y1.22320
X1.16200 Y1.22220
X1.16100 Y1.22220
X1.16100 Y1.22120
X1.16000 Y1.22120
X1.16000 Y1.22020
X1.15900 Y1.22020
X1.15900 Y1.21920
X1.15800 Y1.21920
X1.15800 Y1.21820
X1.15400 Y1.21820
X1.15400 Y1.21720
X1.15100 Y1.21720
X1.15100 Y1.21620
X1.14700 Y1.21620
X1.14700 Y1.21520
X1.05200 Y1.21520
X1.05200 Y1.21620
X1.04800 Y1.21620
X1.04800 Y1.21720
X1.04500 Y1.21720
X1.04500 Y1.21820
X1.04100 Y1.21820
X1.04100 Y1.21920
X1.04000 Y1.21920
X1.04000 Y1.22020
X1.03900 Y1.22020
X1.03900 Y1.22120
X1.03800 Y1.22120
X1.03800 Y1.22220
X1.03700 Y1.22220
X1.03700 Y1.22320
X1.03600 Y1.22320
X1.03600 Y1.22420
X1.03500 Y1.22420
X1.03500 Y1.22520
X1.03400 Y1.22520
X1.03400 Y1.22620
X1.03300 Y1.22620
X1.03300 Y1.22720
X1.03200 Y1.22720
X1.03200 Y1.22820
X1.03100 Y1.22820
X1.03100 Y1.23220
X1.03000 Y1.23220
X1.03000 Y1.23520
X1.02900 Y1.23520
X1.02900 Y1.23920
X1.02800 Y1.23920
X1.02800 Y1.28220
X1.02900 Y1.28220
X1.02900 Y1.28620
X1.03000 Y1.28620
X1.03000 Y1.28920
X1.03100 Y1.28920
X1.03100 Y1.29320
X1.03200 Y1.29320
X1.03200 Y1.29420
X1.03300 Y1.29420
X1.03300 Y1.29520
X1.03400 Y1.29520
X1.03400 Y1.29620
X1.03500 Y1.29620
X1.03500 Y1.29720
X1.03600 Y1.29720
X1.03600 Y1.29820
X1.03700 Y1.29820
X1.03700 Y1.29920
X1.03800 Y1.29920
X1.03800 Y1.30020
X1.03900 Y1.30020
X1.03900 Y1.30120
X1.04000 Y1.30120
X1.04000 Y1.30220
X1.04100 Y1.30220
X1.04100 Y1.30320
X1.04500 Y1.30320
X1.04500 Y1.30420
X1.04800 Y1.30420
X1.04800 Y1.30520
X1.05200 Y1.30520
X1.05200 Y1.30620
X1.14600 Y1.30620
X1.14600 Y1.30520
X1.15000 Y1.30520
X1.15000 Y1.30420
X1.15300 Y1.30420
X1.15300 Y1.30320
X1.15700 Y1.30320
X1.15700 Y1.30020
X1.16000 Y1.30020
X1.16000 Y1.29720
X1.16300 Y1.29720
X1.16300 Y1.29420
X1.16600 Y1.29420
X1.16600 Y1.28620
G04 P0 ( dwell for no time -- G64 should not smooth over this point )
G00 Z0.19685 ( retract )

G00 X0.52400 Y1.19020 ( rapid move to begin. )
G01 Z-0.11417 F43.30709 ( plunge. )
G04 P0 ( dwell for no time -- G64 should not smooth over this point )
X0.52400 Y1.19020
X0.52400 Y1.18920
X0.52700 Y1.18920
X0.52700 Y1.18720
X0.52800 Y1.18720
X0.52800 Y1.18220
X0.52900 Y1.18220
X0.52900 Y1.13920
X0.52800 Y1.13920
X0.52800 Y1.13420
X0.52700 Y1.13420
X0.52700 Y1.13020
X0.52600 Y1.13020
X0.52600 Y1.12720
X0.52500 Y1.12720
X0.52500 Y1.12620
X0.52400 Y1.12620
X0.52400 Y1.12520
X0.52300 Y1.12520
X0.52300 Y1.12420
X0.52200 Y1.12420
X0.52200 Y1.12220
X0.52100 Y1.12220
X0.52100 Y1.12120
X0.52000 Y1.12120
X0.52000 Y1.12020
X0.51900 Y1.12020
X0.51900 Y1.11920
X0.51800 Y1.11920
X0.51800 Y1.11720
X0.51600 Y1.11720
X0.51600 Y1.11620
X0.51300 Y1.11620
X0.51300 Y1.11520
X0.51100 Y1.11520
X0.51100 Y1.11420
X0.50900 Y1.11420
X0.50900 Y1.11320
X0.50700 Y1.11320
X0.50700 Y1.11220
X0.50300 Y1.11220
X0.50300 Y1.11120
X0.39600 Y1.11120
X0.39600 Y1.11220
X0.39200 Y1.11220
X0.39200 Y1.11320
X0.39000 Y1.11320
X0.39000 Y1.11420
X0.38800 Y1.11420
X0.38800 Y1.11520
X0.38600 Y1.11520
X0.38600 Y1.11620
X0.38300 Y1.11620
X0.38300 Y1.11720
X0.38100 Y1.11720
X0.38100 Y1.11920
X0.38000 Y1.11920
X0.38000 Y1.12020
X0.37900 Y1.12020
X0.37900 Y1.12120
X0.37800 Y1.12120
X0.37800 Y1.12220
X0.37700 Y1.12220
X0.37700 Y1.12420
X0.37600 Y1.12420
X0.37600 Y1.12520
X0.37500 Y1.12520
X0.37500 Y1.12620
X0.37400 Y1.12620
X0.37400 Y1.12720
X0.37300 Y1.12720
X0.37300 Y1.13020
X0.37200 Y1.13020
X0.37200 Y1.13420
X0.37100 Y1.13420
X0.37100 Y1.13920
X0.37000 Y1.13920
X0.37000 Y1.18220
X0.37100 Y1.18220
X0.37100 Y1.18720
X0.37200 Y1.18720
X0.37200 Y1.19120
X0.37300 Y1.19120
X0.37300 Y1.19420
X0.37400 Y1.19420
X0.37400 Y1.19520
X0.37500 Y1.19520
X0.37500 Y1.19620
X0.37600 Y1.19620
X0.37600 Y1.19720
X0.37700 Y1.19720
X0.37700 Y1.19920
X0.37800 Y1.19920
X0.37800 Y1.20020
X0.37900 Y1.20020
X0.37900 Y1.20120
X0.38000 Y1.20120
X0.38000 Y1.20220
X0.38100 Y1.20220
X0.38100 Y1.20420
X0.38300 Y1.20420
X0.38300 Y1.20520
X0.38600 Y1.20520
X0.38600 Y1.20620
X0.38800 Y1.20620
X0.38800 Y1.20720
X0.39000 Y1.20720
X0.39000 Y1.20820
X0.39200 Y1.20820
X0.39200 Y1.20920
X0.39600 Y1.20920
X0.39600 Y1.21020
X0.50200 Y1.21020
X0.50200 Y1.20920
X0.50600 Y1.20920
X0.50600 Y1.20720
X0.51000 Y1.20720
X0.51000 Y1.20520
X0.51500 Y1.20520
X0.51500 Y1.20220
X0.51800 Y1.20220
X0.51800 Y1.19920
X0.52100 Y1.19920
X0.52100 Y1.19520
X0.52400 Y1.19520
X0.52400 Y1.19020
G04 P0 ( dwell for no time -- G64 should not smooth over this point )
G00 Z0.19685 ( retract )

G00 X1.69600 Y1.19020 ( rapid move to begin. )
G01 Z-0.11417 F43.30709 ( plunge. )
G04 P0 ( dwell for no time -- G64 should not smooth over this point )
X1.69600 Y1.19020
X1.69600 Y1.18920
X1.69900 Y1.18920
X1.69900 Y1.12820
X1.69800 Y1.12820
X1.69800 Y1.12720
X1.69700 Y1.12720
X1.69700 Y1.12620
X1.69600 Y1.12620
X1.69600 Y1.12520
X1.69500 Y1.12520
X1.69500 Y1.12420
X1.69400 Y1.12420
X1.69400 Y1.12320
X1.69300 Y1.12320
X1.69300 Y1.12220
X1.69200 Y1.12220
X1.69200 Y1.12120
X1.69100 Y1.12120
X1.69100 Y1.12020
X1.69000 Y1.12020
X1.69000 Y1.11920
X1.68900 Y1.11920
X1.68900 Y1.11820
X1.68800 Y1.11820
X1.68800 Y1.11720
X1.68700 Y1.11720
X1.68700 Y1.11620
X1.68600 Y1.11620
X1.68600 Y1.11520
X1.68500 Y1.11520
X1.68500 Y1.11420
X1.68400 Y1.11420
X1.68400 Y1.11320
X1.68300 Y1.11320
X1.68300 Y1.11220
X1.68200 Y1.11220
X1.68200 Y1.11120
X1.61700 Y1.11120
X1.61700 Y1.11220
X1.61600 Y1.11220
X1.61600 Y1.11320
X1.61500 Y1.11320
X1.61500 Y1.11420
X1.61400 Y1.11420
X1.61400 Y1.11520
X1.61300 Y1.11520
X1.61300 Y1.11620
X1.61200 Y1.11620
X1.61200 Y1.11720
X1.61100 Y1.11720
X1.61100 Y1.11820
X1.61000 Y1.11820
X1.61000 Y1.11920
X1.60900 Y1.11920
X1.60900 Y1.12020
X1.60800 Y1.12020
X1.60800 Y1.12120
X1.60700 Y1.12120
X1.60700 Y1.12220
X1.60600 Y1.12220
X1.60600 Y1.12320
X1.60500 Y1.12320
X1.60500 Y1.12420
X1.60400 Y1.12420
X1.60400 Y1.12520
X1.60300 Y1.12520
X1.60300 Y1.12620
X1.60200 Y1.12620
X1.60200 Y1.12720
X1.60100 Y1.12720
X1.60100 Y1.12820
X1.60000 Y1.12820
X1.60000 Y1.19320
X1.60100 Y1.19320
X1.60100 Y1.19420
X1.60200 Y1.19420
X1.60200 Y1.19520
X1.60300 Y1.19520
X1.60300 Y1.19620
X1.60400 Y1.19620
X1.60400 Y1.19720
X1.60500 Y1.19720
X1.60500 Y1.19820
X1.60600 Y1.19820
X1.60600 Y1.19920
X1.60700 Y1.19920
X1.60700 Y1.20020
X1.60800 Y1.20020
X1.60800 Y1.20120
X1.60900 Y1.20120
X1.60900 Y1.20220
X1.61000 Y1.20220
X1.61000 Y1.20320
X1.61100 Y1.20320
X1.61100 Y1.20420
X1.61200 Y1.20420
X1.61200 Y1.20520
X1.61300 Y1.20520
X1.61300 Y1.20620
X1.61400 Y1.20620
X1.61400 Y1.20720
X1.61500 Y1.20720
X1.61500 Y1.20820
X1.61600 Y1.20820
X1.61600 Y1.20920
X1.61700 Y1.20920
X1.61700 Y1.21020
X1.68100 Y1.21020
X1.68100 Y1.20720
X1.68400 Y1.20720
X1.68400 Y1.20420
X1.68700 Y1.20420
X1.68700 Y1.20120
X1.69000 Y1.20120
X1.69000 Y1.19820
X1.69300 Y1.19820
X1.69300 Y1.19520
X1.69600 Y1.19520
X1.69600 Y1.19020
G04 P0 ( dwell for no time -- G64 should not smooth over this point )
G00 Z0.19685 ( retract )

G00 X1.79900 Y1.19020 ( rapid move to begin. )
G01 Z-0.11417 F43.30709 ( plunge. )
G04 P0 ( dwell for no time -- G64 should not smooth over this point )
X1.79900 Y1.19020
X1.79900 Y1.11120
X1.70000 Y1.11120
X1.70000 Y1.21020
X1.79900 Y1.21020
X1.79900 Y1.19020
G04 P0 ( dwell for no time -- G64 should not smooth over this point )
G00 Z0.19685 ( retract )

G00 X0.73800 Y1.18620 ( rapid move to begin. )
G01 Z-0.11417 F43.30709 ( plunge. )
G04 P0 ( dwell for no time -- G64 should not smooth over this point )
X0.73800 Y1.18620
X0.73800 Y1.17820
X0.73700 Y1.17820
X0.73700 Y1.14320
X0.73800 Y1.14320
X0.73800 Y1.12320
X0.73700 Y1.12320
X0.73700 Y1.12220
X0.73600 Y1.12220
X0.73600 Y1.12120
X0.73500 Y1.12120
X0.73500 Y1.12020
X0.73400 Y1.12020
X0.73400 Y1.11920
X0.73300 Y1.11920
X0.73300 Y1.11820
X0.73200 Y1.11820
X0.73200 Y1.11720
X0.73100 Y1.11720
X0.73100 Y1.11620
X0.73000 Y1.11620
X0.73000 Y1.11520
X0.66900 Y1.11520
X0.66900 Y1.11620
X0.66800 Y1.11620
X0.66800 Y1.11720
X0.66700 Y1.11720
X0.66700 Y1.11820
X0.66600 Y1.11820
X0.66600 Y1.11920
X0.66500 Y1.11920
X0.66500 Y1.12020
X0.66400 Y1.12020
X0.66400 Y1.12120
X0.66300 Y1.12120
X0.66300 Y1.12220
X0.66200 Y1.12220
X0.66200 Y1.12320
X0.66100 Y1.12320
X0.66100 Y1.12420
X0.66000 Y1.12420
X0.66000 Y1.12520
X0.65900 Y1.12520
X0.65900 Y1.12620
X0.65800 Y1.12620
X0.65800 Y1.12720
X0.65700 Y1.12720
X0.65700 Y1.12820
X0.65600 Y1.12820
X0.65600 Y1.12920
X0.65500 Y1.12920
X0.65500 Y1.13020
X0.65400 Y1.13020
X0.65400 Y1.19120
X0.65500 Y1.19120
X0.65500 Y1.19220
X0.65600 Y1.19220
X0.65600 Y1.19320
X0.65700 Y1.19320
X0.65700 Y1.19420
X0.65800 Y1.19420
X0.65800 Y1.19520
X0.65900 Y1.19520
X0.65900 Y1.19620
X0.66000 Y1.19620
X0.66000 Y1.19720
X0.66100 Y1.19720
X0.66100 Y1.19820
X0.66200 Y1.19820
X0.66200 Y1.19920
X0.66300 Y1.19920
X0.66300 Y1.20020
X0.66400 Y1.20020
X0.66400 Y1.20120
X0.66500 Y1.20120
X0.66500 Y1.20220
X0.66600 Y1.20220
X0.66600 Y1.20320
X0.66700 Y1.20320
X0.66700 Y1.20420
X0.66800 Y1.20420
X0.66800 Y1.20520
X0.66900 Y1.20520
X0.66900 Y1.20620
X0.72900 Y1.20620
X0.72900 Y1.20320
X0.73200 Y1.20320
X0.73200 Y1.20020
X0.73500 Y1.20020
X0.73500 Y1.19720
X0.73700 Y1.19720
X0.73700 Y1.19420
X0.73600 Y1.19420
X0.73600 Y1.19220
X0.73700 Y1.19220
X0.73700 Y1.18720
X0.73800 Y1.18720
X0.73800 Y1.18620
G04 P0 ( dwell for no time -- G64 should not smooth over this point )
G00 Z0.19685 ( retract )

G00 X0.86600 Y1.18620 ( rapid move to begin. )
G01 Z-0.11417 F43.30709 ( plunge. )
G04 P0 ( dwell for no time -- G64 should not smooth over this point )
X0.86600 Y1.18620
X0.86600 Y1.18520
X0.86800 Y1.18520
X0.86800 Y1.18620
X0.87000 Y1.18620
X0.87000 Y1.18220
X0.87100 Y1.18220
X0.87100 Y1.13920
X0.87000 Y1.13920
X0.87000 Y1.13520
X0.86900 Y1.13520
X0.86900 Y1.13220
X0.86800 Y1.13220
X0.86800 Y1.12820
X0.86700 Y1.12820
X0.86700 Y1.12720
X0.86600 Y1.12720
X0.86600 Y1.12620
X0.86500 Y1.12620
X0.86500 Y1.12520
X0.86400 Y1.12520
X0.86400 Y1.12420
X0.86300 Y1.12420
X0.86300 Y1.12320
X0.86200 Y1.12320
X0.86200 Y1.12220
X0.86100 Y1.12220
X0.86100 Y1.12120
X0.86000 Y1.12120
X0.86000 Y1.12020
X0.85900 Y1.12020
X0.85900 Y1.11920
X0.85800 Y1.11920
X0.85800 Y1.11820
X0.85400 Y1.11820
X0.85400 Y1.11720
X0.85100 Y1.11720
X0.85100 Y1.11620
X0.84700 Y1.11620
X0.84700 Y1.11520
X0.75200 Y1.11520
X0.75200 Y1.11620
X0.74800 Y1.11620
X0.74800 Y1.11720
X0.74500 Y1.11720
X0.74500 Y1.11820
X0.74100 Y1.11820
X0.74100 Y1.11920
X0.74000 Y1.11920
X0.74000 Y1.12020
X0.73900 Y1.12020
X0.73900 Y1.12120
X0.73800 Y1.12120
X0.73800 Y1.14320
X0.73700 Y1.14320
X0.73700 Y1.17820
X0.73800 Y1.17820
X0.73800 Y1.18720
X0.73700 Y1.18720
X0.73700 Y1.19220
X0.73600 Y1.19220
X0.73600 Y1.19420
X0.73700 Y1.19420
X0.73700 Y1.19920
X0.73800 Y1.19920
X0.73800 Y1.20020
X0.73900 Y1.20020
X0.73900 Y1.20120
X0.74000 Y1.20120
X0.74000 Y1.20220
X0.74100 Y1.20220
X0.74100 Y1.20320
X0.74500 Y1.20320
X0.74500 Y1.20420
X0.74800 Y1.20420
X0.74800 Y1.20520
X0.75200 Y1.20520
X0.75200 Y1.20620
X0.84600 Y1.20620
X0.84600 Y1.20520
X0.85000 Y1.20520
X0.85000 Y1.20420
X0.85300 Y1.20420
X0.85300 Y1.20320
X0.85700 Y1.20320
X0.85700 Y1.20020
X0.86000 Y1.20020
X0.86000 Y1.19720
X0.86300 Y1.19720
X0.86300 Y1.19420
X0.86600 Y1.19420
X0.86600 Y1.18620
G04 P0 ( dwell for no time -- G64 should not smooth over this point )
G00 Z0.19685 ( retract )

G00 X1.16600 Y1.18620 ( rapid move to begin. )
G01 Z-0.11417 F43.30709 ( plunge. )
G04 P0 ( dwell for no time -- G64 should not smooth over this point )
X1.16600 Y1.18620
X1.16600 Y1.18520
X1.16800 Y1.18520
X1.16800 Y1.18620
X1.17000 Y1.18620
X1.17000 Y1.18220
X1.17100 Y1.18220
X1.17100 Y1.13920
X1.17000 Y1.13920
X1.17000 Y1.13520
X1.16900 Y1.13520
X1.16900 Y1.13220
X1.16800 Y1.13220
X1.16800 Y1.12820
X1.16700 Y1.12820
X1.16700 Y1.12720
X1.16600 Y1.12720
X1.16600 Y1.12620
X1.16500 Y1.12620
X1.16500 Y1.12520
X1.16400 Y1.12520
X1.16400 Y1.12420
X1.16300 Y1.12420
X1.16300 Y1.12320
X1.16200 Y1.12320
X1.16200 Y1.12220
X1.16100 Y1.12220
X1.16100 Y1.12120
X1.16000 Y1.12120
X1.16000 Y1.12020
X1.15900 Y1.12020
X1.15900 Y1.11920
X1.15800 Y1.11920
X1.15800 Y1.11820
X1.15400 Y1.11820
X1.15400 Y1.11720
X1.15100 Y1.11720
X1.15100 Y1.11620
X1.14700 Y1.11620
X1.14700 Y1.11520
X1.05200 Y1.11520
X1.05200 Y1.11620
X1.04800 Y1.11620
X1.04800 Y1.11720
X1.04500 Y1.11720
X1.04500 Y1.11820
X1.04100 Y1.11820
X1.04100 Y1.11920
X1.04000 Y1.11920
X1.04000 Y1.12020
X1.03900 Y1.12020
X1.03900 Y1.12120
X1.03800 Y1.12120
X1.03800 Y1.12220
X1.03700 Y1.12220
X1.03700 Y1.12320
X1.03600 Y1.12320
X1.03600 Y1.12420
X1.03500 Y1.12420
X1.03500 Y1.12520
X1.03400 Y1.12520
X1.03400 Y1.12620
X1.03300 Y1.12620
X1.03300 Y1.12720
X1.03200 Y1.12720
X1.03200 Y1.12820
X1.03100 Y1.12820
X1.03100 Y1.13220
X1.03000 Y1.13220
X1.03000 Y1.13520
X1.02900 Y1.13520
X1.02900 Y1.13920
X1.02800 Y1.13920
X1.02800 Y1.18220
X1.02900 Y1.18220
X1.02900 Y1.18620
X1.03000 Y1.18620
X1.03000 Y1.18920
X1.03100 Y1.18920
X1.03100 Y1.19320
X1.03200 Y1.19320
X1.03200 Y1.19420
X1.03300 Y1.19420
X1.03300 Y1.19520
X1.03400 Y1.19520
X1.03400 Y1.19620
X1.03500 Y1.19620
X1.03500 Y1.19720
X1.03600 Y1.19720
X1.03600 Y1.19820
X1.03700 Y1.19820
X1.03700 Y1.19920
X1.03800 Y1.19920
X1.03800 Y1.20020
X1.03900 Y1.20020
X1.03900 Y1.20120
X1.04000 Y1.20120
X1.04000 Y1.20220
X1.04100 Y1.20220
X1.04100 Y1.20320
X1.04500 Y1.20320
X1.04500 Y1.20420
X1.04800 Y1.20420
X1.04800 Y1.20520
X1.05200 Y1.20520
X1.05200 Y1.20620
X1.14600 Y1.20620
X1.14600 Y1.20520
X1.15000 Y1.20520
X1.15000 Y1.20420
X1.15300 Y1.20420
X1.15300 Y1.20320
X1.15700 Y1.20320
X1.15700 Y1.20020
X1.16000 Y1.20020
X1.16000 Y1.19720
X1.16300 Y1.19720
X1.16300 Y1.19420
X1.16600 Y1.19420
X1.16600 Y1.18620
G04 P0 ( dwell for no time -- G64 should not smooth over this point )
G00 Z0.19685 ( retract )

G00 X0.52400 Y1.09020 ( rapid move to begin. )
G01 Z-0.11417 F43.30709 ( plunge. )
G04 P0 ( dwell for no time -- G64 should not smooth over this point )
X0.52400 Y1.09020
X0.52400 Y1.08920
X0.52700 Y1.08920
X0.52700 Y1.08720
X0.52800 Y1.08720
X0.52800 Y1.08220
X0.52900 Y1.08220
X0.52900 Y1.03920
X0.52800 Y1.03920
X0.52800 Y1.03420
X0.52700 Y1.03420
X0.52700 Y1.03020
X0.52600 Y1.03020
X0.52600 Y1.02720
X0.52500 Y1.02720
X0.52500 Y1.02620
X0.52400 Y1.02620
X0.52400 Y1.02520
X0.52300 Y1.02520
X0.52300 Y1.02420
X0.52200 Y1.02420
X0.52200 Y1.02220
X0.52100 Y1.02220
X0.52100 Y1.02120
X0.52000 Y1.02120
X0.52000 Y1.02020
X0.51900 Y1.02020
X0.51900 Y1.01920
X0.51800 Y1.01920
X0.51800 Y1.01720
X0.51600 Y1.01720
X0.51600 Y1.01620
X0.51300 Y1.01620
X0.51300 Y1.01520
X0.51100 Y1.01520
X0.51100 Y1.01420
X0.50900 Y1.01420
X0.50900 Y1.01320
X0.50700 Y1.01320
X0.50700 Y1.01220
X0.50300 Y1.01220
X0.50300 Y1.01120
X0.39600 Y1.01120
X0.39600 Y1.01220
X0.39200 Y1.01220
X0.39200 Y1.01320
X0.39000 Y1.01320
X0.39000 Y1.01420
X0.38800 Y1.01420
X0.38800 Y1.01520
X0.38600 Y1.01520
X0.38600 Y1.01620
X0.38300 Y1.01620
X0.38300 Y1.01720
X0.38100 Y1.01720
X0.38100 Y1.01920
X0.38000 Y1.01920
X0.38000 Y1.02020
X0.37900 Y1.02020
X0.37900 Y1.02120
X0.37800 Y1.02120
X0.37800 Y1.02220
X0.37700 Y1.02220
X0.37700 Y1.02420
X0.37600 Y1.02420
X0.37600 Y1.02520
X0.37500 Y1.02520
X0.37500 Y1.02620
X0.37400 Y1.02620
X0.37400 Y1.02720
X0.37300 Y1.02720
X0.37300 Y1.03020
X0.37200 Y1.03020
X0.37200 Y1.03420
X0.37100 Y1.03420
X0.37100 Y1.03920
X0.37000 Y1.03920
X0.37000 Y1.08220
X0.37100 Y1.08220
X0.37100 Y1.08720
X0.37200 Y1.08720
X0.37200 Y1.09120
X0.37300 Y1.09120
X0.37300 Y1.09420
X0.37400 Y1.09420
X0.37400 Y1.09520
X0.37500 Y1.09520
X0.37500 Y1.09620
X0.37600 Y1.09620
X0.37600 Y1.09720
X0.37700 Y1.09720
X0.37700 Y1.09920
X0.37800 Y1.09920
X0.37800 Y1.10020
X0.37900 Y1.10020
X0.37900 Y1.10120
X0.38000 Y1.10120
X0.38000 Y1.10220
X0.38100 Y1.10220
X0.38100 Y1.10420
X0.38300 Y1.10420
X0.38300 Y1.10520
X0.38600 Y1.10520
X0.38600 Y1.10620
X0.38800 Y1.10620
X0.38800 Y1.10720
X0.39000 Y1.10720
X0.39000 Y1.10820
X0.39200 Y1.10820
X0.39200 Y1.10920
X0.39600 Y1.10920
X0.39600 Y1.11020
X0.50200 Y1.11020
X0.50200 Y1.10920
X0.50600 Y1.10920
X0.50600 Y1.10720
X0.51000 Y1.10720
X0.51000 Y1.10520
X0.51500 Y1.10520
X0.51500 Y1.10220
X0.51800 Y1.10220
X0.51800 Y1.09920
X0.52100 Y1.09920
X0.52100 Y1.09520
X0.52400 Y1.09520
X0.52400 Y1.09020
G04 P0 ( dwell for no time -- G64 should not smooth over this point )
G00 Z0.19685 ( retract )

G00 X0.86600 Y1.08620 ( rapid move to begin. )
G01 Z-0.11417 F43.30709 ( plunge. )
G04 P0 ( dwell for no time -- G64 should not smooth over this point )
X0.86600 Y1.08620
X0.86600 Y1.08520
X0.86800 Y1.08520
X0.86800 Y1.08620
X0.87000 Y1.08620
X0.87000 Y1.08220
X0.87100 Y1.08220
X0.87100 Y1.03920
X0.87000 Y1.03920
X0.87000 Y1.03520
X0.86900 Y1.03520
X0.86900 Y1.03220
X0.86800 Y1.03220
X0.86800 Y1.02820
X0.86700 Y1.02820
X0.86700 Y1.02720
X0.86600 Y1.02720
X0.86600 Y1.02620
X0.86500 Y1.02620
X0.86500 Y1.02520
X0.86400 Y1.02520
X0.86400 Y1.02420
X0.86300 Y1.02420
X0.86300 Y1.02320
X0.86200 Y1.02320
X0.86200 Y1.02220
X0.86100 Y1.02220
X0.86100 Y1.02120
X0.86000 Y1.02120
X0.86000 Y1.02020
X0.85900 Y1.02020
X0.85900 Y1.01920
X0.85800 Y1.01920
X0.85800 Y1.01820
X0.85400 Y1.01820
X0.85400 Y1.01720
X0.85100 Y1.01720
X0.85100 Y1.01620
X0.84700 Y1.01620
X0.84700 Y1.01520
X0.75200 Y1.01520
X0.75200 Y1.01620
X0.74800 Y1.01620
X0.74800 Y1.01720
X0.74500 Y1.01720
X0.74500 Y1.01820
X0.74100 Y1.01820
X0.74100 Y1.01920
X0.74000 Y1.01920
X0.74000 Y1.02020
X0.73900 Y1.02020
X0.73900 Y1.02120
X0.73800 Y1.02120
X0.73800 Y1.02220
X0.73700 Y1.02220
X0.73700 Y1.02320
X0.73600 Y1.02320
X0.73600 Y1.02420
X0.73500 Y1.02420
X0.73500 Y1.02520
X0.73400 Y1.02520
X0.73400 Y1.02620
X0.73300 Y1.02620
X0.73300 Y1.02720
X0.73200 Y1.02720
X0.73200 Y1.02820
X0.73100 Y1.02820
X0.73100 Y1.03220
X0.73000 Y1.03220
X0.73000 Y1.03520
X0.72900 Y1.03520
X0.72900 Y1.03920
X0.72800 Y1.03920
X0.72800 Y1.08220
X0.72900 Y1.08220
X0.72900 Y1.08620
X0.73000 Y1.08620
X0.73000 Y1.08920
X0.73100 Y1.08920
X0.73100 Y1.09320
X0.73200 Y1.09320
X0.73200 Y1.09420
X0.73300 Y1.09420
X0.73300 Y1.09520
X0.73400 Y1.09520
X0.73400 Y1.09620
X0.73500 Y1.09620
X0.73500 Y1.09720
X0.73600 Y1.09720
X0.73600 Y1.09820
X0.73700 Y1.09820
X0.73700 Y1.09920
X0.73800 Y1.09920
X0.73800 Y1.10020
X0.73900 Y1.10020
X0.73900 Y1.10120
X0.74000 Y1.10120
X0.74000 Y1.10220
X0.74100 Y1.10220
X0.74100 Y1.10320
X0.74500 Y1.10320
X0.74500 Y1.10420
X0.74800 Y1.10420
X0.74800 Y1.10520
X0.75200 Y1.10520
X0.75200 Y1.10620
X0.84600 Y1.10620
X0.84600 Y1.10520
X0.85000 Y1.10520
X0.85000 Y1.10420
X0.85300 Y1.10420
X0.85300 Y1.10320
X0.85700 Y1.10320
X0.85700 Y1.10020
X0.86000 Y1.10020
X0.86000 Y1.09720
X0.86300 Y1.09720
X0.86300 Y1.09420
X0.86600 Y1.09420
X0.86600 Y1.08620
G04 P0 ( dwell for no time -- G64 should not smooth over this point )
G00 Z0.19685 ( retract )

G00 X1.16600 Y1.08620 ( rapid move to begin. )
G01 Z-0.11417 F43.30709 ( plunge. )
G04 P0 ( dwell for no time -- G64 should not smooth over this point )
X1.16600 Y1.08620
X1.16600 Y1.08520
X1.16800 Y1.08520
X1.16800 Y1.08620
X1.17000 Y1.08620
X1.17000 Y1.08220
X1.17100 Y1.08220
X1.17100 Y1.03920
X1.17000 Y1.03920
X1.17000 Y1.03520
X1.16900 Y1.03520
X1.16900 Y1.03220
X1.16800 Y1.03220
X1.16800 Y1.02820
X1.16700 Y1.02820
X1.16700 Y1.02720
X1.16600 Y1.02720
X1.16600 Y1.02620
X1.16500 Y1.02620
X1.16500 Y1.02520
X1.16400 Y1.02520
X1.16400 Y1.02420
X1.16300 Y1.02420
X1.16300 Y1.02320
X1.16200 Y1.02320
X1.16200 Y1.02220
X1.16100 Y1.02220
X1.16100 Y1.02120
X1.16000 Y1.02120
X1.16000 Y1.02020
X1.15900 Y1.02020
X1.15900 Y1.01920
X1.15800 Y1.01920
X1.15800 Y1.01820
X1.15400 Y1.01820
X1.15400 Y1.01720
X1.15100 Y1.01720
X1.15100 Y1.01620
X1.14700 Y1.01620
X1.14700 Y1.01520
X1.05200 Y1.01520
X1.05200 Y1.01620
X1.04800 Y1.01620
X1.04800 Y1.01720
X1.04500 Y1.01720
X1.04500 Y1.01820
X1.04100 Y1.01820
X1.04100 Y1.01920
X1.04000 Y1.01920
X1.04000 Y1.02020
X1.03900 Y1.02020
X1.03900 Y1.02120
X1.03800 Y1.02120
X1.03800 Y1.02220
X1.03700 Y1.02220
X1.03700 Y1.02320
X1.03600 Y1.02320
X1.03600 Y1.02420
X1.03500 Y1.02420
X1.03500 Y1.02520
X1.03400 Y1.02520
X1.03400 Y1.02620
X1.03300 Y1.02620
X1.03300 Y1.02720
X1.03200 Y1.02720
X1.03200 Y1.02820
X1.03100 Y1.02820
X1.03100 Y1.03220
X1.03000 Y1.03220
X1.03000 Y1.03520
X1.02900 Y1.03520
X1.02900 Y1.03920
X1.02800 Y1.03920
X1.02800 Y1.08220
X1.02900 Y1.08220
X1.02900 Y1.08620
X1.03000 Y1.08620
X1.03000 Y1.08920
X1.03100 Y1.08920
X1.03100 Y1.09320
X1.03200 Y1.09320
X1.03200 Y1.09420
X1.03300 Y1.09420
X1.03300 Y1.09520
X1.03400 Y1.09520
X1.03400 Y1.09620
X1.03500 Y1.09620
X1.03500 Y1.09720
X1.03600 Y1.09720
X1.03600 Y1.09820
X1.03700 Y1.09820
X1.03700 Y1.09920
X1.03800 Y1.09920
X1.03800 Y1.10020
X1.03900 Y1.10020
X1.03900 Y1.10120
X1.04000 Y1.10120
X1.04000 Y1.10220
X1.04100 Y1.10220
X1.04100 Y1.10320
X1.04500 Y1.10320
X1.04500 Y1.10420
X1.04800 Y1.10420
X1.04800 Y1.10520
X1.05200 Y1.10520
X1.05200 Y1.10620
X1.14600 Y1.10620
X1.14600 Y1.10520
X1.15000 Y1.10520
X1.15000 Y1.10420
X1.15300 Y1.10420
X1.15300 Y1.10320
X1.15700 Y1.10320
X1.15700 Y1.10020
X1.16000 Y1.10020
X1.16000 Y1.09720
X1.16300 Y1.09720
X1.16300 Y1.09420
X1.16600 Y1.09420
X1.16600 Y1.08620
G04 P0 ( dwell for no time -- G64 should not smooth over this point )
G00 Z0.19685 ( retract )

G00 X0.52400 Y0.99020 ( rapid move to begin. )
G01 Z-0.11417 F43.30709 ( plunge. )
G04 P0 ( dwell for no time -- G64 should not smooth over this point )
X0.52400 Y0.99020
X0.52400 Y0.98920
X0.52700 Y0.98920
X0.52700 Y0.98720
X0.52800 Y0.98720
X0.52800 Y0.98220
X0.52900 Y0.98220
X0.52900 Y0.93920
X0.52800 Y0.93920
X0.52800 Y0.93420
X0.52700 Y0.93420
X0.52700 Y0.93020
X0.52600 Y0.93020
X0.52600 Y0.92720
X0.52500 Y0.92720
X0.52500 Y0.92620
X0.52400 Y0.92620
X0.52400 Y0.92520
X0.52300 Y0.92520
X0.52300 Y0.92420
X0.52200 Y0.92420
X0.52200 Y0.92220
X0.52100 Y0.92220
X0.52100 Y0.92120
X0.52000 Y0.92120
X0.52000 Y0.92020
X0.51900 Y0.92020
X0.51900 Y0.91920
X0.51800 Y0.91920
X0.51800 Y0.91720
X0.51600 Y0.91720
X0.51600 Y0.91620
X0.51300 Y0.91620
X0.51300 Y0.91520
X0.51100 Y0.91520
X0.51100 Y0.91420
X0.50900 Y0.91420
X0.50900 Y0.91320
X0.50700 Y0.91320
X0.50700 Y0.91220
X0.50300 Y0.91220
X0.50300 Y0.91120
X0.39600 Y0.91120
X0.39600 Y0.91220
X0.39200 Y0.91220
X0.39200 Y0.91320
X0.39000 Y0.91320
X0.39000 Y0.91420
X0.38800 Y0.91420
X0.38800 Y0.91520
X0.38600 Y0.91520
X0.38600 Y0.91620
X0.38300 Y0.91620
X0.38300 Y0.91720
X0.38100 Y0.91720
X0.38100 Y0.91920
X0.38000 Y0.91920
X0.38000 Y0.92020
X0.37900 Y0.92020
X0.37900 Y0.92120
X0.37800 Y0.92120
X0.37800 Y0.92220
X0.37700 Y0.92220
X0.37700 Y0.92420
X0.37600 Y0.92420
X0.37600 Y0.92520
X0.37500 Y0.92520
X0.37500 Y0.92620
X0.37400 Y0.92620
X0.37400 Y0.92720
X0.37300 Y0.92720
X0.37300 Y0.93020
X0.37200 Y0.93020
X0.37200 Y0.93420
X0.37100 Y0.93420
X0.37100 Y0.93920
X0.37000 Y0.93920
X0.37000 Y0.98220
X0.37100 Y0.98220
X0.37100 Y0.98720
X0.37200 Y0.98720
X0.37200 Y0.99120
X0.37300 Y0.99120
X0.37300 Y0.99420
X0.37400 Y0.99420
X0.37400 Y0.99520
X0.37500 Y0.99520
X0.37500 Y0.99620
X0.37600 Y0.99620
X0.37600 Y0.99720
X0.37700 Y0.99720
X0.37700 Y0.99920
X0.37800 Y0.99920
X0.37800 Y1.00020
X0.37900 Y1.00020
X0.37900 Y1.00120
X0.38000 Y1.00120
X0.38000 Y1.00220
X0.38100 Y1.00220
X0.38100 Y1.00420
X0.38300 Y1.00420
X0.38300 Y1.00520
X0.38600 Y1.00520
X0.38600 Y1.00620
X0.38800 Y1.00620
X0.38800 Y1.00720
X0.39000 Y1.00720
X0.39000 Y1.00820
X0.39200 Y1.00820
X0.39200 Y1.00920
X0.39600 Y1.00920
X0.39600 Y1.01020
X0.50200 Y1.01020
X0.50200 Y1.00920
X0.50600 Y1.00920
X0.50600 Y1.00720
X0.51000 Y1.00720
X0.51000 Y1.00520
X0.51500 Y1.00520
X0.51500 Y1.00220
X0.51800 Y1.00220
X0.51800 Y0.99920
X0.52100 Y0.99920
X0.52100 Y0.99520
X0.52400 Y0.99520
X0.52400 Y0.99020
G04 P0 ( dwell for no time -- G64 should not smooth over this point )
G00 Z0.19685 ( retract )

G00 X0.86600 Y0.98620 ( rapid move to begin. )
G01 Z-0.11417 F43.30709 ( plunge. )
G04 P0 ( dwell for no time -- G64 should not smooth over this point )
X0.86600 Y0.98620
X0.86600 Y0.98520
X0.86800 Y0.98520
X0.86800 Y0.98620
X0.87000 Y0.98620
X0.87000 Y0.98220
X0.87100 Y0.98220
X0.87100 Y0.93920
X0.87000 Y0.93920
X0.87000 Y0.93520
X0.86900 Y0.93520
X0.86900 Y0.93220
X0.86800 Y0.93220
X0.86800 Y0.92820
X0.86700 Y0.92820
X0.86700 Y0.92720
X0.86600 Y0.92720
X0.86600 Y0.92620
X0.86500 Y0.92620
X0.86500 Y0.92520
X0.86400 Y0.92520
X0.86400 Y0.92420
X0.86300 Y0.92420
X0.86300 Y0.92320
X0.86200 Y0.92320
X0.86200 Y0.92220
X0.86100 Y0.92220
X0.86100 Y0.92120
X0.86000 Y0.92120
X0.86000 Y0.92020
X0.85900 Y0.92020
X0.85900 Y0.91920
X0.85800 Y0.91920
X0.85800 Y0.91820
X0.85400 Y0.91820
X0.85400 Y0.91720
X0.85100 Y0.91720
X0.85100 Y0.91620
X0.84700 Y0.91620
X0.84700 Y0.91520
X0.75200 Y0.91520
X0.75200 Y0.91620
X0.74800 Y0.91620
X0.74800 Y0.91720
X0.74500 Y0.91720
X0.74500 Y0.91820
X0.74400 Y0.91820
X0.74400 Y0.91920
X0.74300 Y0.91920
X0.74300 Y0.92120
X0.74200 Y0.92120
X0.74200 Y0.92420
X0.74100 Y0.92420
X0.74100 Y0.92720
X0.74000 Y0.92720
X0.74000 Y0.93020
X0.73900 Y0.93020
X0.73900 Y0.93320
X0.73800 Y0.93320
X0.73800 Y0.93420
X0.73700 Y0.93420
X0.73700 Y0.93720
X0.73500 Y0.93720
X0.73500 Y0.93920
X0.73300 Y0.93920
X0.73300 Y0.94320
X0.73100 Y0.94320
X0.73100 Y0.94720
X0.73000 Y0.94720
X0.73000 Y0.95120
X0.72900 Y0.95120
X0.72900 Y0.95220
X0.72800 Y0.95220
X0.72800 Y0.98220
X0.72900 Y0.98220
X0.72900 Y0.98620
X0.73000 Y0.98620
X0.73000 Y0.98920
X0.73100 Y0.98920
X0.73100 Y0.99320
X0.73200 Y0.99320
X0.73200 Y0.99420
X0.73300 Y0.99420
X0.73300 Y0.99520
X0.73400 Y0.99520
X0.73400 Y0.99620
X0.73500 Y0.99620
X0.73500 Y0.99720
X0.73600 Y0.99720
X0.73600 Y0.99820
X0.73700 Y0.99820
X0.73700 Y0.99920
X0.73800 Y0.99920
X0.73800 Y1.00020
X0.73900 Y1.00020
X0.73900 Y1.00120
X0.74000 Y1.00120
X0.74000 Y1.00220
X0.74100 Y1.00220
X0.74100 Y1.00320
X0.74500 Y1.00320
X0.74500 Y1.00420
X0.74800 Y1.00420
X0.74800 Y1.00520
X0.75200 Y1.00520
X0.75200 Y1.00620
X0.84600 Y1.00620
X0.84600 Y1.00520
X0.85000 Y1.00520
X0.85000 Y1.00420
X0.85300 Y1.00420
X0.85300 Y1.00320
X0.85700 Y1.00320
X0.85700 Y1.00020
X0.86000 Y1.00020
X0.86000 Y0.99720
X0.86300 Y0.99720
X0.86300 Y0.99420
X0.86600 Y0.99420
X0.86600 Y0.98620
G04 P0 ( dwell for no time -- G64 should not smooth over this point )
G00 Z0.19685 ( retract )

G00 X1.16200 Y0.98620 ( rapid move to begin. )
G01 Z-0.11417 F43.30709 ( plunge. )
G04 P0 ( dwell for no time -- G64 should not smooth over this point )
X1.16200 Y0.98620
X1.16200 Y0.98420
X1.16100 Y0.98420
X1.16100 Y0.98220
X1.16200 Y0.98220
X1.16200 Y0.97420
X1.16300 Y0.97420
X1.16300 Y0.94720
X1.16200 Y0.94720
X1.16200 Y0.93920
X1.16100 Y0.93920
X1.16100 Y0.93720
X1.16200 Y0.93720
X1.16200 Y0.92220
X1.16100 Y0.92220
X1.16100 Y0.92120
X1.16000 Y0.92120
X1.16000 Y0.92020
X1.15900 Y0.92020
X1.15900 Y0.91920
X1.15800 Y0.91920
X1.15800 Y0.91820
X1.15400 Y0.91820
X1.15400 Y0.91720
X1.15100 Y0.91720
X1.15100 Y0.91620
X1.14700 Y0.91620
X1.14700 Y0.91520
X1.05200 Y0.91520
X1.05200 Y0.91620
X1.04800 Y0.91620
X1.04800 Y0.91720
X1.04500 Y0.91720
X1.04500 Y0.91820
X1.04100 Y0.91820
X1.04100 Y0.91920
X1.04000 Y0.91920
X1.04000 Y0.92020
X1.03900 Y0.92020
X1.03900 Y0.92120
X1.03800 Y0.92120
X1.03800 Y0.92220
X1.03700 Y0.92220
X1.03700 Y0.92320
X1.03600 Y0.92320
X1.03600 Y0.92420
X1.03500 Y0.92420
X1.03500 Y0.92520
X1.03400 Y0.92520
X1.03400 Y0.92620
X1.03300 Y0.92620
X1.03300 Y0.92720
X1.03200 Y0.92720
X1.03200 Y0.92820
X1.03100 Y0.92820
X1.03100 Y0.93220
X1.03000 Y0.93220
X1.03000 Y0.93520
X1.02900 Y0.93520
X1.02900 Y0.93920
X1.02800 Y0.93920
X1.02800 Y0.98220
X1.02900 Y0.98220
X1.02900 Y0.98620
X1.03000 Y0.98620
X1.03000 Y0.98920
X1.03100 Y0.98920
X1.03100 Y0.99320
X1.03200 Y0.99320
X1.03200 Y0.99420
X1.03300 Y0.99420
X1.03300 Y0.99520
X1.03400 Y0.99520
X1.03400 Y0.99620
X1.03500 Y0.99620
X1.03500 Y0.99720
X1.03600 Y0.99720
X1.03600 Y0.99820
X1.03700 Y0.99820
X1.03700 Y0.99920
X1.03800 Y0.99920
X1.03800 Y1.00020
X1.03900 Y1.00020
X1.03900 Y1.00120
X1.04000 Y1.00120
X1.04000 Y1.00220
X1.04100 Y1.00220
X1.04100 Y1.00320
X1.04500 Y1.00320
X1.04500 Y1.00420
X1.04800 Y1.00420
X1.04800 Y1.00520
X1.05200 Y1.00520
X1.05200 Y1.00620
X1.14600 Y1.00620
X1.14600 Y1.00520
X1.15000 Y1.00520
X1.15000 Y1.00420
X1.15300 Y1.00420
X1.15300 Y1.00320
X1.15700 Y1.00320
X1.15700 Y1.00020
X1.16000 Y1.00020
X1.16000 Y0.99720
X1.16200 Y0.99720
X1.16200 Y0.99420
X1.16100 Y0.99420
X1.16100 Y0.99220
X1.16200 Y0.99220
X1.16200 Y0.98620
G04 P0 ( dwell for no time -- G64 should not smooth over this point )
G00 Z0.19685 ( retract )

G00 X1.24500 Y0.98620 ( rapid move to begin. )
G01 Z-0.11417 F43.30709 ( plunge. )
G04 P0 ( dwell for no time -- G64 should not smooth over this point )
X1.24500 Y0.98620
X1.24500 Y0.93020
X1.24400 Y0.93020
X1.24400 Y0.92920
X1.24300 Y0.92920
X1.24300 Y0.92820
X1.24200 Y0.92820
X1.24200 Y0.92720
X1.24100 Y0.92720
X1.24100 Y0.92620
X1.24000 Y0.92620
X1.24000 Y0.92520
X1.23900 Y0.92520
X1.23900 Y0.92420
X1.23800 Y0.92420
X1.23800 Y0.92320
X1.23700 Y0.92320
X1.23700 Y0.92220
X1.23600 Y0.92220
X1.23600 Y0.92120
X1.23500 Y0.92120
X1.23500 Y0.92020
X1.23400 Y0.92020
X1.23400 Y0.91920
X1.23300 Y0.91920
X1.23300 Y0.91820
X1.23200 Y0.91820
X1.23200 Y0.91720
X1.23100 Y0.91720
X1.23100 Y0.91620
X1.23000 Y0.91620
X1.23000 Y0.91520
X1.16900 Y0.91520
X1.16900 Y0.91620
X1.16800 Y0.91620
X1.16800 Y0.91720
X1.16700 Y0.91720
X1.16700 Y0.91820
X1.16600 Y0.91820
X1.16600 Y0.91920
X1.16500 Y0.91920
X1.16500 Y0.92020
X1.16400 Y0.92020
X1.16400 Y0.92120
X1.16300 Y0.92120
X1.16300 Y0.92220
X1.16200 Y0.92220
X1.16200 Y0.93720
X1.16100 Y0.93720
X1.16100 Y0.93920
X1.16200 Y0.93920
X1.16200 Y0.94720
X1.16300 Y0.94720
X1.16300 Y0.97420
X1.16200 Y0.97420
X1.16200 Y0.98220
X1.16100 Y0.98220
X1.16100 Y0.98420
X1.16200 Y0.98420
X1.16200 Y0.99220
X1.16100 Y0.99220
X1.16100 Y0.99420
X1.16200 Y0.99420
X1.16200 Y0.99920
X1.16300 Y0.99920
X1.16300 Y1.00020
X1.16400 Y1.00020
X1.16400 Y1.00120
X1.16500 Y1.00120
X1.16500 Y1.00220
X1.16600 Y1.00220
X1.16600 Y1.00320
X1.16700 Y1.00320
X1.16700 Y1.00420
X1.16800 Y1.00420
X1.16800 Y1.00520
X1.16900 Y1.00520
X1.16900 Y1.00620
X1.22900 Y1.00620
X1.22900 Y1.00320
X1.23200 Y1.00320
X1.23200 Y1.00020
X1.23500 Y1.00020
X1.23500 Y0.99720
X1.23800 Y0.99720
X1.23800 Y0.99420
X1.24100 Y0.99420
X1.24100 Y0.99120
X1.24500 Y0.99120
X1.24500 Y0.98620
G04 P0 ( dwell for no time -- G64 should not smooth over this point )
G00 Z0.19685 ( retract )

G00 X0.64500 Y0.93620 ( rapid move to begin. )
G01 Z-0.11417 F43.30709 ( plunge. )
G04 P0 ( dwell for no time -- G64 should not smooth over this point )
X0.64500 Y0.93620
X0.64500 Y0.88020
X0.64400 Y0.88020
X0.64400 Y0.87920
X0.64300 Y0.87920
X0.64300 Y0.87820
X0.64200 Y0.87820
X0.64200 Y0.87720
X0.64100 Y0.87720
X0.64100 Y0.87620
X0.64000 Y0.87620
X0.64000 Y0.87520
X0.63900 Y0.87520
X0.63900 Y0.87420
X0.63800 Y0.87420
X0.63800 Y0.87320
X0.63700 Y0.87320
X0.63700 Y0.87220
X0.63600 Y0.87220
X0.63600 Y0.87120
X0.63500 Y0.87120
X0.63500 Y0.87020
X0.63400 Y0.87020
X0.63400 Y0.86920
X0.63300 Y0.86920
X0.63300 Y0.86820
X0.63200 Y0.86820
X0.63200 Y0.86720
X0.63100 Y0.86720
X0.63100 Y0.86620
X0.63000 Y0.86620
X0.63000 Y0.86520
X0.56900 Y0.86520
X0.56900 Y0.86620
X0.56800 Y0.86620
X0.56800 Y0.86720
X0.56700 Y0.86720
X0.56700 Y0.86820
X0.56600 Y0.86820
X0.56600 Y0.86920
X0.56500 Y0.86920
X0.56500 Y0.87020
X0.56400 Y0.87020
X0.56400 Y0.87120
X0.56300 Y0.87120
X0.56300 Y0.87220
X0.56200 Y0.87220
X0.56200 Y0.87320
X0.56100 Y0.87320
X0.56100 Y0.87420
X0.56000 Y0.87420
X0.56000 Y0.87520
X0.55900 Y0.87520
X0.55900 Y0.87620
X0.55800 Y0.87620
X0.55800 Y0.87720
X0.55700 Y0.87720
X0.55700 Y0.87820
X0.55600 Y0.87820
X0.55600 Y0.87920
X0.55500 Y0.87920
X0.55500 Y0.88020
X0.55400 Y0.88020
X0.55400 Y0.94120
X0.55500 Y0.94120
X0.55500 Y0.94220
X0.55600 Y0.94220
X0.55600 Y0.94320
X0.55700 Y0.94320
X0.55700 Y0.94420
X0.55800 Y0.94420
X0.55800 Y0.94520
X0.55900 Y0.94520
X0.55900 Y0.94620
X0.56000 Y0.94620
X0.56000 Y0.94720
X0.56100 Y0.94720
X0.56100 Y0.94820
X0.56200 Y0.94820
X0.56200 Y0.94920
X0.56300 Y0.94920
X0.56300 Y0.95020
X0.56400 Y0.95020
X0.56400 Y0.95120
X0.56500 Y0.95120
X0.56500 Y0.95220
X0.56600 Y0.95220
X0.56600 Y0.95320
X0.56700 Y0.95320
X0.56700 Y0.95420
X0.56800 Y0.95420
X0.56800 Y0.95520
X0.56900 Y0.95520
X0.56900 Y0.95620
X0.62900 Y0.95620
X0.62900 Y0.95320
X0.63200 Y0.95320
X0.63200 Y0.95020
X0.63500 Y0.95020
X0.63500 Y0.94720
X0.63800 Y0.94720
X0.63800 Y0.94420
X0.64100 Y0.94420
X0.64100 Y0.94120
X0.64500 Y0.94120
X0.64500 Y0.93620
G04 P0 ( dwell for no time -- G64 should not smooth over this point )
G00 Z0.19685 ( retract )

G00 X0.73700 Y0.93620 ( rapid move to begin. )
G01 Z-0.11417 F43.30709 ( plunge. )
G04 P0 ( dwell for no time -- G64 should not smooth over this point )
X0.73700 Y0.93620
X0.73700 Y0.93420
X0.73800 Y0.93420
X0.73800 Y0.93320
X0.73900 Y0.93320
X0.73900 Y0.93020
X0.74000 Y0.93020
X0.74000 Y0.92720
X0.74100 Y0.92720
X0.74100 Y0.92420
X0.74200 Y0.92420
X0.74200 Y0.92120
X0.74300 Y0.92120
X0.74300 Y0.91920
X0.74400 Y0.91920
X0.74400 Y0.91820
X0.74500 Y0.91820
X0.74500 Y0.90220
X0.74400 Y0.90220
X0.74400 Y0.90120
X0.74300 Y0.90120
X0.74300 Y0.89820
X0.74200 Y0.89820
X0.74200 Y0.89520
X0.74100 Y0.89520
X0.74100 Y0.89220
X0.74000 Y0.89220
X0.74000 Y0.88920
X0.73900 Y0.88920
X0.73900 Y0.88620
X0.73800 Y0.88620
X0.73800 Y0.88520
X0.73700 Y0.88520
X0.73700 Y0.88320
X0.73600 Y0.88320
X0.73600 Y0.88120
X0.73500 Y0.88120
X0.73500 Y0.88020
X0.73400 Y0.88020
X0.73400 Y0.87720
X0.73300 Y0.87720
X0.73300 Y0.87620
X0.73200 Y0.87620
X0.73200 Y0.87320
X0.73100 Y0.87320
X0.73100 Y0.87020
X0.73000 Y0.87020
X0.73000 Y0.86720
X0.72900 Y0.86720
X0.72900 Y0.86520
X0.66900 Y0.86520
X0.66900 Y0.86620
X0.66800 Y0.86620
X0.66800 Y0.86720
X0.66700 Y0.86720
X0.66700 Y0.86820
X0.66600 Y0.86820
X0.66600 Y0.86920
X0.66500 Y0.86920
X0.66500 Y0.87020
X0.66400 Y0.87020
X0.66400 Y0.87120
X0.66300 Y0.87120
X0.66300 Y0.87220
X0.66200 Y0.87220
X0.66200 Y0.87320
X0.66100 Y0.87320
X0.66100 Y0.87420
X0.66000 Y0.87420
X0.66000 Y0.87520
X0.65900 Y0.87520
X0.65900 Y0.87620
X0.65800 Y0.87620
X0.65800 Y0.87720
X0.65700 Y0.87720
X0.65700 Y0.87820
X0.65600 Y0.87820
X0.65600 Y0.87920
X0.65500 Y0.87920
X0.65500 Y0.88020
X0.65400 Y0.88020
X0.65400 Y0.94120
X0.65500 Y0.94120
X0.65500 Y0.94220
X0.65600 Y0.94220
X0.65600 Y0.94320
X0.65700 Y0.94320
X0.65700 Y0.94420
X0.65800 Y0.94420
X0.65800 Y0.94520
X0.65900 Y0.94520
X0.65900 Y0.94620
X0.66000 Y0.94620
X0.66000 Y0.94720
X0.66100 Y0.94720
X0.66100 Y0.94820
X0.66200 Y0.94820
X0.66200 Y0.94920
X0.66300 Y0.94920
X0.66300 Y0.95020
X0.66400 Y0.95020
X0.66400 Y0.95120
X0.66500 Y0.95120
X0.66500 Y0.95220
X0.66600 Y0.95220
X0.66600 Y0.95320
X0.66700 Y0.95320
X0.66700 Y0.95420
X0.66800 Y0.95420
X0.66800 Y0.95520
X0.66900 Y0.95520
X0.66900 Y0.95620
X0.72800 Y0.95620
X0.72800 Y0.95220
X0.72900 Y0.95220
X0.72900 Y0.95120
X0.73000 Y0.95120
X0.73000 Y0.94720
X0.73100 Y0.94720
X0.73100 Y0.94320
X0.73300 Y0.94320
X0.73300 Y0.93920
X0.73500 Y0.93920
X0.73500 Y0.93720
X0.73700 Y0.93720
X0.73700 Y0.93620
G04 P0 ( dwell for no time -- G64 should not smooth over this point )
G00 Z0.19685 ( retract )

G00 X0.52400 Y0.89020 ( rapid move to begin. )
G01 Z-0.11417 F43.30709 ( plunge. )
G04 P0 ( dwell for no time -- G64 should not smooth over this point )
X0.52400 Y0.89020
X0.52400 Y0.88920
X0.52700 Y0.88920
X0.52700 Y0.88720
X0.52800 Y0.88720
X0.52800 Y0.88220
X0.52900 Y0.88220
X0.52900 Y0.83920
X0.52800 Y0.83920
X0.52800 Y0.83420
X0.52700 Y0.83420
X0.52700 Y0.83020
X0.52600 Y0.83020
X0.52600 Y0.82720
X0.52500 Y0.82720
X0.52500 Y0.82620
X0.52400 Y0.82620
X0.52400 Y0.82520
X0.52300 Y0.82520
X0.52300 Y0.82420
X0.52200 Y0.82420
X0.52200 Y0.82220
X0.52100 Y0.82220
X0.52100 Y0.82120
X0.52000 Y0.82120
X0.52000 Y0.82020
X0.51900 Y0.82020
X0.51900 Y0.81920
X0.51800 Y0.81920
X0.51800 Y0.81720
X0.51600 Y0.81720
X0.51600 Y0.81620
X0.51300 Y0.81620
X0.51300 Y0.81520
X0.51100 Y0.81520
X0.51100 Y0.81420
X0.50900 Y0.81420
X0.50900 Y0.81320
X0.50700 Y0.81320
X0.50700 Y0.81220
X0.50300 Y0.81220
X0.50300 Y0.81120
X0.39600 Y0.81120
X0.39600 Y0.81220
X0.39200 Y0.81220
X0.39200 Y0.81320
X0.39000 Y0.81320
X0.39000 Y0.81420
X0.38800 Y0.81420
X0.38800 Y0.81520
X0.38600 Y0.81520
X0.38600 Y0.81620
X0.38300 Y0.81620
X0.38300 Y0.81720
X0.38100 Y0.81720
X0.38100 Y0.81920
X0.38000 Y0.81920
X0.38000 Y0.82020
X0.37900 Y0.82020
X0.37900 Y0.82120
X0.37800 Y0.82120
X0.37800 Y0.82220
X0.37700 Y0.82220
X0.37700 Y0.82420
X0.37600 Y0.82420
X0.37600 Y0.82520
X0.37500 Y0.82520
X0.37500 Y0.82620
X0.37400 Y0.82620
X0.37400 Y0.82720
X0.37300 Y0.82720
X0.37300 Y0.83020
X0.37200 Y0.83020
X0.37200 Y0.83420
X0.37100 Y0.83420
X0.37100 Y0.83920
X0.37000 Y0.83920
X0.37000 Y0.88220
X0.37100 Y0.88220
X0.37100 Y0.88720
X0.37200 Y0.88720
X0.37200 Y0.89120
X0.37300 Y0.89120
X0.37300 Y0.89420
X0.37400 Y0.89420
X0.37400 Y0.89520
X0.37500 Y0.89520
X0.37500 Y0.89620
X0.37600 Y0.89620
X0.37600 Y0.89720
X0.37700 Y0.89720
X0.37700 Y0.89920
X0.37800 Y0.89920
X0.37800 Y0.90020
X0.37900 Y0.90020
X0.37900 Y0.90120
X0.38000 Y0.90120
X0.38000 Y0.90220
X0.38100 Y0.90220
X0.38100 Y0.90420
X0.38300 Y0.90420
X0.38300 Y0.90520
X0.38600 Y0.90520
X0.38600 Y0.90620
X0.38800 Y0.90620
X0.38800 Y0.90720
X0.39000 Y0.90720
X0.39000 Y0.90820
X0.39200 Y0.90820
X0.39200 Y0.90920
X0.39600 Y0.90920
X0.39600 Y0.91020
X0.50200 Y0.91020
X0.50200 Y0.90920
X0.50600 Y0.90920
X0.50600 Y0.90720
X0.51000 Y0.90720
X0.51000 Y0.90520
X0.51500 Y0.90520
X0.51500 Y0.90220
X0.51800 Y0.90220
X0.51800 Y0.89920
X0.52100 Y0.89920
X0.52100 Y0.89520
X0.52400 Y0.89520
X0.52400 Y0.89020
G04 P0 ( dwell for no time -- G64 should not smooth over this point )
G00 Z0.19685 ( retract )

G00 X0.86600 Y0.88620 ( rapid move to begin. )
G01 Z-0.11417 F43.30709 ( plunge. )
G04 P0 ( dwell for no time -- G64 should not smooth over this point )
X0.86600 Y0.88620
X0.86600 Y0.88520
X0.86800 Y0.88520
X0.86800 Y0.88620
X0.87000 Y0.88620
X0.87000 Y0.88220
X0.87100 Y0.88220
X0.87100 Y0.83920
X0.87000 Y0.83920
X0.87000 Y0.83520
X0.86900 Y0.83520
X0.86900 Y0.83220
X0.86800 Y0.83220
X0.86800 Y0.82820
X0.86700 Y0.82820
X0.86700 Y0.82720
X0.86600 Y0.82720
X0.86600 Y0.82620
X0.86500 Y0.82620
X0.86500 Y0.82520
X0.86400 Y0.82520
X0.86400 Y0.82420
X0.86300 Y0.82420
X0.86300 Y0.82320
X0.86200 Y0.82320
X0.86200 Y0.82220
X0.86100 Y0.82220
X0.86100 Y0.82120
X0.86000 Y0.82120
X0.86000 Y0.82020
X0.85900 Y0.82020
X0.85900 Y0.81920
X0.85800 Y0.81920
X0.85800 Y0.81820
X0.85400 Y0.81820
X0.85400 Y0.81720
X0.85100 Y0.81720
X0.85100 Y0.81620
X0.84700 Y0.81620
X0.84700 Y0.81520
X0.75200 Y0.81520
X0.75200 Y0.81620
X0.74800 Y0.81620
X0.74800 Y0.81720
X0.74500 Y0.81720
X0.74500 Y0.81820
X0.74100 Y0.81820
X0.74100 Y0.81920
X0.74000 Y0.81920
X0.74000 Y0.82020
X0.73900 Y0.82020
X0.73900 Y0.82120
X0.73800 Y0.82120
X0.73800 Y0.82220
X0.73700 Y0.82220
X0.73700 Y0.82320
X0.73600 Y0.82320
X0.73600 Y0.82420
X0.73500 Y0.82420
X0.73500 Y0.82520
X0.73400 Y0.82520
X0.73400 Y0.82620
X0.73300 Y0.82620
X0.73300 Y0.82720
X0.73200 Y0.82720
X0.73200 Y0.82820
X0.73100 Y0.82820
X0.73100 Y0.83220
X0.73000 Y0.83220
X0.73000 Y0.83520
X0.72900 Y0.83520
X0.72900 Y0.83920
X0.72800 Y0.83920
X0.72800 Y0.86520
X0.72900 Y0.86520
X0.72900 Y0.86720
X0.73000 Y0.86720
X0.73000 Y0.87020
X0.73100 Y0.87020
X0.73100 Y0.87320
X0.73200 Y0.87320
X0.73200 Y0.87620
X0.73300 Y0.87620
X0.73300 Y0.87720
X0.73400 Y0.87720
X0.73400 Y0.88020
X0.73500 Y0.88020
X0.73500 Y0.88120
X0.73600 Y0.88120
X0.73600 Y0.88320
X0.73700 Y0.88320
X0.73700 Y0.88520
X0.73800 Y0.88520
X0.73800 Y0.88620
X0.73900 Y0.88620
X0.73900 Y0.88920
X0.74000 Y0.88920
X0.74000 Y0.89220
X0.74100 Y0.89220
X0.74100 Y0.89520
X0.74200 Y0.89520
X0.74200 Y0.89820
X0.74300 Y0.89820
X0.74300 Y0.90120
X0.74400 Y0.90120
X0.74400 Y0.90220
X0.74500 Y0.90220
X0.74500 Y0.90420
X0.74800 Y0.90420
X0.74800 Y0.90520
X0.75200 Y0.90520
X0.75200 Y0.90620
X0.84600 Y0.90620
X0.84600 Y0.90520
X0.85000 Y0.90520
X0.85000 Y0.90420
X0.85300 Y0.90420
X0.85300 Y0.90320
X0.85700 Y0.90320
X0.85700 Y0.90020
X0.86000 Y0.90020
X0.86000 Y0.89720
X0.86300 Y0.89720
X0.86300 Y0.89420
X0.86600 Y0.89420
X0.86600 Y0.88620
G04 P0 ( dwell for no time -- G64 should not smooth over this point )
G00 Z0.19685 ( retract )

G00 X1.16200 Y0.88620 ( rapid move to begin. )
G01 Z-0.11417 F43.30709 ( plunge. )
G04 P0 ( dwell for no time -- G64 should not smooth over this point )
X1.16200 Y0.88620
X1.16200 Y0.88420
X1.16100 Y0.88420
X1.16100 Y0.88220
X1.16200 Y0.88220
X1.16200 Y0.87420
X1.16300 Y0.87420
X1.16300 Y0.84720
X1.16200 Y0.84720
X1.16200 Y0.83920
X1.16100 Y0.83920
X1.16100 Y0.83720
X1.16200 Y0.83720
X1.16200 Y0.82220
X1.16100 Y0.82220
X1.16100 Y0.82120
X1.16000 Y0.82120
X1.16000 Y0.82020
X1.15900 Y0.82020
X1.15900 Y0.81920
X1.15800 Y0.81920
X1.15800 Y0.81820
X1.15400 Y0.81820
X1.15400 Y0.81720
X1.15100 Y0.81720
X1.15100 Y0.81620
X1.14700 Y0.81620
X1.14700 Y0.81520
X1.05200 Y0.81520
X1.05200 Y0.81620
X1.04800 Y0.81620
X1.04800 Y0.81720
X1.04500 Y0.81720
X1.04500 Y0.81820
X1.04100 Y0.81820
X1.04100 Y0.81920
X1.04000 Y0.81920
X1.04000 Y0.82020
X1.03900 Y0.82020
X1.03900 Y0.82120
X1.03800 Y0.82120
X1.03800 Y0.82220
X1.03700 Y0.82220
X1.03700 Y0.82320
X1.03600 Y0.82320
X1.03600 Y0.82420
X1.03500 Y0.82420
X1.03500 Y0.82520
X1.03400 Y0.82520
X1.03400 Y0.82620
X1.03300 Y0.82620
X1.03300 Y0.82720
X1.03200 Y0.82720
X1.03200 Y0.82820
X1.03100 Y0.82820
X1.03100 Y0.83220
X1.03000 Y0.83220
X1.03000 Y0.83520
X1.02900 Y0.83520
X1.02900 Y0.83920
X1.02800 Y0.83920
X1.02800 Y0.88220
X1.02900 Y0.88220
X1.02900 Y0.88620
X1.03000 Y0.88620
X1.03000 Y0.88920
X1.03100 Y0.88920
X1.03100 Y0.89320
X1.03200 Y0.89320
X1.03200 Y0.89420
X1.03300 Y0.89420
X1.03300 Y0.89520
X1.03400 Y0.89520
X1.03400 Y0.89620
X1.03500 Y0.89620
X1.03500 Y0.89720
X1.03600 Y0.89720
X1.03600 Y0.89820
X1.03700 Y0.89820
X1.03700 Y0.89920
X1.03800 Y0.89920
X1.03800 Y0.90020
X1.03900 Y0.90020
X1.03900 Y0.90120
X1.04000 Y0.90120
X1.04000 Y0.90220
X1.04100 Y0.90220
X1.04100 Y0.90320
X1.04500 Y0.90320
X1.04500 Y0.90420
X1.04800 Y0.90420
X1.04800 Y0.90520
X1.05200 Y0.90520
X1.05200 Y0.90620
X1.14600 Y0.90620
X1.14600 Y0.90520
X1.15000 Y0.90520
X1.15000 Y0.90420
X1.15300 Y0.90420
X1.15300 Y0.90320
X1.15700 Y0.90320
X1.15700 Y0.90020
X1.16000 Y0.90020
X1.16000 Y0.89720
X1.16200 Y0.89720
X1.16200 Y0.89420
X1.16100 Y0.89420
X1.16100 Y0.89220
X1.16200 Y0.89220
X1.16200 Y0.88620
G04 P0 ( dwell for no time -- G64 should not smooth over this point )
G00 Z0.19685 ( retract )

G00 X1.24500 Y0.88620 ( rapid move to begin. )
G01 Z-0.11417 F43.30709 ( plunge. )
G04 P0 ( dwell for no time -- G64 should not smooth over this point )
X1.24500 Y0.88620
X1.24500 Y0.83020
X1.24400 Y0.83020
X1.24400 Y0.82920
X1.24300 Y0.82920
X1.24300 Y0.82820
X1.24200 Y0.82820
X1.24200 Y0.82720
X1.24100 Y0.82720
X1.24100 Y0.82620
X1.24000 Y0.82620
X1.24000 Y0.82520
X1.23900 Y0.82520
X1.23900 Y0.82420
X1.23800 Y0.82420
X1.23800 Y0.82320
X1.23700 Y0.82320
X1.23700 Y0.82220
X1.23600 Y0.82220
X1.23600 Y0.82120
X1.23500 Y0.82120
X1.23500 Y0.82020
X1.23400 Y0.82020
X1.23400 Y0.81920
X1.23300 Y0.81920
X1.23300 Y0.81820
X1.23200 Y0.81820
X1.23200 Y0.81720
X1.23100 Y0.81720
X1.23100 Y0.81620
X1.23000 Y0.81620
X1.23000 Y0.81520
X1.16900 Y0.81520
X1.16900 Y0.81620
X1.16800 Y0.81620
X1.16800 Y0.81720
X1.16700 Y0.81720
X1.16700 Y0.81820
X1.16600 Y0.81820
X1.16600 Y0.81920
X1.16500 Y0.81920
X1.16500 Y0.82020
X1.16400 Y0.82020
X1.16400 Y0.82120
X1.16300 Y0.82120
X1.16300 Y0.82220
X1.16200 Y0.82220
X1.16200 Y0.83720
X1.16100 Y0.83720
X1.16100 Y0.83920
X1.16200 Y0.83920
X1.16200 Y0.84720
X1.16300 Y0.84720
X1.16300 Y0.87420
X1.16200 Y0.87420
X1.16200 Y0.88220
X1.16100 Y0.88220
X1.16100 Y0.88420
X1.16200 Y0.88420
X1.16200 Y0.89220
X1.16100 Y0.89220
X1.16100 Y0.89420
X1.16200 Y0.89420
X1.16200 Y0.89920
X1.16300 Y0.89920
X1.16300 Y0.90020
X1.16400 Y0.90020
X1.16400 Y0.90120
X1.16500 Y0.90120
X1.16500 Y0.90220
X1.16600 Y0.90220
X1.16600 Y0.90320
X1.16700 Y0.90320
X1.16700 Y0.90420
X1.16800 Y0.90420
X1.16800 Y0.90520
X1.16900 Y0.90520
X1.16900 Y0.90620
X1.22900 Y0.90620
X1.22900 Y0.90320
X1.23200 Y0.90320
X1.23200 Y0.90020
X1.23500 Y0.90020
X1.23500 Y0.89720
X1.23800 Y0.89720
X1.23800 Y0.89420
X1.24100 Y0.89420
X1.24100 Y0.89120
X1.24500 Y0.89120
X1.24500 Y0.88620
G04 P0 ( dwell for no time -- G64 should not smooth over this point )
G00 Z0.19685 ( retract )

G00 X0.52400 Y0.79020 ( rapid move to begin. )
G01 Z-0.11417 F43.30709 ( plunge. )
G04 P0 ( dwell for no time -- G64 should not smooth over this point )
X0.52400 Y0.79020
X0.52400 Y0.78920
X0.52700 Y0.78920
X0.52700 Y0.78720
X0.52800 Y0.78720
X0.52800 Y0.78220
X0.52900 Y0.78220
X0.52900 Y0.73920
X0.52800 Y0.73920
X0.52800 Y0.73420
X0.52700 Y0.73420
X0.52700 Y0.73020
X0.52600 Y0.73020
X0.52600 Y0.72720
X0.52500 Y0.72720
X0.52500 Y0.72620
X0.52400 Y0.72620
X0.52400 Y0.72520
X0.52300 Y0.72520
X0.52300 Y0.72420
X0.52200 Y0.72420
X0.52200 Y0.72220
X0.52100 Y0.72220
X0.52100 Y0.72120
X0.52000 Y0.72120
X0.52000 Y0.72020
X0.51900 Y0.72020
X0.51900 Y0.71920
X0.51800 Y0.71920
X0.51800 Y0.71720
X0.51600 Y0.71720
X0.51600 Y0.71620
X0.51300 Y0.71620
X0.51300 Y0.71520
X0.51100 Y0.71520
X0.51100 Y0.71420
X0.50900 Y0.71420
X0.50900 Y0.71320
X0.50700 Y0.71320
X0.50700 Y0.71220
X0.50300 Y0.71220
X0.50300 Y0.71120
X0.39600 Y0.71120
X0.39600 Y0.71220
X0.39200 Y0.71220
X0.39200 Y0.71320
X0.39000 Y0.71320
X0.39000 Y0.71420
X0.38800 Y0.71420
X0.38800 Y0.71520
X0.38600 Y0.71520
X0.38600 Y0.71620
X0.38300 Y0.71620
X0.38300 Y0.71720
X0.38100 Y0.71720
X0.38100 Y0.71920
X0.38000 Y0.71920
X0.38000 Y0.72020
X0.37900 Y0.72020
X0.37900 Y0.72120
X0.37800 Y0.72120
X0.37800 Y0.72220
X0.37700 Y0.72220
X0.37700 Y0.72420
X0.37600 Y0.72420
X0.37600 Y0.72520
X0.37500 Y0.72520
X0.37500 Y0.72620
X0.37400 Y0.72620
X0.37400 Y0.72720
X0.37300 Y0.72720
X0.37300 Y0.73020
X0.37200 Y0.73020
X0.37200 Y0.73420
X0.37100 Y0.73420
X0.37100 Y0.73920
X0.37000 Y0.73920
X0.37000 Y0.78220
X0.37100 Y0.78220
X0.37100 Y0.78720
X0.37200 Y0.78720
X0.37200 Y0.79120
X0.37300 Y0.79120
X0.37300 Y0.79420
X0.37400 Y0.79420
X0.37400 Y0.79520
X0.37500 Y0.79520
X0.37500 Y0.79620
X0.37600 Y0.79620
X0.37600 Y0.79720
X0.37700 Y0.79720
X0.37700 Y0.79920
X0.37800 Y0.79920
X0.37800 Y0.80020
X0.37900 Y0.80020
X0.37900 Y0.80120
X0.38000 Y0.80120
X0.38000 Y0.80220
X0.38100 Y0.80220
X0.38100 Y0.80420
X0.38300 Y0.80420
X0.38300 Y0.80520
X0.38600 Y0.80520
X0.38600 Y0.80620
X0.38800 Y0.80620
X0.38800 Y0.80720
X0.39000 Y0.80720
X0.39000 Y0.80820
X0.39200 Y0.80820
X0.39200 Y0.80920
X0.39600 Y0.80920
X0.39600 Y0.81020
X0.50200 Y0.81020
X0.50200 Y0.80920
X0.50600 Y0.80920
X0.50600 Y0.80720
X0.51000 Y0.80720
X0.51000 Y0.80520
X0.51500 Y0.80520
X0.51500 Y0.80220
X0.51800 Y0.80220
X0.51800 Y0.79920
X0.52100 Y0.79920
X0.52100 Y0.79520
X0.52400 Y0.79520
X0.52400 Y0.79020
G04 P0 ( dwell for no time -- G64 should not smooth over this point )
G00 Z0.19685 ( retract )

G00 X0.86600 Y0.78620 ( rapid move to begin. )
G01 Z-0.11417 F43.30709 ( plunge. )
G04 P0 ( dwell for no time -- G64 should not smooth over this point )
X0.86600 Y0.78620
X0.86600 Y0.78520
X0.86800 Y0.78520
X0.86800 Y0.78620
X0.87000 Y0.78620
X0.87000 Y0.78220
X0.87100 Y0.78220
X0.87100 Y0.73920
X0.87000 Y0.73920
X0.87000 Y0.73520
X0.86900 Y0.73520
X0.86900 Y0.73220
X0.86800 Y0.73220
X0.86800 Y0.72820
X0.86700 Y0.72820
X0.86700 Y0.72720
X0.86600 Y0.72720
X0.86600 Y0.72620
X0.86500 Y0.72620
X0.86500 Y0.72520
X0.86400 Y0.72520
X0.86400 Y0.72420
X0.86300 Y0.72420
X0.86300 Y0.72320
X0.86200 Y0.72320
X0.86200 Y0.72220
X0.86100 Y0.72220
X0.86100 Y0.72120
X0.86000 Y0.72120
X0.86000 Y0.72020
X0.85900 Y0.72020
X0.85900 Y0.71920
X0.85800 Y0.71920
X0.85800 Y0.71820
X0.85400 Y0.71820
X0.85400 Y0.71720
X0.85100 Y0.71720
X0.85100 Y0.71620
X0.84700 Y0.71620
X0.84700 Y0.71520
X0.75200 Y0.71520
X0.75200 Y0.71620
X0.74800 Y0.71620
X0.74800 Y0.71720
X0.74500 Y0.71720
X0.74500 Y0.71820
X0.74100 Y0.71820
X0.74100 Y0.71920
X0.74000 Y0.71920
X0.74000 Y0.72020
X0.73900 Y0.72020
X0.73900 Y0.72120
X0.73800 Y0.72120
X0.73800 Y0.72220
X0.73700 Y0.72220
X0.73700 Y0.72320
X0.73600 Y0.72320
X0.73600 Y0.72420
X0.73500 Y0.72420
X0.73500 Y0.72520
X0.73400 Y0.72520
X0.73400 Y0.72620
X0.73300 Y0.72620
X0.73300 Y0.72720
X0.73200 Y0.72720
X0.73200 Y0.72820
X0.73100 Y0.72820
X0.73100 Y0.73220
X0.73000 Y0.73220
X0.73000 Y0.73520
X0.72900 Y0.73520
X0.72900 Y0.73920
X0.72800 Y0.73920
X0.72800 Y0.78220
X0.72900 Y0.78220
X0.72900 Y0.78620
X0.73000 Y0.78620
X0.73000 Y0.78920
X0.73100 Y0.78920
X0.73100 Y0.79320
X0.73200 Y0.79320
X0.73200 Y0.79420
X0.73300 Y0.79420
X0.73300 Y0.79520
X0.73400 Y0.79520
X0.73400 Y0.79620
X0.73500 Y0.79620
X0.73500 Y0.79720
X0.73600 Y0.79720
X0.73600 Y0.79820
X0.73700 Y0.79820
X0.73700 Y0.79920
X0.73800 Y0.79920
X0.73800 Y0.80020
X0.73900 Y0.80020
X0.73900 Y0.80120
X0.74000 Y0.80120
X0.74000 Y0.80220
X0.74100 Y0.80220
X0.74100 Y0.80320
X0.74500 Y0.80320
X0.74500 Y0.80420
X0.74800 Y0.80420
X0.74800 Y0.80520
X0.75200 Y0.80520
X0.75200 Y0.80620
X0.84600 Y0.80620
X0.84600 Y0.80520
X0.85000 Y0.80520
X0.85000 Y0.80420
X0.85300 Y0.80420
X0.85300 Y0.80320
X0.85700 Y0.80320
X0.85700 Y0.80020
X0.86000 Y0.80020
X0.86000 Y0.79720
X0.86300 Y0.79720
X0.86300 Y0.79420
X0.86600 Y0.79420
X0.86600 Y0.78620
G04 P0 ( dwell for no time -- G64 should not smooth over this point )
G00 Z0.19685 ( retract )

G00 X1.16200 Y0.78620 ( rapid move to begin. )
G01 Z-0.11417 F43.30709 ( plunge. )
G04 P0 ( dwell for no time -- G64 should not smooth over this point )
X1.16200 Y0.78620
X1.16200 Y0.78420
X1.16100 Y0.78420
X1.16100 Y0.78220
X1.16200 Y0.78220
X1.16200 Y0.77420
X1.16300 Y0.77420
X1.16300 Y0.74720
X1.16200 Y0.74720
X1.16200 Y0.73920
X1.16100 Y0.73920
X1.16100 Y0.73720
X1.16200 Y0.73720
X1.16200 Y0.72220
X1.16100 Y0.72220
X1.16100 Y0.72120
X1.16000 Y0.72120
X1.16000 Y0.72020
X1.15900 Y0.72020
X1.15900 Y0.71920
X1.15800 Y0.71920
X1.15800 Y0.71820
X1.15400 Y0.71820
X1.15400 Y0.71720
X1.15100 Y0.71720
X1.15100 Y0.71620
X1.14700 Y0.71620
X1.14700 Y0.71520
X1.05200 Y0.71520
X1.05200 Y0.71620
X1.04800 Y0.71620
X1.04800 Y0.71720
X1.04500 Y0.71720
X1.04500 Y0.71820
X1.04100 Y0.71820
X1.04100 Y0.71920
X1.04000 Y0.71920
X1.04000 Y0.72020
X1.03900 Y0.72020
X1.03900 Y0.72120
X1.03800 Y0.72120
X1.03800 Y0.72220
X1.03700 Y0.72220
X1.03700 Y0.72320
X1.03600 Y0.72320
X1.03600 Y0.72420
X1.03500 Y0.72420
X1.03500 Y0.72520
X1.03400 Y0.72520
X1.03400 Y0.72620
X1.03300 Y0.72620
X1.03300 Y0.72720
X1.03200 Y0.72720
X1.03200 Y0.72820
X1.03100 Y0.72820
X1.03100 Y0.73220
X1.03000 Y0.73220
X1.03000 Y0.73520
X1.02900 Y0.73520
X1.02900 Y0.73920
X1.02800 Y0.73920
X1.02800 Y0.78220
X1.02900 Y0.78220
X1.02900 Y0.78620
X1.03000 Y0.78620
X1.03000 Y0.78920
X1.03100 Y0.78920
X1.03100 Y0.79320
X1.03200 Y0.79320
X1.03200 Y0.79420
X1.03300 Y0.79420
X1.03300 Y0.79520
X1.03400 Y0.79520
X1.03400 Y0.79620
X1.03500 Y0.79620
X1.03500 Y0.79720
X1.03600 Y0.79720
X1.03600 Y0.79820
X1.03700 Y0.79820
X1.03700 Y0.79920
X1.03800 Y0.79920
X1.03800 Y0.80020
X1.03900 Y0.80020
X1.03900 Y0.80120
X1.04000 Y0.80120
X1.04000 Y0.80220
X1.04100 Y0.80220
X1.04100 Y0.80320
X1.04500 Y0.80320
X1.04500 Y0.80420
X1.04800 Y0.80420
X1.04800 Y0.80520
X1.05200 Y0.80520
X1.05200 Y0.80620
X1.14600 Y0.80620
X1.14600 Y0.80520
X1.15000 Y0.80520
X1.15000 Y0.80420
X1.15300 Y0.80420
X1.15300 Y0.80320
X1.15700 Y0.80320
X1.15700 Y0.80020
X1.16000 Y0.80020
X1.16000 Y0.79720
X1.16200 Y0.79720
X1.16200 Y0.79420
X1.16100 Y0.79420
X1.16100 Y0.79220
X1.16200 Y0.79220
X1.16200 Y0.78620
G04 P0 ( dwell for no time -- G64 should not smooth over this point )
G00 Z0.19685 ( retract )

G00 X1.24500 Y0.78620 ( rapid move to begin. )
G01 Z-0.11417 F43.30709 ( plunge. )
G04 P0 ( dwell for no time -- G64 should not smooth over this point )
X1.24500 Y0.78620
X1.24500 Y0.73020
X1.24400 Y0.73020
X1.24400 Y0.72920
X1.24300 Y0.72920
X1.24300 Y0.72820
X1.24200 Y0.72820
X1.24200 Y0.72720
X1.24100 Y0.72720
X1.24100 Y0.72620
X1.24000 Y0.72620
X1.24000 Y0.72520
X1.23900 Y0.72520
X1.23900 Y0.72420
X1.23800 Y0.72420
X1.23800 Y0.72320
X1.23700 Y0.72320
X1.23700 Y0.72220
X1.23600 Y0.72220
X1.23600 Y0.72120
X1.23500 Y0.72120
X1.23500 Y0.72020
X1.23400 Y0.72020
X1.23400 Y0.71920
X1.23300 Y0.71920
X1.23300 Y0.71820
X1.23200 Y0.71820
X1.23200 Y0.71720
X1.23100 Y0.71720
X1.23100 Y0.71620
X1.23000 Y0.71620
X1.23000 Y0.71520
X1.16900 Y0.71520
X1.16900 Y0.71620
X1.16800 Y0.71620
X1.16800 Y0.71720
X1.16700 Y0.71720
X1.16700 Y0.71820
X1.16600 Y0.71820
X1.16600 Y0.71920
X1.16500 Y0.71920
X1.16500 Y0.72020
X1.16400 Y0.72020
X1.16400 Y0.72120
X1.16300 Y0.72120
X1.16300 Y0.72220
X1.16200 Y0.72220
X1.16200 Y0.73720
X1.16100 Y0.73720
X1.16100 Y0.73920
X1.16200 Y0.73920
X1.16200 Y0.74720
X1.16300 Y0.74720
X1.16300 Y0.77420
X1.16200 Y0.77420
X1.16200 Y0.78220
X1.16100 Y0.78220
X1.16100 Y0.78420
X1.16200 Y0.78420
X1.16200 Y0.79220
X1.16100 Y0.79220
X1.16100 Y0.79420
X1.16200 Y0.79420
X1.16200 Y0.79920
X1.16300 Y0.79920
X1.16300 Y0.80020
X1.16400 Y0.80020
X1.16400 Y0.80120
X1.16500 Y0.80120
X1.16500 Y0.80220
X1.16600 Y0.80220
X1.16600 Y0.80320
X1.16700 Y0.80320
X1.16700 Y0.80420
X1.16800 Y0.80420
X1.16800 Y0.80520
X1.16900 Y0.80520
X1.16900 Y0.80620
X1.22900 Y0.80620
X1.22900 Y0.80320
X1.23200 Y0.80320
X1.23200 Y0.80020
X1.23500 Y0.80020
X1.23500 Y0.79720
X1.23800 Y0.79720
X1.23800 Y0.79420
X1.24100 Y0.79420
X1.24100 Y0.79120
X1.24500 Y0.79120
X1.24500 Y0.78620
G04 P0 ( dwell for no time -- G64 should not smooth over this point )
G00 Z0.19685 ( retract )

G00 X2.04500 Y0.78620 ( rapid move to begin. )
G01 Z-0.11417 F43.30709 ( plunge. )
G04 P0 ( dwell for no time -- G64 should not smooth over this point )
X2.04500 Y0.78620
X2.04500 Y0.73020
X2.04400 Y0.73020
X2.04400 Y0.72920
X2.04300 Y0.72920
X2.04300 Y0.72820
X2.04200 Y0.72820
X2.04200 Y0.72720
X2.04100 Y0.72720
X2.04100 Y0.72620
X2.04000 Y0.72620
X2.04000 Y0.72520
X2.03900 Y0.72520
X2.03900 Y0.72420
X2.03800 Y0.72420
X2.03800 Y0.72320
X2.03700 Y0.72320
X2.03700 Y0.72220
X2.03600 Y0.72220
X2.03600 Y0.72120
X2.03500 Y0.72120
X2.03500 Y0.72020
X2.03400 Y0.72020
X2.03400 Y0.71920
X2.03300 Y0.71920
X2.03300 Y0.71820
X2.03200 Y0.71820
X2.03200 Y0.71720
X2.03100 Y0.71720
X2.03100 Y0.71620
X2.03000 Y0.71620
X2.03000 Y0.71520
X1.96900 Y0.71520
X1.96900 Y0.71620
X1.96800 Y0.71620
X1.96800 Y0.71720
X1.96700 Y0.71720
X1.96700 Y0.71820
X1.96600 Y0.71820
X1.96600 Y0.71920
X1.96500 Y0.71920
X1.96500 Y0.72020
X1.96400 Y0.72020
X1.96400 Y0.72120
X1.96300 Y0.72120
X1.96300 Y0.72220
X1.96200 Y0.72220
X1.96200 Y0.72320
X1.96100 Y0.72320
X1.96100 Y0.72420
X1.96000 Y0.72420
X1.96000 Y0.72520
X1.95900 Y0.72520
X1.95900 Y0.72620
X1.95800 Y0.72620
X1.95800 Y0.72720
X1.95700 Y0.72720
X1.95700 Y0.72820
X1.95600 Y0.72820
X1.95600 Y0.72920
X1.95500 Y0.72920
X1.95500 Y0.73020
X1.95400 Y0.73020
X1.95400 Y0.79120
X1.95500 Y0.79120
X1.95500 Y0.79220
X1.95600 Y0.79220
X1.95600 Y0.79320
X1.95700 Y0.79320
X1.95700 Y0.79420
X1.95800 Y0.79420
X1.95800 Y0.79520
X1.95900 Y0.79520
X1.95900 Y0.79620
X1.96000 Y0.79620
X1.96000 Y0.79720
X1.96100 Y0.79720
X1.96100 Y0.79820
X1.96200 Y0.79820
X1.96200 Y0.79920
X1.96300 Y0.79920
X1.96300 Y0.80020
X1.96400 Y0.80020
X1.96400 Y0.80120
X1.96500 Y0.80120
X1.96500 Y0.80220
X1.96600 Y0.80220
X1.96600 Y0.80320
X1.96700 Y0.80320
X1.96700 Y0.80420
X1.96800 Y0.80420
X1.96800 Y0.80520
X1.96900 Y0.80520
X1.96900 Y0.80620
X2.02900 Y0.80620
X2.02900 Y0.80320
X2.03200 Y0.80320
X2.03200 Y0.80020
X2.03500 Y0.80020
X2.03500 Y0.79720
X2.03800 Y0.79720
X2.03800 Y0.79420
X2.04100 Y0.79420
X2.04100 Y0.79120
X2.04500 Y0.79120
X2.04500 Y0.78620
G04 P0 ( dwell for no time -- G64 should not smooth over this point )
G00 Z0.19685 ( retract )

G00 X0.69400 Y0.73120 ( rapid move to begin. )
G01 Z-0.11417 F43.30709 ( plunge. )
G04 P0 ( dwell for no time -- G64 should not smooth over this point )
X0.69400 Y0.73120
X0.69400 Y0.72820
X0.69500 Y0.72820
X0.69500 Y0.68320
X0.69400 Y0.68320
X0.69400 Y0.67820
X0.69300 Y0.67820
X0.69300 Y0.67420
X0.69200 Y0.67420
X0.69200 Y0.67320
X0.69100 Y0.67320
X0.69100 Y0.67220
X0.69000 Y0.67220
X0.69000 Y0.67020
X0.68900 Y0.67020
X0.68900 Y0.66920
X0.68800 Y0.66920
X0.68800 Y0.66720
X0.68700 Y0.66720
X0.68700 Y0.66620
X0.68500 Y0.66620
X0.68500 Y0.66520
X0.68300 Y0.66520
X0.68300 Y0.66420
X0.68200 Y0.66420
X0.68200 Y0.66320
X0.68000 Y0.66320
X0.68000 Y0.66220
X0.67800 Y0.66220
X0.67800 Y0.66120
X0.67200 Y0.66120
X0.67200 Y0.66020
X0.62700 Y0.66020
X0.62700 Y0.66120
X0.62100 Y0.66120
X0.62100 Y0.66220
X0.61900 Y0.66220
X0.61900 Y0.66320
X0.61700 Y0.66320
X0.61700 Y0.66420
X0.61600 Y0.66420
X0.61600 Y0.66520
X0.61400 Y0.66520
X0.61400 Y0.66620
X0.61200 Y0.66620
X0.61200 Y0.66720
X0.61100 Y0.66720
X0.61100 Y0.66920
X0.61000 Y0.66920
X0.61000 Y0.67020
X0.60900 Y0.67020
X0.60900 Y0.67220
X0.60800 Y0.67220
X0.60800 Y0.67320
X0.60700 Y0.67320
X0.60700 Y0.67420
X0.60600 Y0.67420
X0.60600 Y0.67820
X0.60500 Y0.67820
X0.60500 Y0.68320
X0.60400 Y0.68320
X0.60400 Y0.72820
X0.60500 Y0.72820
X0.60500 Y0.73320
X0.60600 Y0.73320
X0.60600 Y0.73720
X0.60700 Y0.73720
X0.60700 Y0.73820
X0.60800 Y0.73820
X0.60800 Y0.74020
X0.60900 Y0.74020
X0.60900 Y0.74120
X0.61000 Y0.74120
X0.61000 Y0.74220
X0.61100 Y0.74220
X0.61100 Y0.74420
X0.61200 Y0.74420
X0.61200 Y0.74520
X0.61400 Y0.74520
X0.61400 Y0.74620
X0.61600 Y0.74620
X0.61600 Y0.74720
X0.61700 Y0.74720
X0.61700 Y0.74820
X0.61900 Y0.74820
X0.61900 Y0.74920
X0.62100 Y0.74920
X0.62100 Y0.75020
X0.62700 Y0.75020
X0.62700 Y0.75120
X0.67100 Y0.75120
X0.67100 Y0.75020
X0.67700 Y0.75020
X0.67700 Y0.74820
X0.68100 Y0.74820
X0.68100 Y0.74620
X0.68400 Y0.74620
X0.68400 Y0.74420
X0.68700 Y0.74420
X0.68700 Y0.74020
X0.69000 Y0.74020
X0.69000 Y0.73320
X0.69400 Y0.73320
X0.69400 Y0.73120
G04 P0 ( dwell for no time -- G64 should not smooth over this point )
G00 Z0.19685 ( retract )

G00 X0.52400 Y0.69020 ( rapid move to begin. )
G01 Z-0.11417 F43.30709 ( plunge. )
G04 P0 ( dwell for no time -- G64 should not smooth over this point )
X0.52400 Y0.69020
X0.52400 Y0.68920
X0.52700 Y0.68920
X0.52700 Y0.68720
X0.52800 Y0.68720
X0.52800 Y0.68220
X0.52900 Y0.68220
X0.52900 Y0.63920
X0.52800 Y0.63920
X0.52800 Y0.63420
X0.52700 Y0.63420
X0.52700 Y0.63020
X0.52600 Y0.63020
X0.52600 Y0.62720
X0.52500 Y0.62720
X0.52500 Y0.62620
X0.52400 Y0.62620
X0.52400 Y0.62520
X0.52300 Y0.62520
X0.52300 Y0.62420
X0.52200 Y0.62420
X0.52200 Y0.62220
X0.52100 Y0.62220
X0.52100 Y0.62120
X0.52000 Y0.62120
X0.52000 Y0.62020
X0.51900 Y0.62020
X0.51900 Y0.61920
X0.51800 Y0.61920
X0.51800 Y0.61720
X0.51600 Y0.61720
X0.51600 Y0.61620
X0.51300 Y0.61620
X0.51300 Y0.61520
X0.51100 Y0.61520
X0.51100 Y0.61420
X0.50900 Y0.61420
X0.50900 Y0.61320
X0.50700 Y0.61320
X0.50700 Y0.61220
X0.50300 Y0.61220
X0.50300 Y0.61120
X0.39600 Y0.61120
X0.39600 Y0.61220
X0.39200 Y0.61220
X0.39200 Y0.61320
X0.39000 Y0.61320
X0.39000 Y0.61420
X0.38800 Y0.61420
X0.38800 Y0.61520
X0.38600 Y0.61520
X0.38600 Y0.61620
X0.38300 Y0.61620
X0.38300 Y0.61720
X0.38100 Y0.61720
X0.38100 Y0.61920
X0.38000 Y0.61920
X0.38000 Y0.62020
X0.37900 Y0.62020
X0.37900 Y0.62120
X0.37800 Y0.62120
X0.37800 Y0.62220
X0.37700 Y0.62220
X0.37700 Y0.62420
X0.37600 Y0.62420
X0.37600 Y0.62520
X0.37500 Y0.62520
X0.37500 Y0.62620
X0.37400 Y0.62620
X0.37400 Y0.62720
X0.37300 Y0.62720
X0.37300 Y0.63020
X0.37200 Y0.63020
X0.37200 Y0.63420
X0.37100 Y0.63420
X0.37100 Y0.63920
X0.37000 Y0.63920
X0.37000 Y0.68220
X0.37100 Y0.68220
X0.37100 Y0.68720
X0.37200 Y0.68720
X0.37200 Y0.69120
X0.37300 Y0.69120
X0.37300 Y0.69420
X0.37400 Y0.69420
X0.37400 Y0.69520
X0.37500 Y0.69520
X0.37500 Y0.69620
X0.37600 Y0.69620
X0.37600 Y0.69720
X0.37700 Y0.69720
X0.37700 Y0.69920
X0.37800 Y0.69920
X0.37800 Y0.70020
X0.37900 Y0.70020
X0.37900 Y0.70120
X0.38000 Y0.70120
X0.38000 Y0.70220
X0.38100 Y0.70220
X0.38100 Y0.70420
X0.38300 Y0.70420
X0.38300 Y0.70520
X0.38600 Y0.70520
X0.38600 Y0.70620
X0.38800 Y0.70620
X0.38800 Y0.70720
X0.39000 Y0.70720
X0.39000 Y0.70820
X0.39200 Y0.70820
X0.39200 Y0.70920
X0.39600 Y0.70920
X0.39600 Y0.71020
X0.50200 Y0.71020
X0.50200 Y0.70920
X0.50600 Y0.70920
X0.50600 Y0.70720
X0.51000 Y0.70720
X0.51000 Y0.70520
X0.51500 Y0.70520
X0.51500 Y0.70220
X0.51800 Y0.70220
X0.51800 Y0.69920
X0.52100 Y0.69920
X0.52100 Y0.69520
X0.52400 Y0.69520
X0.52400 Y0.69020
G04 P0 ( dwell for no time -- G64 should not smooth over this point )
G00 Z0.19685 ( retract )

G00 X0.86600 Y0.68620 ( rapid move to begin. )
G01 Z-0.11417 F43.30709 ( plunge. )
G04 P0 ( dwell for no time -- G64 should not smooth over this point )
X0.86600 Y0.68620
X0.86600 Y0.68520
X0.86800 Y0.68520
X0.86800 Y0.68620
X0.87000 Y0.68620
X0.87000 Y0.68220
X0.87100 Y0.68220
X0.87100 Y0.63920
X0.87000 Y0.63920
X0.87000 Y0.63520
X0.86900 Y0.63520
X0.86900 Y0.63220
X0.86800 Y0.63220
X0.86800 Y0.62820
X0.86700 Y0.62820
X0.86700 Y0.62720
X0.86600 Y0.62720
X0.86600 Y0.62620
X0.86500 Y0.62620
X0.86500 Y0.62520
X0.86400 Y0.62520
X0.86400 Y0.62420
X0.86300 Y0.62420
X0.86300 Y0.62320
X0.86200 Y0.62320
X0.86200 Y0.62220
X0.86100 Y0.62220
X0.86100 Y0.62120
X0.86000 Y0.62120
X0.86000 Y0.62020
X0.85900 Y0.62020
X0.85900 Y0.61920
X0.85800 Y0.61920
X0.85800 Y0.61820
X0.85400 Y0.61820
X0.85400 Y0.61720
X0.85100 Y0.61720
X0.85100 Y0.61620
X0.84700 Y0.61620
X0.84700 Y0.61520
X0.75200 Y0.61520
X0.75200 Y0.61620
X0.74800 Y0.61620
X0.74800 Y0.61720
X0.74500 Y0.61720
X0.74500 Y0.61820
X0.74100 Y0.61820
X0.74100 Y0.61920
X0.74000 Y0.61920
X0.74000 Y0.62020
X0.73900 Y0.62020
X0.73900 Y0.62120
X0.73800 Y0.62120
X0.73800 Y0.62220
X0.73700 Y0.62220
X0.73700 Y0.62320
X0.73600 Y0.62320
X0.73600 Y0.62420
X0.73500 Y0.62420
X0.73500 Y0.62520
X0.73400 Y0.62520
X0.73400 Y0.62620
X0.73300 Y0.62620
X0.73300 Y0.62720
X0.73200 Y0.62720
X0.73200 Y0.62820
X0.73100 Y0.62820
X0.73100 Y0.63220
X0.73000 Y0.63220
X0.73000 Y0.63520
X0.72900 Y0.63520
X0.72900 Y0.63920
X0.72800 Y0.63920
X0.72800 Y0.68220
X0.72900 Y0.68220
X0.72900 Y0.68620
X0.73000 Y0.68620
X0.73000 Y0.68920
X0.73100 Y0.68920
X0.73100 Y0.69320
X0.73200 Y0.69320
X0.73200 Y0.69420
X0.73300 Y0.69420
X0.73300 Y0.69520
X0.73400 Y0.69520
X0.73400 Y0.69620
X0.73500 Y0.69620
X0.73500 Y0.69720
X0.73600 Y0.69720
X0.73600 Y0.69820
X0.73700 Y0.69820
X0.73700 Y0.69920
X0.73800 Y0.69920
X0.73800 Y0.70020
X0.73900 Y0.70020
X0.73900 Y0.70120
X0.74000 Y0.70120
X0.74000 Y0.70220
X0.74100 Y0.70220
X0.74100 Y0.70320
X0.74500 Y0.70320
X0.74500 Y0.70420
X0.74800 Y0.70420
X0.74800 Y0.70520
X0.75200 Y0.70520
X0.75200 Y0.70620
X0.84600 Y0.70620
X0.84600 Y0.70520
X0.85000 Y0.70520
X0.85000 Y0.70420
X0.85300 Y0.70420
X0.85300 Y0.70320
X0.85700 Y0.70320
X0.85700 Y0.70020
X0.86000 Y0.70020
X0.86000 Y0.69720
X0.86300 Y0.69720
X0.86300 Y0.69420
X0.86600 Y0.69420
X0.86600 Y0.68620
G04 P0 ( dwell for no time -- G64 should not smooth over this point )
G00 Z0.19685 ( retract )

G00 X1.16200 Y0.68620 ( rapid move to begin. )
G01 Z-0.11417 F43.30709 ( plunge. )
G04 P0 ( dwell for no time -- G64 should not smooth over this point )
X1.16200 Y0.68620
X1.16200 Y0.68420
X1.16100 Y0.68420
X1.16100 Y0.68220
X1.16200 Y0.68220
X1.16200 Y0.67420
X1.16300 Y0.67420
X1.16300 Y0.64720
X1.16200 Y0.64720
X1.16200 Y0.63920
X1.16100 Y0.63920
X1.16100 Y0.63720
X1.16200 Y0.63720
X1.16200 Y0.62220
X1.16100 Y0.62220
X1.16100 Y0.62120
X1.16000 Y0.62120
X1.16000 Y0.62020
X1.15900 Y0.62020
X1.15900 Y0.61920
X1.15800 Y0.61920
X1.15800 Y0.61820
X1.15400 Y0.61820
X1.15400 Y0.61720
X1.15100 Y0.61720
X1.15100 Y0.61620
X1.14700 Y0.61620
X1.14700 Y0.61520
X1.05200 Y0.61520
X1.05200 Y0.61620
X1.04800 Y0.61620
X1.04800 Y0.61720
X1.04500 Y0.61720
X1.04500 Y0.61820
X1.04100 Y0.61820
X1.04100 Y0.61920
X1.04000 Y0.61920
X1.04000 Y0.62020
X1.03900 Y0.62020
X1.03900 Y0.62120
X1.03800 Y0.62120
X1.03800 Y0.62220
X1.03700 Y0.62220
X1.03700 Y0.62320
X1.03600 Y0.62320
X1.03600 Y0.62420
X1.03500 Y0.62420
X1.03500 Y0.62520
X1.03400 Y0.62520
X1.03400 Y0.62620
X1.03300 Y0.62620
X1.03300 Y0.62720
X1.03200 Y0.62720
X1.03200 Y0.62820
X1.03100 Y0.62820
X1.03100 Y0.63220
X1.03000 Y0.63220
X1.03000 Y0.63520
X1.02900 Y0.63520
X1.02900 Y0.63920
X1.02800 Y0.63920
X1.02800 Y0.68220
X1.02900 Y0.68220
X1.02900 Y0.68620
X1.03000 Y0.68620
X1.03000 Y0.68920
X1.03100 Y0.68920
X1.03100 Y0.69320
X1.03200 Y0.69320
X1.03200 Y0.69420
X1.03300 Y0.69420
X1.03300 Y0.69520
X1.03400 Y0.69520
X1.03400 Y0.69620
X1.03500 Y0.69620
X1.03500 Y0.69720
X1.03600 Y0.69720
X1.03600 Y0.69820
X1.03700 Y0.69820
X1.03700 Y0.69920
X1.03800 Y0.69920
X1.03800 Y0.70020
X1.03900 Y0.70020
X1.03900 Y0.70120
X1.04000 Y0.70120
X1.04000 Y0.70220
X1.04100 Y0.70220
X1.04100 Y0.70320
X1.04500 Y0.70320
X1.04500 Y0.70420
X1.04800 Y0.70420
X1.04800 Y0.70520
X1.05200 Y0.70520
X1.05200 Y0.70620
X1.14600 Y0.70620
X1.14600 Y0.70520
X1.15000 Y0.70520
X1.15000 Y0.70420
X1.15300 Y0.70420
X1.15300 Y0.70320
X1.15700 Y0.70320
X1.15700 Y0.70020
X1.16000 Y0.70020
X1.16000 Y0.69720
X1.16200 Y0.69720
X1.16200 Y0.69420
X1.16100 Y0.69420
X1.16100 Y0.69220
X1.16200 Y0.69220
X1.16200 Y0.68620
G04 P0 ( dwell for no time -- G64 should not smooth over this point )
G00 Z0.19685 ( retract )

G00 X1.24500 Y0.68620 ( rapid move to begin. )
G01 Z-0.11417 F43.30709 ( plunge. )
G04 P0 ( dwell for no time -- G64 should not smooth over this point )
X1.24500 Y0.68620
X1.24500 Y0.63020
X1.24400 Y0.63020
X1.24400 Y0.62920
X1.24300 Y0.62920
X1.24300 Y0.62820
X1.24200 Y0.62820
X1.24200 Y0.62720
X1.24100 Y0.62720
X1.24100 Y0.62620
X1.24000 Y0.62620
X1.24000 Y0.62520
X1.23900 Y0.62520
X1.23900 Y0.62420
X1.23800 Y0.62420
X1.23800 Y0.62320
X1.23700 Y0.62320
X1.23700 Y0.62220
X1.23600 Y0.62220
X1.23600 Y0.62120
X1.23500 Y0.62120
X1.23500 Y0.62020
X1.23400 Y0.62020
X1.23400 Y0.61920
X1.23300 Y0.61920
X1.23300 Y0.61820
X1.23200 Y0.61820
X1.23200 Y0.61720
X1.23100 Y0.61720
X1.23100 Y0.61620
X1.23000 Y0.61620
X1.23000 Y0.61520
X1.16900 Y0.61520
X1.16900 Y0.61620
X1.16800 Y0.61620
X1.16800 Y0.61720
X1.16700 Y0.61720
X1.16700 Y0.61820
X1.16600 Y0.61820
X1.16600 Y0.61920
X1.16500 Y0.61920
X1.16500 Y0.62020
X1.16400 Y0.62020
X1.16400 Y0.62120
X1.16300 Y0.62120
X1.16300 Y0.62220
X1.16200 Y0.62220
X1.16200 Y0.63720
X1.16100 Y0.63720
X1.16100 Y0.63920
X1.16200 Y0.63920
X1.16200 Y0.64720
X1.16300 Y0.64720
X1.16300 Y0.67420
X1.16200 Y0.67420
X1.16200 Y0.68220
X1.16100 Y0.68220
X1.16100 Y0.68420
X1.16200 Y0.68420
X1.16200 Y0.69220
X1.16100 Y0.69220
X1.16100 Y0.69420
X1.16200 Y0.69420
X1.16200 Y0.69920
X1.16300 Y0.69920
X1.16300 Y0.70020
X1.16400 Y0.70020
X1.16400 Y0.70120
X1.16500 Y0.70120
X1.16500 Y0.70220
X1.16600 Y0.70220
X1.16600 Y0.70320
X1.16700 Y0.70320
X1.16700 Y0.70420
X1.16800 Y0.70420
X1.16800 Y0.70520
X1.16900 Y0.70520
X1.16900 Y0.70620
X1.22900 Y0.70620
X1.22900 Y0.70320
X1.23200 Y0.70320
X1.23200 Y0.70020
X1.23500 Y0.70020
X1.23500 Y0.69720
X1.23800 Y0.69720
X1.23800 Y0.69420
X1.24100 Y0.69420
X1.24100 Y0.69120
X1.24500 Y0.69120
X1.24500 Y0.68620
G04 P0 ( dwell for no time -- G64 should not smooth over this point )
G00 Z0.19685 ( retract )

G00 X2.04500 Y0.68620 ( rapid move to begin. )
G01 Z-0.11417 F43.30709 ( plunge. )
G04 P0 ( dwell for no time -- G64 should not smooth over this point )
X2.04500 Y0.68620
X2.04500 Y0.63020
X2.04400 Y0.63020
X2.04400 Y0.62920
X2.04300 Y0.62920
X2.04300 Y0.62820
X2.04200 Y0.62820
X2.04200 Y0.62720
X2.04100 Y0.62720
X2.04100 Y0.62620
X2.04000 Y0.62620
X2.04000 Y0.62520
X2.03900 Y0.62520
X2.03900 Y0.62420
X2.03800 Y0.62420
X2.03800 Y0.62320
X2.03700 Y0.62320
X2.03700 Y0.62220
X2.03600 Y0.62220
X2.03600 Y0.62120
X2.03500 Y0.62120
X2.03500 Y0.62020
X2.03400 Y0.62020
X2.03400 Y0.61920
X2.03300 Y0.61920
X2.03300 Y0.61820
X2.03200 Y0.61820
X2.03200 Y0.61720
X2.03100 Y0.61720
X2.03100 Y0.61620
X2.03000 Y0.61620
X2.03000 Y0.61520
X1.96900 Y0.61520
X1.96900 Y0.61620
X1.96800 Y0.61620
X1.96800 Y0.61720
X1.96700 Y0.61720
X1.96700 Y0.61820
X1.96600 Y0.61820
X1.96600 Y0.61920
X1.96500 Y0.61920
X1.96500 Y0.62020
X1.96400 Y0.62020
X1.96400 Y0.62120
X1.96300 Y0.62120
X1.96300 Y0.62220
X1.96200 Y0.62220
X1.96200 Y0.62320
X1.96100 Y0.62320
X1.96100 Y0.62420
X1.96000 Y0.62420
X1.96000 Y0.62520
X1.95900 Y0.62520
X1.95900 Y0.62620
X1.95800 Y0.62620
X1.95800 Y0.62720
X1.95700 Y0.62720
X1.95700 Y0.62820
X1.95600 Y0.62820
X1.95600 Y0.62920
X1.95500 Y0.62920
X1.95500 Y0.63020
X1.95400 Y0.63020
X1.95400 Y0.69120
X1.95500 Y0.69120
X1.95500 Y0.69220
X1.95600 Y0.69220
X1.95600 Y0.69320
X1.95700 Y0.69320
X1.95700 Y0.69420
X1.95800 Y0.69420
X1.95800 Y0.69520
X1.95900 Y0.69520
X1.95900 Y0.69620
X1.96000 Y0.69620
X1.96000 Y0.69720
X1.96100 Y0.69720
X1.96100 Y0.69820
X1.96200 Y0.69820
X1.96200 Y0.69920
X1.96300 Y0.69920
X1.96300 Y0.70020
X1.96400 Y0.70020
X1.96400 Y0.70120
X1.96500 Y0.70120
X1.96500 Y0.70220
X1.96600 Y0.70220
X1.96600 Y0.70320
X1.96700 Y0.70320
X1.96700 Y0.70420
X1.96800 Y0.70420
X1.96800 Y0.70520
X1.96900 Y0.70520
X1.96900 Y0.70620
X2.02900 Y0.70620
X2.02900 Y0.70320
X2.03200 Y0.70320
X2.03200 Y0.70020
X2.03500 Y0.70020
X2.03500 Y0.69720
X2.03800 Y0.69720
X2.03800 Y0.69420
X2.04100 Y0.69420
X2.04100 Y0.69120
X2.04500 Y0.69120
X2.04500 Y0.68620
G04 P0 ( dwell for no time -- G64 should not smooth over this point )
G00 Z0.19685 ( retract )

G00 X0.52400 Y0.59020 ( rapid move to begin. )
G01 Z-0.11417 F43.30709 ( plunge. )
G04 P0 ( dwell for no time -- G64 should not smooth over this point )
X0.52400 Y0.59020
X0.52400 Y0.58920
X0.52700 Y0.58920
X0.52700 Y0.58720
X0.52800 Y0.58720
X0.52800 Y0.58220
X0.52900 Y0.58220
X0.52900 Y0.53920
X0.52800 Y0.53920
X0.52800 Y0.53420
X0.52700 Y0.53420
X0.52700 Y0.53020
X0.52600 Y0.53020
X0.52600 Y0.52720
X0.52500 Y0.52720
X0.52500 Y0.52620
X0.52400 Y0.52620
X0.52400 Y0.52520
X0.52300 Y0.52520
X0.52300 Y0.52420
X0.52200 Y0.52420
X0.52200 Y0.52220
X0.52100 Y0.52220
X0.52100 Y0.52120
X0.52000 Y0.52120
X0.52000 Y0.52020
X0.51900 Y0.52020
X0.51900 Y0.51920
X0.51800 Y0.51920
X0.51800 Y0.51720
X0.51600 Y0.51720
X0.51600 Y0.51620
X0.51300 Y0.51620
X0.51300 Y0.51520
X0.51100 Y0.51520
X0.51100 Y0.51420
X0.50900 Y0.51420
X0.50900 Y0.51320
X0.50700 Y0.51320
X0.50700 Y0.51220
X0.50300 Y0.51220
X0.50300 Y0.51120
X0.39600 Y0.51120
X0.39600 Y0.51220
X0.39200 Y0.51220
X0.39200 Y0.51320
X0.39000 Y0.51320
X0.39000 Y0.51420
X0.38800 Y0.51420
X0.38800 Y0.51520
X0.38600 Y0.51520
X0.38600 Y0.51620
X0.38300 Y0.51620
X0.38300 Y0.51720
X0.38100 Y0.51720
X0.38100 Y0.51920
X0.38000 Y0.51920
X0.38000 Y0.52020
X0.37900 Y0.52020
X0.37900 Y0.52120
X0.37800 Y0.52120
X0.37800 Y0.52220
X0.37700 Y0.52220
X0.37700 Y0.52420
X0.37600 Y0.52420
X0.37600 Y0.52520
X0.37500 Y0.52520
X0.37500 Y0.52620
X0.37400 Y0.52620
X0.37400 Y0.52720
X0.37300 Y0.52720
X0.37300 Y0.53020
X0.37200 Y0.53020
X0.37200 Y0.53420
X0.37100 Y0.53420
X0.37100 Y0.53920
X0.37000 Y0.53920
X0.37000 Y0.58220
X0.37100 Y0.58220
X0.37100 Y0.58720
X0.37200 Y0.58720
X0.37200 Y0.59120
X0.37300 Y0.59120
X0.37300 Y0.59420
X0.37400 Y0.59420
X0.37400 Y0.59520
X0.37500 Y0.59520
X0.37500 Y0.59620
X0.37600 Y0.59620
X0.37600 Y0.59720
X0.37700 Y0.59720
X0.37700 Y0.59920
X0.37800 Y0.59920
X0.37800 Y0.60020
X0.37900 Y0.60020
X0.37900 Y0.60120
X0.38000 Y0.60120
X0.38000 Y0.60220
X0.38100 Y0.60220
X0.38100 Y0.60420
X0.38300 Y0.60420
X0.38300 Y0.60520
X0.38600 Y0.60520
X0.38600 Y0.60620
X0.38800 Y0.60620
X0.38800 Y0.60720
