( pcb2gcode 1.1.2 )

( This file uses a mill head of 0.0314961 to drill the 5bit sizes. )

G94     ( Inches per minute feed rate. )
G20     ( Units == INCHES.             )
G90     ( Absolute coordinates.        )
S20000  ( RPM spindle speed.           )

F7.87402
#50=-0.11811 ; zwork
#51=0.19685 ; zsafe
#52=0.00394 ; stepsize
G0 X0.64960 Y0.56010
G1 Z#50
G0 Z#51

G0 X0.44960 Y0.56010
G1 Z#50
G0 Z#51

G0 X1.74960 Y0.51010
G1 Z#50
G0 Z#51

G0 X1.74960 Y0.61010
G1 Z#50
G0 Z#51

G0 X1.74960 Y0.71010
G1 Z#50
G0 Z#51

G0 X1.59985 Y0.76010
G1 Z[#50+30*#52]
G2 I-0.00025 J0
G1 Z[#50+29*#52]
G2 I-0.00025 J0
G1 Z[#50+28*#52]
G2 I-0.00025 J0
G1 Z[#50+27*#52]
G2 I-0.00025 J0
G1 Z[#50+26*#52]
G2 I-0.00025 J0
G1 Z[#50+25*#52]
G2 I-0.00025 J0
G1 Z[#50+24*#52]
G2 I-0.00025 J0
G1 Z[#50+23*#52]
G2 I-0.00025 J0
G1 Z[#50+22*#52]
G2 I-0.00025 J0
G1 Z[#50+21*#52]
G2 I-0.00025 J0
G1 Z[#50+20*#52]
G2 I-0.00025 J0
G1 Z[#50+19*#52]
G2 I-0.00025 J0
G1 Z[#50+18*#52]
G2 I-0.00025 J0
G1 Z[#50+17*#52]
G2 I-0.00025 J0
G1 Z[#50+16*#52]
G2 I-0.00025 J0
G1 Z[#50+15*#52]
G2 I-0.00025 J0
G1 Z[#50+14*#52]
G2 I-0.00025 J0
G1 Z[#50+13*#52]
G2 I-0.00025 J0
G1 Z[#50+12*#52]
G2 I-0.00025 J0
G1 Z[#50+11*#52]
G2 I-0.00025 J0
G1 Z[#50+10*#52]
G2 I-0.00025 J0
G1 Z[#50+9*#52]
G2 I-0.00025 J0
G1 Z[#50+8*#52]
G2 I-0.00025 J0
G1 Z[#50+7*#52]
G2 I-0.00025 J0
G1 Z[#50+6*#52]
G2 I-0.00025 J0
G1 Z[#50+5*#52]
G2 I-0.00025 J0
G1 Z[#50+4*#52]
G2 I-0.00025 J0
G1 Z[#50+3*#52]
G2 I-0.00025 J0
G1 Z[#50+2*#52]
G2 I-0.00025 J0
G1 Z[#50+1*#52]
G2 I-0.00025 J0
G1 Z[#50+0*#52]
G2 I-0.00025 J0
G0 Z0.19685

G0 X1.59985 Y0.86010
G1 Z[#50+30*#52]
G2 I-0.00025 J0
G1 Z[#50+29*#52]
G2 I-0.00025 J0
G1 Z[#50+28*#52]
G2 I-0.00025 J0
G1 Z[#50+27*#52]
G2 I-0.00025 J0
G1 Z[#50+26*#52]
G2 I-0.00025 J0
G1 Z[#50+25*#52]
G2 I-0.00025 J0
G1 Z[#50+24*#52]
G2 I-0.00025 J0
G1 Z[#50+23*#52]
G2 I-0.00025 J0
G1 Z[#50+22*#52]
G2 I-0.00025 J0
G1 Z[#50+21*#52]
G2 I-0.00025 J0
G1 Z[#50+20*#52]
G2 I-0.00025 J0
G1 Z[#50+19*#52]
G2 I-0.00025 J0
G1 Z[#50+18*#52]
G2 I-0.00025 J0
G1 Z[#50+17*#52]
G2 I-0.00025 J0
G1 Z[#50+16*#52]
G2 I-0.00025 J0
G1 Z[#50+15*#52]
G2 I-0.00025 J0
G1 Z[#50+14*#52]
G2 I-0.00025 J0
G1 Z[#50+13*#52]
G2 I-0.00025 J0
G1 Z[#50+12*#52]
G2 I-0.00025 J0
G1 Z[#50+11*#52]
G2 I-0.00025 J0
G1 Z[#50+10*#52]
G2 I-0.00025 J0
G1 Z[#50+9*#52]
G2 I-0.00025 J0
G1 Z[#50+8*#52]
G2 I-0.00025 J0
G1 Z[#50+7*#52]
G2 I-0.00025 J0
G1 Z[#50+6*#52]
G2 I-0.00025 J0
G1 Z[#50+5*#52]
G2 I-0.00025 J0
G1 Z[#50+4*#52]
G2 I-0.00025 J0
G1 Z[#50+3*#52]
G2 I-0.00025 J0
G1 Z[#50+2*#52]
G2 I-0.00025 J0
G1 Z[#50+1*#52]
G2 I-0.00025 J0
G1 Z[#50+0*#52]
G2 I-0.00025 J0
G0 Z0.19685

G0 X1.59985 Y0.96010
G1 Z[#50+30*#52]
G2 I-0.00025 J0
G1 Z[#50+29*#52]
G2 I-0.00025 J0
G1 Z[#50+28*#52]
G2 I-0.00025 J0
G1 Z[#50+27*#52]
G2 I-0.00025 J0
G1 Z[#50+26*#52]
G2 I-0.00025 J0
G1 Z[#50+25*#52]
G2 I-0.00025 J0
G1 Z[#50+24*#52]
G2 I-0.00025 J0
G1 Z[#50+23*#52]
G2 I-0.00025 J0
G1 Z[#50+22*#52]
G2 I-0.00025 J0
G1 Z[#50+21*#52]
G2 I-0.00025 J0
G1 Z[#50+20*#52]
G2 I-0.00025 J0
G1 Z[#50+19*#52]
G2 I-0.00025 J0
G1 Z[#50+18*#52]
G2 I-0.00025 J0
G1 Z[#50+17*#52]
G2 I-0.00025 J0
G1 Z[#50+16*#52]
G2 I-0.00025 J0
G1 Z[#50+15*#52]
G2 I-0.00025 J0
G1 Z[#50+14*#52]
G2 I-0.00025 J0
G1 Z[#50+13*#52]
G2 I-0.00025 J0
G1 Z[#50+12*#52]
G2 I-0.00025 J0
G1 Z[#50+11*#52]
G2 I-0.00025 J0
G1 Z[#50+10*#52]
G2 I-0.00025 J0
G1 Z[#50+9*#52]
G2 I-0.00025 J0
G1 Z[#50+8*#52]
G2 I-0.00025 J0
G1 Z[#50+7*#52]
G2 I-0.00025 J0
G1 Z[#50+6*#52]
G2 I-0.00025 J0
G1 Z[#50+5*#52]
G2 I-0.00025 J0
G1 Z[#50+4*#52]
G2 I-0.00025 J0
G1 Z[#50+3*#52]
G2 I-0.00025 J0
G1 Z[#50+2*#52]
G2 I-0.00025 J0
G1 Z[#50+1*#52]
G2 I-0.00025 J0
G1 Z[#50+0*#52]
G2 I-0.00025 J0
G0 Z0.19685

G0 X1.59985 Y1.06010
G1 Z[#50+30*#52]
G2 I-0.00025 J0
G1 Z[#50+29*#52]
G2 I-0.00025 J0
G1 Z[#50+28*#52]
G2 I-0.00025 J0
G1 Z[#50+27*#52]
G2 I-0.00025 J0
G1 Z[#50+26*#52]
G2 I-0.00025 J0
G1 Z[#50+25*#52]
G2 I-0.00025 J0
G1 Z[#50+24*#52]
G2 I-0.00025 J0
G1 Z[#50+23*#52]
G2 I-0.00025 J0
G1 Z[#50+22*#52]
G2 I-0.00025 J0
G1 Z[#50+21*#52]
G2 I-0.00025 J0
G1 Z[#50+20*#52]
G2 I-0.00025 J0
G1 Z[#50+19*#52]
G2 I-0.00025 J0
G1 Z[#50+18*#52]
G2 I-0.00025 J0
G1 Z[#50+17*#52]
G2 I-0.00025 J0
G1 Z[#50+16*#52]
G2 I-0.00025 J0
G1 Z[#50+15*#52]
G2 I-0.00025 J0
G1 Z[#50+14*#52]
G2 I-0.00025 J0
G1 Z[#50+13*#52]
G2 I-0.00025 J0
G1 Z[#50+12*#52]
G2 I-0.00025 J0
G1 Z[#50+11*#52]
G2 I-0.00025 J0
G1 Z[#50+10*#52]
G2 I-0.00025 J0
G1 Z[#50+9*#52]
G2 I-0.00025 J0
G1 Z[#50+8*#52]
G2 I-0.00025 J0
G1 Z[#50+7*#52]
G2 I-0.00025 J0
G1 Z[#50+6*#52]
G2 I-0.00025 J0
G1 Z[#50+5*#52]
G2 I-0.00025 J0
G1 Z[#50+4*#52]
G2 I-0.00025 J0
G1 Z[#50+3*#52]
G2 I-0.00025 J0
G1 Z[#50+2*#52]
G2 I-0.00025 J0
G1 Z[#50+1*#52]
G2 I-0.00025 J0
G1 Z[#50+0*#52]
G2 I-0.00025 J0
G0 Z0.19685

G0 X1.59985 Y1.16010
G1 Z[#50+30*#52]
G2 I-0.00025 J0
G1 Z[#50+29*#52]
G2 I-0.00025 J0
G1 Z[#50+28*#52]
G2 I-0.00025 J0
G1 Z[#50+27*#52]
G2 I-0.00025 J0
G1 Z[#50+26*#52]
G2 I-0.00025 J0
G1 Z[#50+25*#52]
G2 I-0.00025 J0
G1 Z[#50+24*#52]
G2 I-0.00025 J0
G1 Z[#50+23*#52]
G2 I-0.00025 J0
G1 Z[#50+22*#52]
G2 I-0.00025 J0
G1 Z[#50+21*#52]
G2 I-0.00025 J0
G1 Z[#50+20*#52]
G2 I-0.00025 J0
G1 Z[#50+19*#52]
G2 I-0.00025 J0
G1 Z[#50+18*#52]
G2 I-0.00025 J0
G1 Z[#50+17*#52]
G2 I-0.00025 J0
G1 Z[#50+16*#52]
G2 I-0.00025 J0
G1 Z[#50+15*#52]
G2 I-0.00025 J0
G1 Z[#50+14*#52]
G2 I-0.00025 J0
G1 Z[#50+13*#52]
G2 I-0.00025 J0
G1 Z[#50+12*#52]
G2 I-0.00025 J0
G1 Z[#50+11*#52]
G2 I-0.00025 J0
G1 Z[#50+10*#52]
G2 I-0.00025 J0
G1 Z[#50+9*#52]
G2 I-0.00025 J0
G1 Z[#50+8*#52]
G2 I-0.00025 J0
G1 Z[#50+7*#52]
G2 I-0.00025 J0
G1 Z[#50+6*#52]
G2 I-0.00025 J0
G1 Z[#50+5*#52]
G2 I-0.00025 J0
G1 Z[#50+4*#52]
G2 I-0.00025 J0
G1 Z[#50+3*#52]
G2 I-0.00025 J0
G1 Z[#50+2*#52]
G2 I-0.00025 J0
G1 Z[#50+1*#52]
G2 I-0.00025 J0
G1 Z[#50+0*#52]
G2 I-0.00025 J0
G0 Z0.19685

G0 X1.69985 Y1.16010
G1 Z[#50+30*#52]
G2 I-0.00025 J0
G1 Z[#50+29*#52]
G2 I-0.00025 J0
G1 Z[#50+28*#52]
G2 I-0.00025 J0
G1 Z[#50+27*#52]
G2 I-0.00025 J0
G1 Z[#50+26*#52]
G2 I-0.00025 J0
G1 Z[#50+25*#52]
G2 I-0.00025 J0
G1 Z[#50+24*#52]
G2 I-0.00025 J0
G1 Z[#50+23*#52]
G2 I-0.00025 J0
G1 Z[#50+22*#52]
G2 I-0.00025 J0
G1 Z[#50+21*#52]
G2 I-0.00025 J0
G1 Z[#50+20*#52]
G2 I-0.00025 J0
G1 Z[#50+19*#52]
G2 I-0.00025 J0
G1 Z[#50+18*#52]
G2 I-0.00025 J0
G1 Z[#50+17*#52]
G2 I-0.00025 J0
G1 Z[#50+16*#52]
G2 I-0.00025 J0
G1 Z[#50+15*#52]
G2 I-0.00025 J0
G1 Z[#50+14*#52]
G2 I-0.00025 J0
G1 Z[#50+13*#52]
G2 I-0.00025 J0
G1 Z[#50+12*#52]
G2 I-0.00025 J0
G1 Z[#50+11*#52]
G2 I-0.00025 J0
G1 Z[#50+10*#52]
G2 I-0.00025 J0
G1 Z[#50+9*#52]
G2 I-0.00025 J0
G1 Z[#50+8*#52]
G2 I-0.00025 J0
G1 Z[#50+7*#52]
G2 I-0.00025 J0
G1 Z[#50+6*#52]
G2 I-0.00025 J0
G1 Z[#50+5*#52]
G2 I-0.00025 J0
G1 Z[#50+4*#52]
G2 I-0.00025 J0
G1 Z[#50+3*#52]
G2 I-0.00025 J0
G1 Z[#50+2*#52]
G2 I-0.00025 J0
G1 Z[#50+1*#52]
G2 I-0.00025 J0
G1 Z[#50+0*#52]
G2 I-0.00025 J0
G0 Z0.19685

G0 X1.59985 Y1.26010
G1 Z[#50+30*#52]
G2 I-0.00025 J0
G1 Z[#50+29*#52]
G2 I-0.00025 J0
G1 Z[#50+28*#52]
G2 I-0.00025 J0
G1 Z[#50+27*#52]
G2 I-0.00025 J0
G1 Z[#50+26*#52]
G2 I-0.00025 J0
G1 Z[#50+25*#52]
G2 I-0.00025 J0
G1 Z[#50+24*#52]
G2 I-0.00025 J0
G1 Z[#50+23*#52]
G2 I-0.00025 J0
G1 Z[#50+22*#52]
G2 I-0.00025 J0
G1 Z[#50+21*#52]
G2 I-0.00025 J0
G1 Z[#50+20*#52]
G2 I-0.00025 J0
G1 Z[#50+19*#52]
G2 I-0.00025 J0
G1 Z[#50+18*#52]
G2 I-0.00025 J0
G1 Z[#50+17*#52]
G2 I-0.00025 J0
G1 Z[#50+16*#52]
G2 I-0.00025 J0
G1 Z[#50+15*#52]
G2 I-0.00025 J0
G1 Z[#50+14*#52]
G2 I-0.00025 J0
G1 Z[#50+13*#52]
G2 I-0.00025 J0
G1 Z[#50+12*#52]
G2 I-0.00025 J0
G1 Z[#50+11*#52]
G2 I-0.00025 J0
G1 Z[#50+10*#52]
G2 I-0.00025 J0
G1 Z[#50+9*#52]
G2 I-0.00025 J0
G1 Z[#50+8*#52]
G2 I-0.00025 J0
G1 Z[#50+7*#52]
G2 I-0.00025 J0
G1 Z[#50+6*#52]
G2 I-0.00025 J0
G1 Z[#50+5*#52]
G2 I-0.00025 J0
G1 Z[#50+4*#52]
G2 I-0.00025 J0
G1 Z[#50+3*#52]
G2 I-0.00025 J0
G1 Z[#50+2*#52]
G2 I-0.00025 J0
G1 Z[#50+1*#52]
G2 I-0.00025 J0
G1 Z[#50+0*#52]
G2 I-0.00025 J0
G0 Z0.19685

G0 X1.59985 Y1.36010
G1 Z[#50+30*#52]
G2 I-0.00025 J0
G1 Z[#50+29*#52]
G2 I-0.00025 J0
G1 Z[#50+28*#52]
G2 I-0.00025 J0
G1 Z[#50+27*#52]
G2 I-0.00025 J0
G1 Z[#50+26*#52]
G2 I-0.00025 J0
G1 Z[#50+25*#52]
G2 I-0.00025 J0
G1 Z[#50+24*#52]
G2 I-0.00025 J0
G1 Z[#50+23*#52]
G2 I-0.00025 J0
G1 Z[#50+22*#52]
G2 I-0.00025 J0
G1 Z[#50+21*#52]
G2 I-0.00025 J0
G1 Z[#50+20*#52]
G2 I-0.00025 J0
G1 Z[#50+19*#52]
G2 I-0.00025 J0
G1 Z[#50+18*#52]
G2 I-0.00025 J0
G1 Z[#50+17*#52]
G2 I-0.00025 J0
G1 Z[#50+16*#52]
G2 I-0.00025 J0
G1 Z[#50+15*#52]
G2 I-0.00025 J0
G1 Z[#50+14*#52]
G2 I-0.00025 J0
G1 Z[#50+13*#52]
G2 I-0.00025 J0
G1 Z[#50+12*#52]
G2 I-0.00025 J0
G1 Z[#50+11*#52]
G2 I-0.00025 J0
G1 Z[#50+10*#52]
G2 I-0.00025 J0
G1 Z[#50+9*#52]
G2 I-0.00025 J0
G1 Z[#50+8*#52]
G2 I-0.00025 J0
G1 Z[#50+7*#52]
G2 I-0.00025 J0
G1 Z[#50+6*#52]
G2 I-0.00025 J0
G1 Z[#50+5*#52]
G2 I-0.00025 J0
G1 Z[#50+4*#52]
G2 I-0.00025 J0
G1 Z[#50+3*#52]
G2 I-0.00025 J0
G1 Z[#50+2*#52]
G2 I-0.00025 J0
G1 Z[#50+1*#52]
G2 I-0.00025 J0
G1 Z[#50+0*#52]
G2 I-0.00025 J0
G0 Z0.19685

G0 X1.59985 Y1.46010
G1 Z[#50+30*#52]
G2 I-0.00025 J0
G1 Z[#50+29*#52]
G2 I-0.00025 J0
G1 Z[#50+28*#52]
G2 I-0.00025 J0
G1 Z[#50+27*#52]
G2 I-0.00025 J0
G1 Z[#50+26*#52]
G2 I-0.00025 J0
G1 Z[#50+25*#52]
G2 I-0.00025 J0
G1 Z[#50+24*#52]
G2 I-0.00025 J0
G1 Z[#50+23*#52]
G2 I-0.00025 J0
G1 Z[#50+22*#52]
G2 I-0.00025 J0
G1 Z[#50+21*#52]
G2 I-0.00025 J0
G1 Z[#50+20*#52]
G2 I-0.00025 J0
G1 Z[#50+19*#52]
G2 I-0.00025 J0
G1 Z[#50+18*#52]
G2 I-0.00025 J0
G1 Z[#50+17*#52]
G2 I-0.00025 J0
G1 Z[#50+16*#52]
G2 I-0.00025 J0
G1 Z[#50+15*#52]
G2 I-0.00025 J0
G1 Z[#50+14*#52]
G2 I-0.00025 J0
G1 Z[#50+13*#52]
G2 I-0.00025 J0
G1 Z[#50+12*#52]
G2 I-0.00025 J0
G1 Z[#50+11*#52]
G2 I-0.00025 J0
G1 Z[#50+10*#52]
G2 I-0.00025 J0
G1 Z[#50+9*#52]
G2 I-0.00025 J0
G1 Z[#50+8*#52]
G2 I-0.00025 J0
G1 Z[#50+7*#52]
G2 I-0.00025 J0
G1 Z[#50+6*#52]
G2 I-0.00025 J0
G1 Z[#50+5*#52]
G2 I-0.00025 J0
G1 Z[#50+4*#52]
G2 I-0.00025 J0
G1 Z[#50+3*#52]
G2 I-0.00025 J0
G1 Z[#50+2*#52]
G2 I-0.00025 J0
G1 Z[#50+1*#52]
G2 I-0.00025 J0
G1 Z[#50+0*#52]
G2 I-0.00025 J0
G0 Z0.19685

G0 X1.69985 Y1.46010
G1 Z[#50+30*#52]
G2 I-0.00025 J0
G1 Z[#50+29*#52]
G2 I-0.00025 J0
G1 Z[#50+28*#52]
G2 I-0.00025 J0
G1 Z[#50+27*#52]
G2 I-0.00025 J0
G1 Z[#50+26*#52]
G2 I-0.00025 J0
G1 Z[#50+25*#52]
G2 I-0.00025 J0
G1 Z[#50+24*#52]
G2 I-0.00025 J0
G1 Z[#50+23*#52]
G2 I-0.00025 J0
G1 Z[#50+22*#52]
G2 I-0.00025 J0
G1 Z[#50+21*#52]
G2 I-0.00025 J0
G1 Z[#50+20*#52]
G2 I-0.00025 J0
G1 Z[#50+19*#52]
G2 I-0.00025 J0
G1 Z[#50+18*#52]
G2 I-0.00025 J0
G1 Z[#50+17*#52]
G2 I-0.00025 J0
G1 Z[#50+16*#52]
G2 I-0.00025 J0
G1 Z[#50+15*#52]
G2 I-0.00025 J0
G1 Z[#50+14*#52]
G2 I-0.00025 J0
G1 Z[#50+13*#52]
G2 I-0.00025 J0
G1 Z[#50+12*#52]
G2 I-0.00025 J0
G1 Z[#50+11*#52]
G2 I-0.00025 J0
G1 Z[#50+10*#52]
G2 I-0.00025 J0
G1 Z[#50+9*#52]
G2 I-0.00025 J0
G1 Z[#50+8*#52]
G2 I-0.00025 J0
G1 Z[#50+7*#52]
G2 I-0.00025 J0
G1 Z[#50+6*#52]
G2 I-0.00025 J0
G1 Z[#50+5*#52]
G2 I-0.00025 J0
G1 Z[#50+4*#52]
G2 I-0.00025 J0
G1 Z[#50+3*#52]
G2 I-0.00025 J0
G1 Z[#50+2*#52]
G2 I-0.00025 J0
G1 Z[#50+1*#52]
G2 I-0.00025 J0
G1 Z[#50+0*#52]
G2 I-0.00025 J0
G0 Z0.19685

G0 X1.29985 Y1.46010
G1 Z[#50+30*#52]
G2 I-0.00025 J0
G1 Z[#50+29*#52]
G2 I-0.00025 J0
G1 Z[#50+28*#52]
G2 I-0.00025 J0
G1 Z[#50+27*#52]
G2 I-0.00025 J0
G1 Z[#50+26*#52]
G2 I-0.00025 J0
G1 Z[#50+25*#52]
G2 I-0.00025 J0
G1 Z[#50+24*#52]
G2 I-0.00025 J0
G1 Z[#50+23*#52]
G2 I-0.00025 J0
G1 Z[#50+22*#52]
G2 I-0.00025 J0
G1 Z[#50+21*#52]
G2 I-0.00025 J0
G1 Z[#50+20*#52]
G2 I-0.00025 J0
G1 Z[#50+19*#52]
G2 I-0.00025 J0
G1 Z[#50+18*#52]
G2 I-0.00025 J0
G1 Z[#50+17*#52]
G2 I-0.00025 J0
G1 Z[#50+16*#52]
G2 I-0.00025 J0
G1 Z[#50+15*#52]
G2 I-0.00025 J0
G1 Z[#50+14*#52]
G2 I-0.00025 J0
G1 Z[#50+13*#52]
G2 I-0.00025 J0
G1 Z[#50+12*#52]
G2 I-0.00025 J0
G1 Z[#50+11*#52]
G2 I-0.00025 J0
G1 Z[#50+10*#52]
G2 I-0.00025 J0
G1 Z[#50+9*#52]
G2 I-0.00025 J0
G1 Z[#50+8*#52]
G2 I-0.00025 J0
G1 Z[#50+7*#52]
G2 I-0.00025 J0
G1 Z[#50+6*#52]
G2 I-0.00025 J0
G1 Z[#50+5*#52]
G2 I-0.00025 J0
G1 Z[#50+4*#52]
G2 I-0.00025 J0
G1 Z[#50+3*#52]
G2 I-0.00025 J0
G1 Z[#50+2*#52]
G2 I-0.00025 J0
G1 Z[#50+1*#52]
G2 I-0.00025 J0
G1 Z[#50+0*#52]
G2 I-0.00025 J0
G0 Z0.19685

G0 X1.29985 Y1.36010
G1 Z[#50+30*#52]
G2 I-0.00025 J0
G1 Z[#50+29*#52]
G2 I-0.00025 J0
G1 Z[#50+28*#52]
G2 I-0.00025 J0
G1 Z[#50+27*#52]
G2 I-0.00025 J0
G1 Z[#50+26*#52]
G2 I-0.00025 J0
G1 Z[#50+25*#52]
G2 I-0.00025 J0
G1 Z[#50+24*#52]
G2 I-0.00025 J0
G1 Z[#50+23*#52]
G2 I-0.00025 J0
G1 Z[#50+22*#52]
G2 I-0.00025 J0
G1 Z[#50+21*#52]
G2 I-0.00025 J0
G1 Z[#50+20*#52]
G2 I-0.00025 J0
G1 Z[#50+19*#52]
G2 I-0.00025 J0
G1 Z[#50+18*#52]
G2 I-0.00025 J0
G1 Z[#50+17*#52]
G2 I-0.00025 J0
G1 Z[#50+16*#52]
G2 I-0.00025 J0
G1 Z[#50+15*#52]
G2 I-0.00025 J0
G1 Z[#50+14*#52]
G2 I-0.00025 J0
G1 Z[#50+13*#52]
G2 I-0.00025 J0
G1 Z[#50+12*#52]
G2 I-0.00025 J0
G1 Z[#50+11*#52]
G2 I-0.00025 J0
G1 Z[#50+10*#52]
G2 I-0.00025 J0
G1 Z[#50+9*#52]
G2 I-0.00025 J0
G1 Z[#50+8*#52]
G2 I-0.00025 J0
G1 Z[#50+7*#52]
G2 I-0.00025 J0
G1 Z[#50+6*#52]
G2 I-0.00025 J0
G1 Z[#50+5*#52]
G2 I-0.00025 J0
G1 Z[#50+4*#52]
G2 I-0.00025 J0
G1 Z[#50+3*#52]
G2 I-0.00025 J0
G1 Z[#50+2*#52]
G2 I-0.00025 J0
G1 Z[#50+1*#52]
G2 I-0.00025 J0
G1 Z[#50+0*#52]
G2 I-0.00025 J0
G0 Z0.19685

G0 X1.29985 Y1.26010
G1 Z[#50+30*#52]
G2 I-0.00025 J0
G1 Z[#50+29*#52]
G2 I-0.00025 J0
G1 Z[#50+28*#52]
G2 I-0.00025 J0
G1 Z[#50+27*#52]
G2 I-0.00025 J0
G1 Z[#50+26*#52]
G2 I-0.00025 J0
G1 Z[#50+25*#52]
G2 I-0.00025 J0
G1 Z[#50+24*#52]
G2 I-0.00025 J0
G1 Z[#50+23*#52]
G2 I-0.00025 J0
G1 Z[#50+22*#52]
G2 I-0.00025 J0
G1 Z[#50+21*#52]
G2 I-0.00025 J0
G1 Z[#50+20*#52]
G2 I-0.00025 J0
G1 Z[#50+19*#52]
G2 I-0.00025 J0
G1 Z[#50+18*#52]
G2 I-0.00025 J0
G1 Z[#50+17*#52]
G2 I-0.00025 J0
G1 Z[#50+16*#52]
G2 I-0.00025 J0
G1 Z[#50+15*#52]
G2 I-0.00025 J0
G1 Z[#50+14*#52]
G2 I-0.00025 J0
G1 Z[#50+13*#52]
G2 I-0.00025 J0
G1 Z[#50+12*#52]
G2 I-0.00025 J0
G1 Z[#50+11*#52]
G2 I-0.00025 J0
G1 Z[#50+10*#52]
G2 I-0.00025 J0
G1 Z[#50+9*#52]
G2 I-0.00025 J0
G1 Z[#50+8*#52]
G2 I-0.00025 J0
G1 Z[#50+7*#52]
G2 I-0.00025 J0
G1 Z[#50+6*#52]
G2 I-0.00025 J0
G1 Z[#50+5*#52]
G2 I-0.00025 J0
G1 Z[#50+4*#52]
G2 I-0.00025 J0
G1 Z[#50+3*#52]
G2 I-0.00025 J0
G1 Z[#50+2*#52]
G2 I-0.00025 J0
G1 Z[#50+1*#52]
G2 I-0.00025 J0
G1 Z[#50+0*#52]
G2 I-0.00025 J0
G0 Z0.19685

G0 X1.29985 Y1.16010
G1 Z[#50+30*#52]
G2 I-0.00025 J0
G1 Z[#50+29*#52]
G2 I-0.00025 J0
G1 Z[#50+28*#52]
G2 I-0.00025 J0
G1 Z[#50+27*#52]
G2 I-0.00025 J0
G1 Z[#50+26*#52]
G2 I-0.00025 J0
G1 Z[#50+25*#52]
G2 I-0.00025 J0
G1 Z[#50+24*#52]
G2 I-0.00025 J0
G1 Z[#50+23*#52]
G2 I-0.00025 J0
G1 Z[#50+22*#52]
G2 I-0.00025 J0
G1 Z[#50+21*#52]
G2 I-0.00025 J0
G1 Z[#50+20*#52]
G2 I-0.00025 J0
G1 Z[#50+19*#52]
G2 I-0.00025 J0
G1 Z[#50+18*#52]
G2 I-0.00025 J0
G1 Z[#50+17*#52]
G2 I-0.00025 J0
G1 Z[#50+16*#52]
G2 I-0.00025 J0
G1 Z[#50+15*#52]
G2 I-0.00025 J0
G1 Z[#50+14*#52]
G2 I-0.00025 J0
G1 Z[#50+13*#52]
G2 I-0.00025 J0
G1 Z[#50+12*#52]
G2 I-0.00025 J0
G1 Z[#50+11*#52]
G2 I-0.00025 J0
G1 Z[#50+10*#52]
G2 I-0.00025 J0
G1 Z[#50+9*#52]
G2 I-0.00025 J0
G1 Z[#50+8*#52]
G2 I-0.00025 J0
G1 Z[#50+7*#52]
G2 I-0.00025 J0
G1 Z[#50+6*#52]
G2 I-0.00025 J0
G1 Z[#50+5*#52]
G2 I-0.00025 J0
G1 Z[#50+4*#52]
G2 I-0.00025 J0
G1 Z[#50+3*#52]
G2 I-0.00025 J0
G1 Z[#50+2*#52]
G2 I-0.00025 J0
G1 Z[#50+1*#52]
G2 I-0.00025 J0
G1 Z[#50+0*#52]
G2 I-0.00025 J0
G0 Z0.19685

G0 X1.29985 Y1.06010
G1 Z[#50+30*#52]
G2 I-0.00025 J0
G1 Z[#50+29*#52]
G2 I-0.00025 J0
G1 Z[#50+28*#52]
G2 I-0.00025 J0
G1 Z[#50+27*#52]
G2 I-0.00025 J0
G1 Z[#50+26*#52]
G2 I-0.00025 J0
G1 Z[#50+25*#52]
G2 I-0.00025 J0
G1 Z[#50+24*#52]
G2 I-0.00025 J0
G1 Z[#50+23*#52]
G2 I-0.00025 J0
G1 Z[#50+22*#52]
G2 I-0.00025 J0
G1 Z[#50+21*#52]
G2 I-0.00025 J0
G1 Z[#50+20*#52]
G2 I-0.00025 J0
G1 Z[#50+19*#52]
G2 I-0.00025 J0
G1 Z[#50+18*#52]
G2 I-0.00025 J0
G1 Z[#50+17*#52]
G2 I-0.00025 J0
G1 Z[#50+16*#52]
G2 I-0.00025 J0
G1 Z[#50+15*#52]
G2 I-0.00025 J0
G1 Z[#50+14*#52]
G2 I-0.00025 J0
G1 Z[#50+13*#52]
G2 I-0.00025 J0
G1 Z[#50+12*#52]
G2 I-0.00025 J0
G1 Z[#50+11*#52]
G2 I-0.00025 J0
G1 Z[#50+10*#52]
G2 I-0.00025 J0
G1 Z[#50+9*#52]
G2 I-0.00025 J0
G1 Z[#50+8*#52]
G2 I-0.00025 J0
G1 Z[#50+7*#52]
G2 I-0.00025 J0
G1 Z[#50+6*#52]
G2 I-0.00025 J0
G1 Z[#50+5*#52]
G2 I-0.00025 J0
G1 Z[#50+4*#52]
G2 I-0.00025 J0
G1 Z[#50+3*#52]
G2 I-0.00025 J0
G1 Z[#50+2*#52]
G2 I-0.00025 J0
G1 Z[#50+1*#52]
G2 I-0.00025 J0
G1 Z[#50+0*#52]
G2 I-0.00025 J0
G0 Z0.19685

G0 X1.29985 Y0.96010
G1 Z[#50+30*#52]
G2 I-0.00025 J0
G1 Z[#50+29*#52]
G2 I-0.00025 J0
G1 Z[#50+28*#52]
G2 I-0.00025 J0
G1 Z[#50+27*#52]
G2 I-0.00025 J0
G1 Z[#50+26*#52]
G2 I-0.00025 J0
G1 Z[#50+25*#52]
G2 I-0.00025 J0
G1 Z[#50+24*#52]
G2 I-0.00025 J0
G1 Z[#50+23*#52]
G2 I-0.00025 J0
G1 Z[#50+22*#52]
G2 I-0.00025 J0
G1 Z[#50+21*#52]
G2 I-0.00025 J0
G1 Z[#50+20*#52]
G2 I-0.00025 J0
G1 Z[#50+19*#52]
G2 I-0.00025 J0
G1 Z[#50+18*#52]
G2 I-0.00025 J0
G1 Z[#50+17*#52]
G2 I-0.00025 J0
G1 Z[#50+16*#52]
G2 I-0.00025 J0
G1 Z[#50+15*#52]
G2 I-0.00025 J0
G1 Z[#50+14*#52]
G2 I-0.00025 J0
G1 Z[#50+13*#52]
G2 I-0.00025 J0
G1 Z[#50+12*#52]
G2 I-0.00025 J0
G1 Z[#50+11*#52]
G2 I-0.00025 J0
G1 Z[#50+10*#52]
G2 I-0.00025 J0
G1 Z[#50+9*#52]
G2 I-0.00025 J0
G1 Z[#50+8*#52]
G2 I-0.00025 J0
G1 Z[#50+7*#52]
G2 I-0.00025 J0
G1 Z[#50+6*#52]
G2 I-0.00025 J0
G1 Z[#50+5*#52]
G2 I-0.00025 J0
G1 Z[#50+4*#52]
G2 I-0.00025 J0
G1 Z[#50+3*#52]
G2 I-0.00025 J0
G1 Z[#50+2*#52]
G2 I-0.00025 J0
G1 Z[#50+1*#52]
G2 I-0.00025 J0
G1 Z[#50+0*#52]
G2 I-0.00025 J0
G0 Z0.19685

G0 X1.29985 Y0.86010
G1 Z[#50+30*#52]
G2 I-0.00025 J0
G1 Z[#50+29*#52]
G2 I-0.00025 J0
G1 Z[#50+28*#52]
G2 I-0.00025 J0
G1 Z[#50+27*#52]
G2 I-0.00025 J0
G1 Z[#50+26*#52]
G2 I-0.00025 J0
G1 Z[#50+25*#52]
G2 I-0.00025 J0
G1 Z[#50+24*#52]
G2 I-0.00025 J0
G1 Z[#50+23*#52]
G2 I-0.00025 J0
G1 Z[#50+22*#52]
G2 I-0.00025 J0
G1 Z[#50+21*#52]
G2 I-0.00025 J0
G1 Z[#50+20*#52]
G2 I-0.00025 J0
G1 Z[#50+19*#52]
G2 I-0.00025 J0
G1 Z[#50+18*#52]
G2 I-0.00025 J0
G1 Z[#50+17*#52]
G2 I-0.00025 J0
G1 Z[#50+16*#52]
G2 I-0.00025 J0
G1 Z[#50+15*#52]
G2 I-0.00025 J0
G1 Z[#50+14*#52]
G2 I-0.00025 J0
G1 Z[#50+13*#52]
G2 I-0.00025 J0
G1 Z[#50+12*#52]
G2 I-0.00025 J0
G1 Z[#50+11*#52]
G2 I-0.00025 J0
G1 Z[#50+10*#52]
G2 I-0.00025 J0
G1 Z[#50+9*#52]
G2 I-0.00025 J0
G1 Z[#50+8*#52]
G2 I-0.00025 J0
G1 Z[#50+7*#52]
G2 I-0.00025 J0
G1 Z[#50+6*#52]
G2 I-0.00025 J0
G1 Z[#50+5*#52]
G2 I-0.00025 J0
G1 Z[#50+4*#52]
G2 I-0.00025 J0
G1 Z[#50+3*#52]
G2 I-0.00025 J0
G1 Z[#50+2*#52]
G2 I-0.00025 J0
G1 Z[#50+1*#52]
G2 I-0.00025 J0
G1 Z[#50+0*#52]
G2 I-0.00025 J0
G0 Z0.19685

G0 X1.19985 Y0.86010
G1 Z[#50+30*#52]
G2 I-0.00025 J0
G1 Z[#50+29*#52]
G2 I-0.00025 J0
G1 Z[#50+28*#52]
G2 I-0.00025 J0
G1 Z[#50+27*#52]
G2 I-0.00025 J0
G1 Z[#50+26*#52]
G2 I-0.00025 J0
G1 Z[#50+25*#52]
G2 I-0.00025 J0
G1 Z[#50+24*#52]
G2 I-0.00025 J0
G1 Z[#50+23*#52]
G2 I-0.00025 J0
G1 Z[#50+22*#52]
G2 I-0.00025 J0
G1 Z[#50+21*#52]
G2 I-0.00025 J0
G1 Z[#50+20*#52]
G2 I-0.00025 J0
G1 Z[#50+19*#52]
G2 I-0.00025 J0
G1 Z[#50+18*#52]
G2 I-0.00025 J0
G1 Z[#50+17*#52]
G2 I-0.00025 J0
G1 Z[#50+16*#52]
G2 I-0.00025 J0
G1 Z[#50+15*#52]
G2 I-0.00025 J0
G1 Z[#50+14*#52]
G2 I-0.00025 J0
G1 Z[#50+13*#52]
G2 I-0.00025 J0
G1 Z[#50+12*#52]
G2 I-0.00025 J0
G1 Z[#50+11*#52]
G2 I-0.00025 J0
G1 Z[#50+10*#52]
G2 I-0.00025 J0
G1 Z[#50+9*#52]
G2 I-0.00025 J0
G1 Z[#50+8*#52]
G2 I-0.00025 J0
G1 Z[#50+7*#52]
G2 I-0.00025 J0
G1 Z[#50+6*#52]
G2 I-0.00025 J0
G1 Z[#50+5*#52]
G2 I-0.00025 J0
G1 Z[#50+4*#52]
G2 I-0.00025 J0
G1 Z[#50+3*#52]
G2 I-0.00025 J0
G1 Z[#50+2*#52]
G2 I-0.00025 J0
G1 Z[#50+1*#52]
G2 I-0.00025 J0
G1 Z[#50+0*#52]
G2 I-0.00025 J0
G0 Z0.19685

G0 X1.19985 Y0.76010
G1 Z[#50+30*#52]
G2 I-0.00025 J0
G1 Z[#50+29*#52]
G2 I-0.00025 J0
G1 Z[#50+28*#52]
G2 I-0.00025 J0
G1 Z[#50+27*#52]
G2 I-0.00025 J0
G1 Z[#50+26*#52]
G2 I-0.00025 J0
G1 Z[#50+25*#52]
G2 I-0.00025 J0
G1 Z[#50+24*#52]
G2 I-0.00025 J0
G1 Z[#50+23*#52]
G2 I-0.00025 J0
G1 Z[#50+22*#52]
G2 I-0.00025 J0
G1 Z[#50+21*#52]
G2 I-0.00025 J0
G1 Z[#50+20*#52]
G2 I-0.00025 J0
G1 Z[#50+19*#52]
G2 I-0.00025 J0
G1 Z[#50+18*#52]
G2 I-0.00025 J0
G1 Z[#50+17*#52]
G2 I-0.00025 J0
G1 Z[#50+16*#52]
G2 I-0.00025 J0
G1 Z[#50+15*#52]
G2 I-0.00025 J0
G1 Z[#50+14*#52]
G2 I-0.00025 J0
G1 Z[#50+13*#52]
G2 I-0.00025 J0
G1 Z[#50+12*#52]
G2 I-0.00025 J0
G1 Z[#50+11*#52]
G2 I-0.00025 J0
G1 Z[#50+10*#52]
G2 I-0.00025 J0
G1 Z[#50+9*#52]
G2 I-0.00025 J0
G1 Z[#50+8*#52]
G2 I-0.00025 J0
G1 Z[#50+7*#52]
G2 I-0.00025 J0
G1 Z[#50+6*#52]
G2 I-0.00025 J0
G1 Z[#50+5*#52]
G2 I-0.00025 J0
G1 Z[#50+4*#52]
G2 I-0.00025 J0
G1 Z[#50+3*#52]
G2 I-0.00025 J0
G1 Z[#50+2*#52]
G2 I-0.00025 J0
G1 Z[#50+1*#52]
G2 I-0.00025 J0
G1 Z[#50+0*#52]
G2 I-0.00025 J0
G0 Z0.19685

G0 X1.29985 Y0.76010
G1 Z[#50+30*#52]
G2 I-0.00025 J0
G1 Z[#50+29*#52]
G2 I-0.00025 J0
G1 Z[#50+28*#52]
G2 I-0.00025 J0
G1 Z[#50+27*#52]
G2 I-0.00025 J0
G1 Z[#50+26*#52]
G2 I-0.00025 J0
G1 Z[#50+25*#52]
G2 I-0.00025 J0
G1 Z[#50+24*#52]
G2 I-0.00025 J0
G1 Z[#50+23*#52]
G2 I-0.00025 J0
G1 Z[#50+22*#52]
G2 I-0.00025 J0
G1 Z[#50+21*#52]
G2 I-0.00025 J0
G1 Z[#50+20*#52]
G2 I-0.00025 J0
G1 Z[#50+19*#52]
G2 I-0.00025 J0
G1 Z[#50+18*#52]
G2 I-0.00025 J0
G1 Z[#50+17*#52]
G2 I-0.00025 J0
G1 Z[#50+16*#52]
G2 I-0.00025 J0
G1 Z[#50+15*#52]
G2 I-0.00025 J0
G1 Z[#50+14*#52]
G2 I-0.00025 J0
G1 Z[#50+13*#52]
G2 I-0.00025 J0
G1 Z[#50+12*#52]
G2 I-0.00025 J0
G1 Z[#50+11*#52]
G2 I-0.00025 J0
G1 Z[#50+10*#52]
G2 I-0.00025 J0
G1 Z[#50+9*#52]
G2 I-0.00025 J0
G1 Z[#50+8*#52]
G2 I-0.00025 J0
G1 Z[#50+7*#52]
G2 I-0.00025 J0
G1 Z[#50+6*#52]
G2 I-0.00025 J0
G1 Z[#50+5*#52]
G2 I-0.00025 J0
G1 Z[#50+4*#52]
G2 I-0.00025 J0
G1 Z[#50+3*#52]
G2 I-0.00025 J0
G1 Z[#50+2*#52]
G2 I-0.00025 J0
G1 Z[#50+1*#52]
G2 I-0.00025 J0
G1 Z[#50+0*#52]
G2 I-0.00025 J0
G0 Z0.19685

G0 X1.29985 Y0.66010
G1 Z[#50+30*#52]
G2 I-0.00025 J0
G1 Z[#50+29*#52]
G2 I-0.00025 J0
G1 Z[#50+28*#52]
G2 I-0.00025 J0
G1 Z[#50+27*#52]
G2 I-0.00025 J0
G1 Z[#50+26*#52]
G2 I-0.00025 J0
G1 Z[#50+25*#52]
G2 I-0.00025 J0
G1 Z[#50+24*#52]
G2 I-0.00025 J0
G1 Z[#50+23*#52]
G2 I-0.00025 J0
G1 Z[#50+22*#52]
G2 I-0.00025 J0
G1 Z[#50+21*#52]
G2 I-0.00025 J0
G1 Z[#50+20*#52]
G2 I-0.00025 J0
G1 Z[#50+19*#52]
G2 I-0.00025 J0
G1 Z[#50+18*#52]
G2 I-0.00025 J0
G1 Z[#50+17*#52]
G2 I-0.00025 J0
G1 Z[#50+16*#52]
G2 I-0.00025 J0
G1 Z[#50+15*#52]
G2 I-0.00025 J0
G1 Z[#50+14*#52]
G2 I-0.00025 J0
G1 Z[#50+13*#52]
G2 I-0.00025 J0
G1 Z[#50+12*#52]
G2 I-0.00025 J0
G1 Z[#50+11*#52]
G2 I-0.00025 J0
G1 Z[#50+10*#52]
G2 I-0.00025 J0
G1 Z[#50+9*#52]
G2 I-0.00025 J0
G1 Z[#50+8*#52]
G2 I-0.00025 J0
G1 Z[#50+7*#52]
G2 I-0.00025 J0
G1 Z[#50+6*#52]
G2 I-0.00025 J0
G1 Z[#50+5*#52]
G2 I-0.00025 J0
G1 Z[#50+4*#52]
G2 I-0.00025 J0
G1 Z[#50+3*#52]
G2 I-0.00025 J0
G1 Z[#50+2*#52]
G2 I-0.00025 J0
G1 Z[#50+1*#52]
G2 I-0.00025 J0
G1 Z[#50+0*#52]
G2 I-0.00025 J0
G0 Z0.19685

G0 X1.29985 Y0.56010
G1 Z[#50+30*#52]
G2 I-0.00025 J0
G1 Z[#50+29*#52]
G2 I-0.00025 J0
G1 Z[#50+28*#52]
G2 I-0.00025 J0
G1 Z[#50+27*#52]
G2 I-0.00025 J0
G1 Z[#50+26*#52]
G2 I-0.00025 J0
G1 Z[#50+25*#52]
G2 I-0.00025 J0
G1 Z[#50+24*#52]
G2 I-0.00025 J0
G1 Z[#50+23*#52]
G2 I-0.00025 J0
G1 Z[#50+22*#52]
G2 I-0.00025 J0
G1 Z[#50+21*#52]
G2 I-0.00025 J0
G1 Z[#50+20*#52]
G2 I-0.00025 J0
G1 Z[#50+19*#52]
G2 I-0.00025 J0
G1 Z[#50+18*#52]
G2 I-0.00025 J0
G1 Z[#50+17*#52]
G2 I-0.00025 J0
G1 Z[#50+16*#52]
G2 I-0.00025 J0
G1 Z[#50+15*#52]
G2 I-0.00025 J0
G1 Z[#50+14*#52]
G2 I-0.00025 J0
G1 Z[#50+13*#52]
G2 I-0.00025 J0
G1 Z[#50+12*#52]
G2 I-0.00025 J0
G1 Z[#50+11*#52]
G2 I-0.00025 J0
G1 Z[#50+10*#52]
G2 I-0.00025 J0
G1 Z[#50+9*#52]
G2 I-0.00025 J0
G1 Z[#50+8*#52]
G2 I-0.00025 J0
G1 Z[#50+7*#52]
G2 I-0.00025 J0
G1 Z[#50+6*#52]
G2 I-0.00025 J0
G1 Z[#50+5*#52]
G2 I-0.00025 J0
G1 Z[#50+4*#52]
G2 I-0.00025 J0
G1 Z[#50+3*#52]
G2 I-0.00025 J0
G1 Z[#50+2*#52]
G2 I-0.00025 J0
G1 Z[#50+1*#52]
G2 I-0.00025 J0
G1 Z[#50+0*#52]
G2 I-0.00025 J0
G0 Z0.19685

G0 X1.29985 Y0.46010
G1 Z[#50+30*#52]
G2 I-0.00025 J0
G1 Z[#50+29*#52]
G2 I-0.00025 J0
G1 Z[#50+28*#52]
G2 I-0.00025 J0
G1 Z[#50+27*#52]
G2 I-0.00025 J0
G1 Z[#50+26*#52]
G2 I-0.00025 J0
G1 Z[#50+25*#52]
G2 I-0.00025 J0
G1 Z[#50+24*#52]
G2 I-0.00025 J0
G1 Z[#50+23*#52]
G2 I-0.00025 J0
G1 Z[#50+22*#52]
G2 I-0.00025 J0
G1 Z[#50+21*#52]
G2 I-0.00025 J0
G1 Z[#50+20*#52]
G2 I-0.00025 J0
G1 Z[#50+19*#52]
G2 I-0.00025 J0
G1 Z[#50+18*#52]
G2 I-0.00025 J0
G1 Z[#50+17*#52]
G2 I-0.00025 J0
G1 Z[#50+16*#52]
G2 I-0.00025 J0
G1 Z[#50+15*#52]
G2 I-0.00025 J0
G1 Z[#50+14*#52]
G2 I-0.00025 J0
G1 Z[#50+13*#52]
G2 I-0.00025 J0
G1 Z[#50+12*#52]
G2 I-0.00025 J0
G1 Z[#50+11*#52]
G2 I-0.00025 J0
G1 Z[#50+10*#52]
G2 I-0.00025 J0
G1 Z[#50+9*#52]
G2 I-0.00025 J0
G1 Z[#50+8*#52]
G2 I-0.00025 J0
G1 Z[#50+7*#52]
G2 I-0.00025 J0
G1 Z[#50+6*#52]
G2 I-0.00025 J0
G1 Z[#50+5*#52]
G2 I-0.00025 J0
G1 Z[#50+4*#52]
G2 I-0.00025 J0
G1 Z[#50+3*#52]
G2 I-0.00025 J0
G1 Z[#50+2*#52]
G2 I-0.00025 J0
G1 Z[#50+1*#52]
G2 I-0.00025 J0
G1 Z[#50+0*#52]
G2 I-0.00025 J0
G0 Z0.19685

G0 X1.29985 Y0.36010
G1 Z[#50+30*#52]
G2 I-0.00025 J0
G1 Z[#50+29*#52]
G2 I-0.00025 J0
G1 Z[#50+28*#52]
G2 I-0.00025 J0
G1 Z[#50+27*#52]
G2 I-0.00025 J0
G1 Z[#50+26*#52]
G2 I-0.00025 J0
G1 Z[#50+25*#52]
G2 I-0.00025 J0
G1 Z[#50+24*#52]
G2 I-0.00025 J0
G1 Z[#50+23*#52]
G2 I-0.00025 J0
G1 Z[#50+22*#52]
G2 I-0.00025 J0
G1 Z[#50+21*#52]
G2 I-0.00025 J0
G1 Z[#50+20*#52]
G2 I-0.00025 J0
G1 Z[#50+19*#52]
G2 I-0.00025 J0
G1 Z[#50+18*#52]
G2 I-0.00025 J0
G1 Z[#50+17*#52]
G2 I-0.00025 J0
G1 Z[#50+16*#52]
G2 I-0.00025 J0
G1 Z[#50+15*#52]
G2 I-0.00025 J0
G1 Z[#50+14*#52]
G2 I-0.00025 J0
G1 Z[#50+13*#52]
G2 I-0.00025 J0
G1 Z[#50+12*#52]
G2 I-0.00025 J0
G1 Z[#50+11*#52]
G2 I-0.00025 J0
G1 Z[#50+10*#52]
G2 I-0.00025 J0
G1 Z[#50+9*#52]
G2 I-0.00025 J0
G1 Z[#50+8*#52]
G2 I-0.00025 J0
G1 Z[#50+7*#52]
G2 I-0.00025 J0
G1 Z[#50+6*#52]
G2 I-0.00025 J0
G1 Z[#50+5*#52]
G2 I-0.00025 J0
G1 Z[#50+4*#52]
G2 I-0.00025 J0
G1 Z[#50+3*#52]
G2 I-0.00025 J0
G1 Z[#50+2*#52]
G2 I-0.00025 J0
G1 Z[#50+1*#52]
G2 I-0.00025 J0
G1 Z[#50+0*#52]
G2 I-0.00025 J0
G0 Z0.19685

G0 X1.29985 Y0.26010
G1 Z[#50+30*#52]
G2 I-0.00025 J0
G1 Z[#50+29*#52]
G2 I-0.00025 J0
G1 Z[#50+28*#52]
G2 I-0.00025 J0
G1 Z[#50+27*#52]
G2 I-0.00025 J0
G1 Z[#50+26*#52]
G2 I-0.00025 J0
G1 Z[#50+25*#52]
G2 I-0.00025 J0
G1 Z[#50+24*#52]
G2 I-0.00025 J0
G1 Z[#50+23*#52]
G2 I-0.00025 J0
G1 Z[#50+22*#52]
G2 I-0.00025 J0
G1 Z[#50+21*#52]
G2 I-0.00025 J0
G1 Z[#50+20*#52]
G2 I-0.00025 J0
G1 Z[#50+19*#52]
G2 I-0.00025 J0
G1 Z[#50+18*#52]
G2 I-0.00025 J0
G1 Z[#50+17*#52]
G2 I-0.00025 J0
G1 Z[#50+16*#52]
G2 I-0.00025 J0
G1 Z[#50+15*#52]
G2 I-0.00025 J0
G1 Z[#50+14*#52]
G2 I-0.00025 J0
G1 Z[#50+13*#52]
G2 I-0.00025 J0
G1 Z[#50+12*#52]
G2 I-0.00025 J0
G1 Z[#50+11*#52]
G2 I-0.00025 J0
G1 Z[#50+10*#52]
G2 I-0.00025 J0
G1 Z[#50+9*#52]
G2 I-0.00025 J0
G1 Z[#50+8*#52]
G2 I-0.00025 J0
G1 Z[#50+7*#52]
G2 I-0.00025 J0
G1 Z[#50+6*#52]
G2 I-0.00025 J0
G1 Z[#50+5*#52]
G2 I-0.00025 J0
G1 Z[#50+4*#52]
G2 I-0.00025 J0
G1 Z[#50+3*#52]
G2 I-0.00025 J0
G1 Z[#50+2*#52]
G2 I-0.00025 J0
G1 Z[#50+1*#52]
G2 I-0.00025 J0
G1 Z[#50+0*#52]
G2 I-0.00025 J0
G0 Z0.19685

G0 X1.29985 Y0.16010
G1 Z[#50+30*#52]
G2 I-0.00025 J0
G1 Z[#50+29*#52]
G2 I-0.00025 J0
G1 Z[#50+28*#52]
G2 I-0.00025 J0
G1 Z[#50+27*#52]
G2 I-0.00025 J0
G1 Z[#50+26*#52]
G2 I-0.00025 J0
G1 Z[#50+25*#52]
G2 I-0.00025 J0
G1 Z[#50+24*#52]
G2 I-0.00025 J0
G1 Z[#50+23*#52]
G2 I-0.00025 J0
G1 Z[#50+22*#52]
G2 I-0.00025 J0
G1 Z[#50+21*#52]
G2 I-0.00025 J0
G1 Z[#50+20*#52]
G2 I-0.00025 J0
G1 Z[#50+19*#52]
G2 I-0.00025 J0
G1 Z[#50+18*#52]
G2 I-0.00025 J0
G1 Z[#50+17*#52]
G2 I-0.00025 J0
G1 Z[#50+16*#52]
G2 I-0.00025 J0
G1 Z[#50+15*#52]
G2 I-0.00025 J0
G1 Z[#50+14*#52]
G2 I-0.00025 J0
G1 Z[#50+13*#52]
G2 I-0.00025 J0
G1 Z[#50+12*#52]
G2 I-0.00025 J0
G1 Z[#50+11*#52]
G2 I-0.00025 J0
G1 Z[#50+10*#52]
G2 I-0.00025 J0
G1 Z[#50+9*#52]
G2 I-0.00025 J0
G1 Z[#50+8*#52]
G2 I-0.00025 J0
G1 Z[#50+7*#52]
G2 I-0.00025 J0
G1 Z[#50+6*#52]
G2 I-0.00025 J0
G1 Z[#50+5*#52]
G2 I-0.00025 J0
G1 Z[#50+4*#52]
G2 I-0.00025 J0
G1 Z[#50+3*#52]
G2 I-0.00025 J0
G1 Z[#50+2*#52]
G2 I-0.00025 J0
G1 Z[#50+1*#52]
G2 I-0.00025 J0
G1 Z[#50+0*#52]
G2 I-0.00025 J0
G0 Z0.19685

G0 X1.59985 Y0.16010
G1 Z[#50+30*#52]
G2 I-0.00025 J0
G1 Z[#50+29*#52]
G2 I-0.00025 J0
G1 Z[#50+28*#52]
G2 I-0.00025 J0
G1 Z[#50+27*#52]
G2 I-0.00025 J0
G1 Z[#50+26*#52]
G2 I-0.00025 J0
G1 Z[#50+25*#52]
G2 I-0.00025 J0
G1 Z[#50+24*#52]
G2 I-0.00025 J0
G1 Z[#50+23*#52]
G2 I-0.00025 J0
G1 Z[#50+22*#52]
G2 I-0.00025 J0
G1 Z[#50+21*#52]
G2 I-0.00025 J0
G1 Z[#50+20*#52]
G2 I-0.00025 J0
G1 Z[#50+19*#52]
G2 I-0.00025 J0
G1 Z[#50+18*#52]
G2 I-0.00025 J0
G1 Z[#50+17*#52]
G2 I-0.00025 J0
G1 Z[#50+16*#52]
G2 I-0.00025 J0
G1 Z[#50+15*#52]
G2 I-0.00025 J0
G1 Z[#50+14*#52]
G2 I-0.00025 J0
G1 Z[#50+13*#52]
G2 I-0.00025 J0
G1 Z[#50+12*#52]
G2 I-0.00025 J0
G1 Z[#50+11*#52]
G2 I-0.00025 J0
G1 Z[#50+10*#52]
G2 I-0.00025 J0
G1 Z[#50+9*#52]
G2 I-0.00025 J0
G1 Z[#50+8*#52]
G2 I-0.00025 J0
G1 Z[#50+7*#52]
G2 I-0.00025 J0
G1 Z[#50+6*#52]
G2 I-0.00025 J0
G1 Z[#50+5*#52]
G2 I-0.00025 J0
G1 Z[#50+4*#52]
G2 I-0.00025 J0
G1 Z[#50+3*#52]
G2 I-0.00025 J0
G1 Z[#50+2*#52]
G2 I-0.00025 J0
G1 Z[#50+1*#52]
G2 I-0.00025 J0
G1 Z[#50+0*#52]
G2 I-0.00025 J0
G0 Z0.19685

G0 X1.59985 Y0.26010
G1 Z[#50+30*#52]
G2 I-0.00025 J0
G1 Z[#50+29*#52]
G2 I-0.00025 J0
G1 Z[#50+28*#52]
G2 I-0.00025 J0
G1 Z[#50+27*#52]
G2 I-0.00025 J0
G1 Z[#50+26*#52]
G2 I-0.00025 J0
G1 Z[#50+25*#52]
G2 I-0.00025 J0
G1 Z[#50+24*#52]
G2 I-0.00025 J0
G1 Z[#50+23*#52]
G2 I-0.00025 J0
G1 Z[#50+22*#52]
G2 I-0.00025 J0
G1 Z[#50+21*#52]
G2 I-0.00025 J0
G1 Z[#50+20*#52]
G2 I-0.00025 J0
G1 Z[#50+19*#52]
G2 I-0.00025 J0
G1 Z[#50+18*#52]
G2 I-0.00025 J0
G1 Z[#50+17*#52]
G2 I-0.00025 J0
G1 Z[#50+16*#52]
G2 I-0.00025 J0
G1 Z[#50+15*#52]
G2 I-0.00025 J0
G1 Z[#50+14*#52]
G2 I-0.00025 J0
G1 Z[#50+13*#52]
G2 I-0.00025 J0
G1 Z[#50+12*#52]
G2 I-0.00025 J0
G1 Z[#50+11*#52]
G2 I-0.00025 J0
G1 Z[#50+10*#52]
G2 I-0.00025 J0
G1 Z[#50+9*#52]
G2 I-0.00025 J0
G1 Z[#50+8*#52]
G2 I-0.00025 J0
G1 Z[#50+7*#52]
G2 I-0.00025 J0
G1 Z[#50+6*#52]
G2 I-0.00025 J0
G1 Z[#50+5*#52]
G2 I-0.00025 J0
G1 Z[#50+4*#52]
G2 I-0.00025 J0
G1 Z[#50+3*#52]
G2 I-0.00025 J0
G1 Z[#50+2*#52]
G2 I-0.00025 J0
G1 Z[#50+1*#52]
G2 I-0.00025 J0
G1 Z[#50+0*#52]
G2 I-0.00025 J0
G0 Z0.19685

G0 X1.59985 Y0.36010
G1 Z[#50+30*#52]
G2 I-0.00025 J0
G1 Z[#50+29*#52]
G2 I-0.00025 J0
G1 Z[#50+28*#52]
G2 I-0.00025 J0
G1 Z[#50+27*#52]
G2 I-0.00025 J0
G1 Z[#50+26*#52]
G2 I-0.00025 J0
G1 Z[#50+25*#52]
G2 I-0.00025 J0
G1 Z[#50+24*#52]
G2 I-0.00025 J0
G1 Z[#50+23*#52]
G2 I-0.00025 J0
G1 Z[#50+22*#52]
G2 I-0.00025 J0
G1 Z[#50+21*#52]
G2 I-0.00025 J0
G1 Z[#50+20*#52]
G2 I-0.00025 J0
G1 Z[#50+19*#52]
G2 I-0.00025 J0
G1 Z[#50+18*#52]
G2 I-0.00025 J0
G1 Z[#50+17*#52]
G2 I-0.00025 J0
G1 Z[#50+16*#52]
G2 I-0.00025 J0
G1 Z[#50+15*#52]
G2 I-0.00025 J0
G1 Z[#50+14*#52]
G2 I-0.00025 J0
G1 Z[#50+13*#52]
G2 I-0.00025 J0
G1 Z[#50+12*#52]
G2 I-0.00025 J0
G1 Z[#50+11*#52]
G2 I-0.00025 J0
G1 Z[#50+10*#52]
G2 I-0.00025 J0
G1 Z[#50+9*#52]
G2 I-0.00025 J0
G1 Z[#50+8*#52]
G2 I-0.00025 J0
G1 Z[#50+7*#52]
G2 I-0.00025 J0
G1 Z[#50+6*#52]
G2 I-0.00025 J0
G1 Z[#50+5*#52]
G2 I-0.00025 J0
G1 Z[#50+4*#52]
G2 I-0.00025 J0
G1 Z[#50+3*#52]
G2 I-0.00025 J0
G1 Z[#50+2*#52]
G2 I-0.00025 J0
G1 Z[#50+1*#52]
G2 I-0.00025 J0
G1 Z[#50+0*#52]
G2 I-0.00025 J0
G0 Z0.19685

G0 X1.59985 Y0.46010
G1 Z[#50+30*#52]
G2 I-0.00025 J0
G1 Z[#50+29*#52]
G2 I-0.00025 J0
G1 Z[#50+28*#52]
G2 I-0.00025 J0
G1 Z[#50+27*#52]
G2 I-0.00025 J0
G1 Z[#50+26*#52]
G2 I-0.00025 J0
G1 Z[#50+25*#52]
G2 I-0.00025 J0
G1 Z[#50+24*#52]
G2 I-0.00025 J0
G1 Z[#50+23*#52]
G2 I-0.00025 J0
G1 Z[#50+22*#52]
G2 I-0.00025 J0
G1 Z[#50+21*#52]
G2 I-0.00025 J0
G1 Z[#50+20*#52]
G2 I-0.00025 J0
G1 Z[#50+19*#52]
G2 I-0.00025 J0
G1 Z[#50+18*#52]
G2 I-0.00025 J0
G1 Z[#50+17*#52]
G2 I-0.00025 J0
G1 Z[#50+16*#52]
G2 I-0.00025 J0
G1 Z[#50+15*#52]
G2 I-0.00025 J0
G1 Z[#50+14*#52]
G2 I-0.00025 J0
G1 Z[#50+13*#52]
G2 I-0.00025 J0
G1 Z[#50+12*#52]
G2 I-0.00025 J0
G1 Z[#50+11*#52]
G2 I-0.00025 J0
G1 Z[#50+10*#52]
G2 I-0.00025 J0
G1 Z[#50+9*#52]
G2 I-0.00025 J0
G1 Z[#50+8*#52]
G2 I-0.00025 J0
G1 Z[#50+7*#52]
G2 I-0.00025 J0
G1 Z[#50+6*#52]
G2 I-0.00025 J0
G1 Z[#50+5*#52]
G2 I-0.00025 J0
G1 Z[#50+4*#52]
G2 I-0.00025 J0
G1 Z[#50+3*#52]
G2 I-0.00025 J0
G1 Z[#50+2*#52]
G2 I-0.00025 J0
G1 Z[#50+1*#52]
G2 I-0.00025 J0
G1 Z[#50+0*#52]
G2 I-0.00025 J0
G0 Z0.19685

G0 X1.59985 Y0.56010
G1 Z[#50+30*#52]
G2 I-0.00025 J0
G1 Z[#50+29*#52]
G2 I-0.00025 J0
G1 Z[#50+28*#52]
G2 I-0.00025 J0
G1 Z[#50+27*#52]
G2 I-0.00025 J0
G1 Z[#50+26*#52]
G2 I-0.00025 J0
G1 Z[#50+25*#52]
G2 I-0.00025 J0
G1 Z[#50+24*#52]
G2 I-0.00025 J0
G1 Z[#50+23*#52]
G2 I-0.00025 J0
G1 Z[#50+22*#52]
G2 I-0.00025 J0
G1 Z[#50+21*#52]
G2 I-0.00025 J0
G1 Z[#50+20*#52]
G2 I-0.00025 J0
G1 Z[#50+19*#52]
G2 I-0.00025 J0
G1 Z[#50+18*#52]
G2 I-0.00025 J0
G1 Z[#50+17*#52]
G2 I-0.00025 J0
G1 Z[#50+16*#52]
G2 I-0.00025 J0
G1 Z[#50+15*#52]
G2 I-0.00025 J0
G1 Z[#50+14*#52]
G2 I-0.00025 J0
G1 Z[#50+13*#52]
G2 I-0.00025 J0
G1 Z[#50+12*#52]
G2 I-0.00025 J0
G1 Z[#50+11*#52]
G2 I-0.00025 J0
G1 Z[#50+10*#52]
G2 I-0.00025 J0
G1 Z[#50+9*#52]
G2 I-0.00025 J0
G1 Z[#50+8*#52]
G2 I-0.00025 J0
G1 Z[#50+7*#52]
G2 I-0.00025 J0
G1 Z[#50+6*#52]
G2 I-0.00025 J0
G1 Z[#50+5*#52]
G2 I-0.00025 J0
G1 Z[#50+4*#52]
G2 I-0.00025 J0
G1 Z[#50+3*#52]
G2 I-0.00025 J0
G1 Z[#50+2*#52]
G2 I-0.00025 J0
G1 Z[#50+1*#52]
G2 I-0.00025 J0
G1 Z[#50+0*#52]
G2 I-0.00025 J0
G0 Z0.19685

G0 X1.59985 Y0.66010
G1 Z[#50+30*#52]
G2 I-0.00025 J0
G1 Z[#50+29*#52]
G2 I-0.00025 J0
G1 Z[#50+28*#52]
G2 I-0.00025 J0
G1 Z[#50+27*#52]
G2 I-0.00025 J0
G1 Z[#50+26*#52]
G2 I-0.00025 J0
G1 Z[#50+25*#52]
G2 I-0.00025 J0
G1 Z[#50+24*#52]
G2 I-0.00025 J0
G1 Z[#50+23*#52]
G2 I-0.00025 J0
G1 Z[#50+22*#52]
G2 I-0.00025 J0
G1 Z[#50+21*#52]
G2 I-0.00025 J0
G1 Z[#50+20*#52]
G2 I-0.00025 J0
G1 Z[#50+19*#52]
G2 I-0.00025 J0
G1 Z[#50+18*#52]
G2 I-0.00025 J0
G1 Z[#50+17*#52]
G2 I-0.00025 J0
G1 Z[#50+16*#52]
G2 I-0.00025 J0
G1 Z[#50+15*#52]
G2 I-0.00025 J0
G1 Z[#50+14*#52]
G2 I-0.00025 J0
G1 Z[#50+13*#52]
G2 I-0.00025 J0
G1 Z[#50+12*#52]
G2 I-0.00025 J0
G1 Z[#50+11*#52]
G2 I-0.00025 J0
G1 Z[#50+10*#52]
G2 I-0.00025 J0
G1 Z[#50+9*#52]
G2 I-0.00025 J0
G1 Z[#50+8*#52]
G2 I-0.00025 J0
G1 Z[#50+7*#52]
G2 I-0.00025 J0
G1 Z[#50+6*#52]
G2 I-0.00025 J0
G1 Z[#50+5*#52]
G2 I-0.00025 J0
G1 Z[#50+4*#52]
G2 I-0.00025 J0
G1 Z[#50+3*#52]
G2 I-0.00025 J0
G1 Z[#50+2*#52]
G2 I-0.00025 J0
G1 Z[#50+1*#52]
G2 I-0.00025 J0
G1 Z[#50+0*#52]
G2 I-0.00025 J0
G0 Z0.19685

G0 X0.64985 Y0.36010
G1 Z[#50+30*#52]
G2 I-0.00025 J0
G1 Z[#50+29*#52]
G2 I-0.00025 J0
G1 Z[#50+28*#52]
G2 I-0.00025 J0
G1 Z[#50+27*#52]
G2 I-0.00025 J0
G1 Z[#50+26*#52]
G2 I-0.00025 J0
G1 Z[#50+25*#52]
G2 I-0.00025 J0
G1 Z[#50+24*#52]
G2 I-0.00025 J0
G1 Z[#50+23*#52]
G2 I-0.00025 J0
G1 Z[#50+22*#52]
G2 I-0.00025 J0
G1 Z[#50+21*#52]
G2 I-0.00025 J0
G1 Z[#50+20*#52]
G2 I-0.00025 J0
G1 Z[#50+19*#52]
G2 I-0.00025 J0
G1 Z[#50+18*#52]
G2 I-0.00025 J0
G1 Z[#50+17*#52]
G2 I-0.00025 J0
G1 Z[#50+16*#52]
G2 I-0.00025 J0
G1 Z[#50+15*#52]
G2 I-0.00025 J0
G1 Z[#50+14*#52]
G2 I-0.00025 J0
G1 Z[#50+13*#52]
G2 I-0.00025 J0
G1 Z[#50+12*#52]
G2 I-0.00025 J0
G1 Z[#50+11*#52]
G2 I-0.00025 J0
G1 Z[#50+10*#52]
G2 I-0.00025 J0
G1 Z[#50+9*#52]
G2 I-0.00025 J0
G1 Z[#50+8*#52]
G2 I-0.00025 J0
G1 Z[#50+7*#52]
G2 I-0.00025 J0
G1 Z[#50+6*#52]
G2 I-0.00025 J0
G1 Z[#50+5*#52]
G2 I-0.00025 J0
G1 Z[#50+4*#52]
G2 I-0.00025 J0
G1 Z[#50+3*#52]
G2 I-0.00025 J0
G1 Z[#50+2*#52]
G2 I-0.00025 J0
G1 Z[#50+1*#52]
G2 I-0.00025 J0
G1 Z[#50+0*#52]
G2 I-0.00025 J0
G0 Z0.19685

G0 X0.64985 Y0.26010
G1 Z[#50+30*#52]
G2 I-0.00025 J0
G1 Z[#50+29*#52]
G2 I-0.00025 J0
G1 Z[#50+28*#52]
G2 I-0.00025 J0
G1 Z[#50+27*#52]
G2 I-0.00025 J0
G1 Z[#50+26*#52]
G2 I-0.00025 J0
G1 Z[#50+25*#52]
G2 I-0.00025 J0
G1 Z[#50+24*#52]
G2 I-0.00025 J0
G1 Z[#50+23*#52]
G2 I-0.00025 J0
G1 Z[#50+22*#52]
G2 I-0.00025 J0
G1 Z[#50+21*#52]
G2 I-0.00025 J0
G1 Z[#50+20*#52]
G2 I-0.00025 J0
G1 Z[#50+19*#52]
G2 I-0.00025 J0
G1 Z[#50+18*#52]
G2 I-0.00025 J0
G1 Z[#50+17*#52]
G2 I-0.00025 J0
G1 Z[#50+16*#52]
G2 I-0.00025 J0
G1 Z[#50+15*#52]
G2 I-0.00025 J0
G1 Z[#50+14*#52]
G2 I-0.00025 J0
G1 Z[#50+13*#52]
G2 I-0.00025 J0
G1 Z[#50+12*#52]
G2 I-0.00025 J0
G1 Z[#50+11*#52]
G2 I-0.00025 J0
G1 Z[#50+10*#52]
G2 I-0.00025 J0
G1 Z[#50+9*#52]
G2 I-0.00025 J0
G1 Z[#50+8*#52]
G2 I-0.00025 J0
G1 Z[#50+7*#52]
G2 I-0.00025 J0
G1 Z[#50+6*#52]
G2 I-0.00025 J0
G1 Z[#50+5*#52]
G2 I-0.00025 J0
G1 Z[#50+4*#52]
G2 I-0.00025 J0
G1 Z[#50+3*#52]
G2 I-0.00025 J0
G1 Z[#50+2*#52]
G2 I-0.00025 J0
G1 Z[#50+1*#52]
G2 I-0.00025 J0
G1 Z[#50+0*#52]
G2 I-0.00025 J0
G0 Z0.19685

G0 X0.34985 Y0.26010
G1 Z[#50+30*#52]
G2 I-0.00025 J0
G1 Z[#50+29*#52]
G2 I-0.00025 J0
G1 Z[#50+28*#52]
G2 I-0.00025 J0
G1 Z[#50+27*#52]
G2 I-0.00025 J0
G1 Z[#50+26*#52]
G2 I-0.00025 J0
G1 Z[#50+25*#52]
G2 I-0.00025 J0
G1 Z[#50+24*#52]
G2 I-0.00025 J0
G1 Z[#50+23*#52]
G2 I-0.00025 J0
G1 Z[#50+22*#52]
G2 I-0.00025 J0
G1 Z[#50+21*#52]
G2 I-0.00025 J0
G1 Z[#50+20*#52]
G2 I-0.00025 J0
G1 Z[#50+19*#52]
G2 I-0.00025 J0
G1 Z[#50+18*#52]
G2 I-0.00025 J0
G1 Z[#50+17*#52]
G2 I-0.00025 J0
G1 Z[#50+16*#52]
G2 I-0.00025 J0
G1 Z[#50+15*#52]
G2 I-0.00025 J0
G1 Z[#50+14*#52]
G2 I-0.00025 J0
G1 Z[#50+13*#52]
G2 I-0.00025 J0
G1 Z[#50+12*#52]
G2 I-0.00025 J0
G1 Z[#50+11*#52]
G2 I-0.00025 J0
G1 Z[#50+10*#52]
G2 I-0.00025 J0
G1 Z[#50+9*#52]
G2 I-0.00025 J0
G1 Z[#50+8*#52]
G2 I-0.00025 J0
G1 Z[#50+7*#52]
G2 I-0.00025 J0
G1 Z[#50+6*#52]
G2 I-0.00025 J0
G1 Z[#50+5*#52]
G2 I-0.00025 J0
G1 Z[#50+4*#52]
G2 I-0.00025 J0
G1 Z[#50+3*#52]
G2 I-0.00025 J0
G1 Z[#50+2*#52]
G2 I-0.00025 J0
G1 Z[#50+1*#52]
G2 I-0.00025 J0
G1 Z[#50+0*#52]
G2 I-0.00025 J0
G0 Z0.19685

G0 X0.24985 Y0.26010
G1 Z[#50+30*#52]
G2 I-0.00025 J0
G1 Z[#50+29*#52]
G2 I-0.00025 J0
G1 Z[#50+28*#52]
G2 I-0.00025 J0
G1 Z[#50+27*#52]
G2 I-0.00025 J0
G1 Z[#50+26*#52]
G2 I-0.00025 J0
G1 Z[#50+25*#52]
G2 I-0.00025 J0
G1 Z[#50+24*#52]
G2 I-0.00025 J0
G1 Z[#50+23*#52]
G2 I-0.00025 J0
G1 Z[#50+22*#52]
G2 I-0.00025 J0
G1 Z[#50+21*#52]
G2 I-0.00025 J0
G1 Z[#50+20*#52]
G2 I-0.00025 J0
G1 Z[#50+19*#52]
G2 I-0.00025 J0
G1 Z[#50+18*#52]
G2 I-0.00025 J0
G1 Z[#50+17*#52]
G2 I-0.00025 J0
G1 Z[#50+16*#52]
G2 I-0.00025 J0
G1 Z[#50+15*#52]
G2 I-0.00025 J0
G1 Z[#50+14*#52]
G2 I-0.00025 J0
G1 Z[#50+13*#52]
G2 I-0.00025 J0
G1 Z[#50+12*#52]
G2 I-0.00025 J0
G1 Z[#50+11*#52]
G2 I-0.00025 J0
G1 Z[#50+10*#52]
G2 I-0.00025 J0
G1 Z[#50+9*#52]
G2 I-0.00025 J0
G1 Z[#50+8*#52]
G2 I-0.00025 J0
G1 Z[#50+7*#52]
G2 I-0.00025 J0
G1 Z[#50+6*#52]
G2 I-0.00025 J0
G1 Z[#50+5*#52]
G2 I-0.00025 J0
G1 Z[#50+4*#52]
G2 I-0.00025 J0
G1 Z[#50+3*#52]
G2 I-0.00025 J0
G1 Z[#50+2*#52]
G2 I-0.00025 J0
G1 Z[#50+1*#52]
G2 I-0.00025 J0
G1 Z[#50+0*#52]
G2 I-0.00025 J0
G0 Z0.19685

G0 X0.24985 Y0.36010
G1 Z[#50+30*#52]
G2 I-0.00025 J0
G1 Z[#50+29*#52]
G2 I-0.00025 J0
G1 Z[#50+28*#52]
G2 I-0.00025 J0
G1 Z[#50+27*#52]
G2 I-0.00025 J0
G1 Z[#50+26*#52]
G2 I-0.00025 J0
G1 Z[#50+25*#52]
G2 I-0.00025 J0
G1 Z[#50+24*#52]
G2 I-0.00025 J0
G1 Z[#50+23*#52]
G2 I-0.00025 J0
G1 Z[#50+22*#52]
G2 I-0.00025 J0
G1 Z[#50+21*#52]
G2 I-0.00025 J0
G1 Z[#50+20*#52]
G2 I-0.00025 J0
G1 Z[#50+19*#52]
G2 I-0.00025 J0
G1 Z[#50+18*#52]
G2 I-0.00025 J0
G1 Z[#50+17*#52]
G2 I-0.00025 J0
G1 Z[#50+16*#52]
G2 I-0.00025 J0
G1 Z[#50+15*#52]
G2 I-0.00025 J0
G1 Z[#50+14*#52]
G2 I-0.00025 J0
G1 Z[#50+13*#52]
G2 I-0.00025 J0
G1 Z[#50+12*#52]
G2 I-0.00025 J0
G1 Z[#50+11*#52]
G2 I-0.00025 J0
G1 Z[#50+10*#52]
G2 I-0.00025 J0
G1 Z[#50+9*#52]
G2 I-0.00025 J0
G1 Z[#50+8*#52]
G2 I-0.00025 J0
G1 Z[#50+7*#52]
G2 I-0.00025 J0
G1 Z[#50+6*#52]
G2 I-0.00025 J0
G1 Z[#50+5*#52]
G2 I-0.00025 J0
G1 Z[#50+4*#52]
G2 I-0.00025 J0
G1 Z[#50+3*#52]
G2 I-0.00025 J0
G1 Z[#50+2*#52]
G2 I-0.00025 J0
G1 Z[#50+1*#52]
G2 I-0.00025 J0
G1 Z[#50+0*#52]
G2 I-0.00025 J0
G0 Z0.19685

G0 X0.34985 Y0.36010
G1 Z[#50+30*#52]
G2 I-0.00025 J0
G1 Z[#50+29*#52]
G2 I-0.00025 J0
G1 Z[#50+28*#52]
G2 I-0.00025 J0
G1 Z[#50+27*#52]
G2 I-0.00025 J0
G1 Z[#50+26*#52]
G2 I-0.00025 J0
G1 Z[#50+25*#52]
G2 I-0.00025 J0
G1 Z[#50+24*#52]
G2 I-0.00025 J0
G1 Z[#50+23*#52]
G2 I-0.00025 J0
G1 Z[#50+22*#52]
G2 I-0.00025 J0
G1 Z[#50+21*#52]
G2 I-0.00025 J0
G1 Z[#50+20*#52]
G2 I-0.00025 J0
G1 Z[#50+19*#52]
G2 I-0.00025 J0
G1 Z[#50+18*#52]
G2 I-0.00025 J0
G1 Z[#50+17*#52]
G2 I-0.00025 J0
G1 Z[#50+16*#52]
G2 I-0.00025 J0
G1 Z[#50+15*#52]
G2 I-0.00025 J0
G1 Z[#50+14*#52]
G2 I-0.00025 J0
G1 Z[#50+13*#52]
G2 I-0.00025 J0
G1 Z[#50+12*#52]
G2 I-0.00025 J0
G1 Z[#50+11*#52]
G2 I-0.00025 J0
G1 Z[#50+10*#52]
G2 I-0.00025 J0
G1 Z[#50+9*#52]
G2 I-0.00025 J0
G1 Z[#50+8*#52]
G2 I-0.00025 J0
G1 Z[#50+7*#52]
G2 I-0.00025 J0
G1 Z[#50+6*#52]
G2 I-0.00025 J0
G1 Z[#50+5*#52]
G2 I-0.00025 J0
G1 Z[#50+4*#52]
G2 I-0.00025 J0
G1 Z[#50+3*#52]
G2 I-0.00025 J0
G1 Z[#50+2*#52]
G2 I-0.00025 J0
G1 Z[#50+1*#52]
G2 I-0.00025 J0
G1 Z[#50+0*#52]
G2 I-0.00025 J0
G0 Z0.19685

G0 X0.24985 Y0.46010
G1 Z[#50+30*#52]
G2 I-0.00025 J0
G1 Z[#50+29*#52]
G2 I-0.00025 J0
G1 Z[#50+28*#52]
G2 I-0.00025 J0
G1 Z[#50+27*#52]
G2 I-0.00025 J0
G1 Z[#50+26*#52]
G2 I-0.00025 J0
G1 Z[#50+25*#52]
G2 I-0.00025 J0
G1 Z[#50+24*#52]
G2 I-0.00025 J0
G1 Z[#50+23*#52]
G2 I-0.00025 J0
G1 Z[#50+22*#52]
G2 I-0.00025 J0
G1 Z[#50+21*#52]
G2 I-0.00025 J0
G1 Z[#50+20*#52]
G2 I-0.00025 J0
G1 Z[#50+19*#52]
G2 I-0.00025 J0
G1 Z[#50+18*#52]
G2 I-0.00025 J0
G1 Z[#50+17*#52]
G2 I-0.00025 J0
G1 Z[#50+16*#52]
G2 I-0.00025 J0
G1 Z[#50+15*#52]
G2 I-0.00025 J0
G1 Z[#50+14*#52]
G2 I-0.00025 J0
G1 Z[#50+13*#52]
G2 I-0.00025 J0
G1 Z[#50+12*#52]
G2 I-0.00025 J0
G1 Z[#50+11*#52]
G2 I-0.00025 J0
G1 Z[#50+10*#52]
G2 I-0.00025 J0
G1 Z[#50+9*#52]
G2 I-0.00025 J0
G1 Z[#50+8*#52]
G2 I-0.00025 J0
G1 Z[#50+7*#52]
G2 I-0.00025 J0
G1 Z[#50+6*#52]
G2 I-0.00025 J0
G1 Z[#50+5*#52]
G2 I-0.00025 J0
G1 Z[#50+4*#52]
G2 I-0.00025 J0
G1 Z[#50+3*#52]
G2 I-0.00025 J0
G1 Z[#50+2*#52]
G2 I-0.00025 J0
G1 Z[#50+1*#52]
G2 I-0.00025 J0
G1 Z[#50+0*#52]
G2 I-0.00025 J0
G0 Z0.19685

G0 X0.24985 Y0.16010
G1 Z[#50+30*#52]
G2 I-0.00025 J0
G1 Z[#50+29*#52]
G2 I-0.00025 J0
G1 Z[#50+28*#52]
G2 I-0.00025 J0
G1 Z[#50+27*#52]
G2 I-0.00025 J0
G1 Z[#50+26*#52]
G2 I-0.00025 J0
G1 Z[#50+25*#52]
G2 I-0.00025 J0
G1 Z[#50+24*#52]
G2 I-0.00025 J0
G1 Z[#50+23*#52]
G2 I-0.00025 J0
G1 Z[#50+22*#52]
G2 I-0.00025 J0
G1 Z[#50+21*#52]
G2 I-0.00025 J0
G1 Z[#50+20*#52]
G2 I-0.00025 J0
G1 Z[#50+19*#52]
G2 I-0.00025 J0
G1 Z[#50+18*#52]
G2 I-0.00025 J0
G1 Z[#50+17*#52]
G2 I-0.00025 J0
G1 Z[#50+16*#52]
G2 I-0.00025 J0
G1 Z[#50+15*#52]
G2 I-0.00025 J0
G1 Z[#50+14*#52]
G2 I-0.00025 J0
G1 Z[#50+13*#52]
G2 I-0.00025 J0
G1 Z[#50+12*#52]
G2 I-0.00025 J0
G1 Z[#50+11*#52]
G2 I-0.00025 J0
G1 Z[#50+10*#52]
G2 I-0.00025 J0
G1 Z[#50+9*#52]
G2 I-0.00025 J0
G1 Z[#50+8*#52]
G2 I-0.00025 J0
G1 Z[#50+7*#52]
G2 I-0.00025 J0
G1 Z[#50+6*#52]
G2 I-0.00025 J0
G1 Z[#50+5*#52]
G2 I-0.00025 J0
G1 Z[#50+4*#52]
G2 I-0.00025 J0
G1 Z[#50+3*#52]
G2 I-0.00025 J0
G1 Z[#50+2*#52]
G2 I-0.00025 J0
G1 Z[#50+1*#52]
G2 I-0.00025 J0
G1 Z[#50+0*#52]
G2 I-0.00025 J0
G0 Z0.19685

G0 X0.60155 Y0.71010
G1 Z[#50+30*#52]
G2 I-0.00195 J0
G1 Z[#50+29*#52]
G2 I-0.00195 J0
G1 Z[#50+28*#52]
G2 I-0.00195 J0
G1 Z[#50+27*#52]
G2 I-0.00195 J0
G1 Z[#50+26*#52]
G2 I-0.00195 J0
G1 Z[#50+25*#52]
G2 I-0.00195 J0
G1 Z[#50+24*#52]
G2 I-0.00195 J0
G1 Z[#50+23*#52]
G2 I-0.00195 J0
G1 Z[#50+22*#52]
G2 I-0.00195 J0
G1 Z[#50+21*#52]
G2 I-0.00195 J0
G1 Z[#50+20*#52]
G2 I-0.00195 J0
G1 Z[#50+19*#52]
G2 I-0.00195 J0
G1 Z[#50+18*#52]
G2 I-0.00195 J0
G1 Z[#50+17*#52]
G2 I-0.00195 J0
G1 Z[#50+16*#52]
G2 I-0.00195 J0
G1 Z[#50+15*#52]
G2 I-0.00195 J0
G1 Z[#50+14*#52]
G2 I-0.00195 J0
G1 Z[#50+13*#52]
G2 I-0.00195 J0
G1 Z[#50+12*#52]
G2 I-0.00195 J0
G1 Z[#50+11*#52]
G2 I-0.00195 J0
G1 Z[#50+10*#52]
G2 I-0.00195 J0
G1 Z[#50+9*#52]
G2 I-0.00195 J0
G1 Z[#50+8*#52]
G2 I-0.00195 J0
G1 Z[#50+7*#52]
G2 I-0.00195 J0
G1 Z[#50+6*#52]
G2 I-0.00195 J0
G1 Z[#50+5*#52]
G2 I-0.00195 J0
G1 Z[#50+4*#52]
G2 I-0.00195 J0
G1 Z[#50+3*#52]
G2 I-0.00195 J0
G1 Z[#50+2*#52]
G2 I-0.00195 J0
G1 Z[#50+1*#52]
G2 I-0.00195 J0
G1 Z[#50+0*#52]
G2 I-0.00195 J0
G0 Z0.19685

G0 X0.75155 Y0.71010
G1 Z[#50+30*#52]
G2 I-0.00195 J0
G1 Z[#50+29*#52]
G2 I-0.00195 J0
G1 Z[#50+28*#52]
G2 I-0.00195 J0
G1 Z[#50+27*#52]
G2 I-0.00195 J0
G1 Z[#50+26*#52]
G2 I-0.00195 J0
G1 Z[#50+25*#52]
G2 I-0.00195 J0
G1 Z[#50+24*#52]
G2 I-0.00195 J0
G1 Z[#50+23*#52]
G2 I-0.00195 J0
G1 Z[#50+22*#52]
G2 I-0.00195 J0
G1 Z[#50+21*#52]
G2 I-0.00195 J0
G1 Z[#50+20*#52]
G2 I-0.00195 J0
G1 Z[#50+19*#52]
G2 I-0.00195 J0
G1 Z[#50+18*#52]
G2 I-0.00195 J0
G1 Z[#50+17*#52]
G2 I-0.00195 J0
G1 Z[#50+16*#52]
G2 I-0.00195 J0
G1 Z[#50+15*#52]
G2 I-0.00195 J0
G1 Z[#50+14*#52]
G2 I-0.00195 J0
G1 Z[#50+13*#52]
G2 I-0.00195 J0
G1 Z[#50+12*#52]
G2 I-0.00195 J0
G1 Z[#50+11*#52]
G2 I-0.00195 J0
G1 Z[#50+10*#52]
G2 I-0.00195 J0
G1 Z[#50+9*#52]
G2 I-0.00195 J0
G1 Z[#50+8*#52]
G2 I-0.00195 J0
G1 Z[#50+7*#52]
G2 I-0.00195 J0
G1 Z[#50+6*#52]
G2 I-0.00195 J0
G1 Z[#50+5*#52]
G2 I-0.00195 J0
G1 Z[#50+4*#52]
G2 I-0.00195 J0
G1 Z[#50+3*#52]
G2 I-0.00195 J0
G1 Z[#50+2*#52]
G2 I-0.00195 J0
G1 Z[#50+1*#52]
G2 I-0.00195 J0
G1 Z[#50+0*#52]
G2 I-0.00195 J0
G0 Z0.19685

G0 X1.10155 Y0.71010
G1 Z[#50+30*#52]
G2 I-0.00195 J0
G1 Z[#50+29*#52]
G2 I-0.00195 J0
G1 Z[#50+28*#52]
G2 I-0.00195 J0
G1 Z[#50+27*#52]
G2 I-0.00195 J0
G1 Z[#50+26*#52]
G2 I-0.00195 J0
G1 Z[#50+25*#52]
G2 I-0.00195 J0
G1 Z[#50+24*#52]
G2 I-0.00195 J0
G1 Z[#50+23*#52]
G2 I-0.00195 J0
G1 Z[#50+22*#52]
G2 I-0.00195 J0
G1 Z[#50+21*#52]
G2 I-0.00195 J0
G1 Z[#50+20*#52]
G2 I-0.00195 J0
G1 Z[#50+19*#52]
G2 I-0.00195 J0
G1 Z[#50+18*#52]
G2 I-0.00195 J0
G1 Z[#50+17*#52]
G2 I-0.00195 J0
G1 Z[#50+16*#52]
G2 I-0.00195 J0
G1 Z[#50+15*#52]
G2 I-0.00195 J0
G1 Z[#50+14*#52]
G2 I-0.00195 J0
G1 Z[#50+13*#52]
G2 I-0.00195 J0
G1 Z[#50+12*#52]
G2 I-0.00195 J0
G1 Z[#50+11*#52]
G2 I-0.00195 J0
G1 Z[#50+10*#52]
G2 I-0.00195 J0
G1 Z[#50+9*#52]
G2 I-0.00195 J0
G1 Z[#50+8*#52]
G2 I-0.00195 J0
G1 Z[#50+7*#52]
G2 I-0.00195 J0
G1 Z[#50+6*#52]
G2 I-0.00195 J0
G1 Z[#50+5*#52]
G2 I-0.00195 J0
G1 Z[#50+4*#52]
G2 I-0.00195 J0
G1 Z[#50+3*#52]
G2 I-0.00195 J0
G1 Z[#50+2*#52]
G2 I-0.00195 J0
G1 Z[#50+1*#52]
G2 I-0.00195 J0
G1 Z[#50+0*#52]
G2 I-0.00195 J0
G0 Z0.19685

G0 X1.00155 Y1.51010
G1 Z[#50+30*#52]
G2 I-0.00195 J0
G1 Z[#50+29*#52]
G2 I-0.00195 J0
G1 Z[#50+28*#52]
G2 I-0.00195 J0
G1 Z[#50+27*#52]
G2 I-0.00195 J0
G1 Z[#50+26*#52]
G2 I-0.00195 J0
G1 Z[#50+25*#52]
G2 I-0.00195 J0
G1 Z[#50+24*#52]
G2 I-0.00195 J0
G1 Z[#50+23*#52]
G2 I-0.00195 J0
G1 Z[#50+22*#52]
G2 I-0.00195 J0
G1 Z[#50+21*#52]
G2 I-0.00195 J0
G1 Z[#50+20*#52]
G2 I-0.00195 J0
G1 Z[#50+19*#52]
G2 I-0.00195 J0
G1 Z[#50+18*#52]
G2 I-0.00195 J0
G1 Z[#50+17*#52]
G2 I-0.00195 J0
G1 Z[#50+16*#52]
G2 I-0.00195 J0
G1 Z[#50+15*#52]
G2 I-0.00195 J0
G1 Z[#50+14*#52]
G2 I-0.00195 J0
G1 Z[#50+13*#52]
G2 I-0.00195 J0
G1 Z[#50+12*#52]
G2 I-0.00195 J0
G1 Z[#50+11*#52]
G2 I-0.00195 J0
G1 Z[#50+10*#52]
G2 I-0.00195 J0
G1 Z[#50+9*#52]
G2 I-0.00195 J0
G1 Z[#50+8*#52]
G2 I-0.00195 J0
G1 Z[#50+7*#52]
G2 I-0.00195 J0
G1 Z[#50+6*#52]
G2 I-0.00195 J0
G1 Z[#50+5*#52]
G2 I-0.00195 J0
G1 Z[#50+4*#52]
G2 I-0.00195 J0
G1 Z[#50+3*#52]
G2 I-0.00195 J0
G1 Z[#50+2*#52]
G2 I-0.00195 J0
G1 Z[#50+1*#52]
G2 I-0.00195 J0
G1 Z[#50+0*#52]
G2 I-0.00195 J0
G0 Z0.19685

G0 X0.55385 Y1.26010
G1 Z[#50+30*#52]
G2 I-0.00425 J0
G1 Z[#50+29*#52]
G2 I-0.00425 J0
G1 Z[#50+28*#52]
G2 I-0.00425 J0
G1 Z[#50+27*#52]
G2 I-0.00425 J0
G1 Z[#50+26*#52]
G2 I-0.00425 J0
G1 Z[#50+25*#52]
G2 I-0.00425 J0
G1 Z[#50+24*#52]
G2 I-0.00425 J0
G1 Z[#50+23*#52]
G2 I-0.00425 J0
G1 Z[#50+22*#52]
G2 I-0.00425 J0
G1 Z[#50+21*#52]
G2 I-0.00425 J0
G1 Z[#50+20*#52]
G2 I-0.00425 J0
G1 Z[#50+19*#52]
G2 I-0.00425 J0
G1 Z[#50+18*#52]
G2 I-0.00425 J0
G1 Z[#50+17*#52]
G2 I-0.00425 J0
G1 Z[#50+16*#52]
G2 I-0.00425 J0
G1 Z[#50+15*#52]
G2 I-0.00425 J0
G1 Z[#50+14*#52]
G2 I-0.00425 J0
G1 Z[#50+13*#52]
G2 I-0.00425 J0
G1 Z[#50+12*#52]
G2 I-0.00425 J0
G1 Z[#50+11*#52]
G2 I-0.00425 J0
G1 Z[#50+10*#52]
G2 I-0.00425 J0
G1 Z[#50+9*#52]
G2 I-0.00425 J0
G1 Z[#50+8*#52]
G2 I-0.00425 J0
G1 Z[#50+7*#52]
G2 I-0.00425 J0
G1 Z[#50+6*#52]
G2 I-0.00425 J0
G1 Z[#50+5*#52]
G2 I-0.00425 J0
G1 Z[#50+4*#52]
G2 I-0.00425 J0
G1 Z[#50+3*#52]
G2 I-0.00425 J0
G1 Z[#50+2*#52]
G2 I-0.00425 J0
G1 Z[#50+1*#52]
G2 I-0.00425 J0
G1 Z[#50+0*#52]
G2 I-0.00425 J0
G0 Z0.19685

G0 X0.45385 Y1.26010
G1 Z[#50+30*#52]
G2 I-0.00425 J0
G1 Z[#50+29*#52]
G2 I-0.00425 J0
G1 Z[#50+28*#52]
G2 I-0.00425 J0
G1 Z[#50+27*#52]
G2 I-0.00425 J0
G1 Z[#50+26*#52]
G2 I-0.00425 J0
G1 Z[#50+25*#52]
G2 I-0.00425 J0
G1 Z[#50+24*#52]
G2 I-0.00425 J0
G1 Z[#50+23*#52]
G2 I-0.00425 J0
G1 Z[#50+22*#52]
G2 I-0.00425 J0
G1 Z[#50+21*#52]
G2 I-0.00425 J0
G1 Z[#50+20*#52]
G2 I-0.00425 J0
G1 Z[#50+19*#52]
G2 I-0.00425 J0
G1 Z[#50+18*#52]
G2 I-0.00425 J0
G1 Z[#50+17*#52]
G2 I-0.00425 J0
G1 Z[#50+16*#52]
G2 I-0.00425 J0
G1 Z[#50+15*#52]
G2 I-0.00425 J0
G1 Z[#50+14*#52]
G2 I-0.00425 J0
G1 Z[#50+13*#52]
G2 I-0.00425 J0
G1 Z[#50+12*#52]
G2 I-0.00425 J0
G1 Z[#50+11*#52]
G2 I-0.00425 J0
G1 Z[#50+10*#52]
G2 I-0.00425 J0
G1 Z[#50+9*#52]
G2 I-0.00425 J0
G1 Z[#50+8*#52]
G2 I-0.00425 J0
G1 Z[#50+7*#52]
G2 I-0.00425 J0
G1 Z[#50+6*#52]
G2 I-0.00425 J0
G1 Z[#50+5*#52]
G2 I-0.00425 J0
G1 Z[#50+4*#52]
G2 I-0.00425 J0
G1 Z[#50+3*#52]
G2 I-0.00425 J0
G1 Z[#50+2*#52]
G2 I-0.00425 J0
G1 Z[#50+1*#52]
G2 I-0.00425 J0
G1 Z[#50+0*#52]
G2 I-0.00425 J0
G0 Z0.19685

G0 X0.45385 Y1.16010
G1 Z[#50+30*#52]
G2 I-0.00425 J0
G1 Z[#50+29*#52]
G2 I-0.00425 J0
G1 Z[#50+28*#52]
G2 I-0.00425 J0
G1 Z[#50+27*#52]
G2 I-0.00425 J0
G1 Z[#50+26*#52]
G2 I-0.00425 J0
G1 Z[#50+25*#52]
G2 I-0.00425 J0
G1 Z[#50+24*#52]
G2 I-0.00425 J0
G1 Z[#50+23*#52]
G2 I-0.00425 J0
G1 Z[#50+22*#52]
G2 I-0.00425 J0
G1 Z[#50+21*#52]
G2 I-0.00425 J0
G1 Z[#50+20*#52]
G2 I-0.00425 J0
G1 Z[#50+19*#52]
G2 I-0.00425 J0
G1 Z[#50+18*#52]
G2 I-0.00425 J0
G1 Z[#50+17*#52]
G2 I-0.00425 J0
G1 Z[#50+16*#52]
G2 I-0.00425 J0
G1 Z[#50+15*#52]
G2 I-0.00425 J0
G1 Z[#50+14*#52]
G2 I-0.00425 J0
G1 Z[#50+13*#52]
G2 I-0.00425 J0
G1 Z[#50+12*#52]
G2 I-0.00425 J0
G1 Z[#50+11*#52]
G2 I-0.00425 J0
G1 Z[#50+10*#52]
G2 I-0.00425 J0
G1 Z[#50+9*#52]
G2 I-0.00425 J0
G1 Z[#50+8*#52]
G2 I-0.00425 J0
G1 Z[#50+7*#52]
G2 I-0.00425 J0
G1 Z[#50+6*#52]
G2 I-0.00425 J0
G1 Z[#50+5*#52]
G2 I-0.00425 J0
G1 Z[#50+4*#52]
G2 I-0.00425 J0
G1 Z[#50+3*#52]
G2 I-0.00425 J0
G1 Z[#50+2*#52]
G2 I-0.00425 J0
G1 Z[#50+1*#52]
G2 I-0.00425 J0
G1 Z[#50+0*#52]
G2 I-0.00425 J0
G0 Z0.19685

G0 X0.55385 Y1.16010
G1 Z[#50+30*#52]
G2 I-0.00425 J0
G1 Z[#50+29*#52]
G2 I-0.00425 J0
G1 Z[#50+28*#52]
G2 I-0.00425 J0
G1 Z[#50+27*#52]
G2 I-0.00425 J0
G1 Z[#50+26*#52]
G2 I-0.00425 J0
G1 Z[#50+25*#52]
G2 I-0.00425 J0
G1 Z[#50+24*#52]
G2 I-0.00425 J0
G1 Z[#50+23*#52]
G2 I-0.00425 J0
G1 Z[#50+22*#52]
G2 I-0.00425 J0
G1 Z[#50+21*#52]
G2 I-0.00425 J0
G1 Z[#50+20*#52]
G2 I-0.00425 J0
G1 Z[#50+19*#52]
G2 I-0.00425 J0
G1 Z[#50+18*#52]
G2 I-0.00425 J0
G1 Z[#50+17*#52]
G2 I-0.00425 J0
G1 Z[#50+16*#52]
G2 I-0.00425 J0
G1 Z[#50+15*#52]
G2 I-0.00425 J0
G1 Z[#50+14*#52]
G2 I-0.00425 J0
G1 Z[#50+13*#52]
G2 I-0.00425 J0
G1 Z[#50+12*#52]
G2 I-0.00425 J0
G1 Z[#50+11*#52]
G2 I-0.00425 J0
G1 Z[#50+10*#52]
G2 I-0.00425 J0
G1 Z[#50+9*#52]
G2 I-0.00425 J0
G1 Z[#50+8*#52]
G2 I-0.00425 J0
G1 Z[#50+7*#52]
G2 I-0.00425 J0
G1 Z[#50+6*#52]
G2 I-0.00425 J0
G1 Z[#50+5*#52]
G2 I-0.00425 J0
G1 Z[#50+4*#52]
G2 I-0.00425 J0
G1 Z[#50+3*#52]
G2 I-0.00425 J0
G1 Z[#50+2*#52]
G2 I-0.00425 J0
G1 Z[#50+1*#52]
G2 I-0.00425 J0
G1 Z[#50+0*#52]
G2 I-0.00425 J0
G0 Z0.19685

G0 X0.55385 Y1.06010
G1 Z[#50+30*#52]
G2 I-0.00425 J0
G1 Z[#50+29*#52]
G2 I-0.00425 J0
G1 Z[#50+28*#52]
G2 I-0.00425 J0
G1 Z[#50+27*#52]
G2 I-0.00425 J0
G1 Z[#50+26*#52]
G2 I-0.00425 J0
G1 Z[#50+25*#52]
G2 I-0.00425 J0
G1 Z[#50+24*#52]
G2 I-0.00425 J0
G1 Z[#50+23*#52]
G2 I-0.00425 J0
G1 Z[#50+22*#52]
G2 I-0.00425 J0
G1 Z[#50+21*#52]
G2 I-0.00425 J0
G1 Z[#50+20*#52]
G2 I-0.00425 J0
G1 Z[#50+19*#52]
G2 I-0.00425 J0
G1 Z[#50+18*#52]
G2 I-0.00425 J0
G1 Z[#50+17*#52]
G2 I-0.00425 J0
G1 Z[#50+16*#52]
G2 I-0.00425 J0
G1 Z[#50+15*#52]
G2 I-0.00425 J0
G1 Z[#50+14*#52]
G2 I-0.00425 J0
G1 Z[#50+13*#52]
G2 I-0.00425 J0
G1 Z[#50+12*#52]
G2 I-0.00425 J0
G1 Z[#50+11*#52]
G2 I-0.00425 J0
G1 Z[#50+10*#52]
G2 I-0.00425 J0
G1 Z[#50+9*#52]
G2 I-0.00425 J0
G1 Z[#50+8*#52]
G2 I-0.00425 J0
G1 Z[#50+7*#52]
G2 I-0.00425 J0
G1 Z[#50+6*#52]
G2 I-0.00425 J0
G1 Z[#50+5*#52]
G2 I-0.00425 J0
G1 Z[#50+4*#52]
G2 I-0.00425 J0
G1 Z[#50+3*#52]
G2 I-0.00425 J0
G1 Z[#50+2*#52]
G2 I-0.00425 J0
G1 Z[#50+1*#52]
G2 I-0.00425 J0
G1 Z[#50+0*#52]
G2 I-0.00425 J0
G0 Z0.19685

G0 X0.45385 Y1.06010
G1 Z[#50+30*#52]
G2 I-0.00425 J0
G1 Z[#50+29*#52]
G2 I-0.00425 J0
G1 Z[#50+28*#52]
G2 I-0.00425 J0
G1 Z[#50+27*#52]
G2 I-0.00425 J0
G1 Z[#50+26*#52]
G2 I-0.00425 J0
G1 Z[#50+25*#52]
G2 I-0.00425 J0
G1 Z[#50+24*#52]
G2 I-0.00425 J0
G1 Z[#50+23*#52]
G2 I-0.00425 J0
G1 Z[#50+22*#52]
G2 I-0.00425 J0
G1 Z[#50+21*#52]
G2 I-0.00425 J0
G1 Z[#50+20*#52]
G2 I-0.00425 J0
G1 Z[#50+19*#52]
G2 I-0.00425 J0
G1 Z[#50+18*#52]
G2 I-0.00425 J0
G1 Z[#50+17*#52]
G2 I-0.00425 J0
G1 Z[#50+16*#52]
G2 I-0.00425 J0
G1 Z[#50+15*#52]
G2 I-0.00425 J0
G1 Z[#50+14*#52]
G2 I-0.00425 J0
G1 Z[#50+13*#52]
G2 I-0.00425 J0
G1 Z[#50+12*#52]
G2 I-0.00425 J0
G1 Z[#50+11*#52]
G2 I-0.00425 J0
G1 Z[#50+10*#52]
G2 I-0.00425 J0
G1 Z[#50+9*#52]
G2 I-0.00425 J0
G1 Z[#50+8*#52]
G2 I-0.00425 J0
G1 Z[#50+7*#52]
G2 I-0.00425 J0
G1 Z[#50+6*#52]
G2 I-0.00425 J0
G1 Z[#50+5*#52]
G2 I-0.00425 J0
G1 Z[#50+4*#52]
G2 I-0.00425 J0
G1 Z[#50+3*#52]
G2 I-0.00425 J0
G1 Z[#50+2*#52]
G2 I-0.00425 J0
G1 Z[#50+1*#52]
G2 I-0.00425 J0
G1 Z[#50+0*#52]
G2 I-0.00425 J0
G0 Z0.19685

G0 X1.95385 Y1.06010
G1 Z[#50+30*#52]
G2 I-0.00425 J0
G1 Z[#50+29*#52]
G2 I-0.00425 J0
G1 Z[#50+28*#52]
G2 I-0.00425 J0
G1 Z[#50+27*#52]
G2 I-0.00425 J0
G1 Z[#50+26*#52]
G2 I-0.00425 J0
G1 Z[#50+25*#52]
G2 I-0.00425 J0
G1 Z[#50+24*#52]
G2 I-0.00425 J0
G1 Z[#50+23*#52]
G2 I-0.00425 J0
G1 Z[#50+22*#52]
G2 I-0.00425 J0
G1 Z[#50+21*#52]
G2 I-0.00425 J0
G1 Z[#50+20*#52]
G2 I-0.00425 J0
G1 Z[#50+19*#52]
G2 I-0.00425 J0
G1 Z[#50+18*#52]
G2 I-0.00425 J0
G1 Z[#50+17*#52]
G2 I-0.00425 J0
G1 Z[#50+16*#52]
G2 I-0.00425 J0
G1 Z[#50+15*#52]
G2 I-0.00425 J0
G1 Z[#50+14*#52]
G2 I-0.00425 J0
G1 Z[#50+13*#52]
G2 I-0.00425 J0
G1 Z[#50+12*#52]
G2 I-0.00425 J0
G1 Z[#50+11*#52]
G2 I-0.00425 J0
G1 Z[#50+10*#52]
G2 I-0.00425 J0
G1 Z[#50+9*#52]
G2 I-0.00425 J0
G1 Z[#50+8*#52]
G2 I-0.00425 J0
G1 Z[#50+7*#52]
G2 I-0.00425 J0
G1 Z[#50+6*#52]
G2 I-0.00425 J0
G1 Z[#50+5*#52]
G2 I-0.00425 J0
G1 Z[#50+4*#52]
G2 I-0.00425 J0
G1 Z[#50+3*#52]
G2 I-0.00425 J0
G1 Z[#50+2*#52]
G2 I-0.00425 J0
G1 Z[#50+1*#52]
G2 I-0.00425 J0
G1 Z[#50+0*#52]
G2 I-0.00425 J0
G0 Z0.19685

G0 X1.95385 Y1.16010
G1 Z[#50+30*#52]
G2 I-0.00425 J0
G1 Z[#50+29*#52]
G2 I-0.00425 J0
G1 Z[#50+28*#52]
G2 I-0.00425 J0
G1 Z[#50+27*#52]
G2 I-0.00425 J0
G1 Z[#50+26*#52]
G2 I-0.00425 J0
G1 Z[#50+25*#52]
G2 I-0.00425 J0
G1 Z[#50+24*#52]
G2 I-0.00425 J0
G1 Z[#50+23*#52]
G2 I-0.00425 J0
G1 Z[#50+22*#52]
G2 I-0.00425 J0
G1 Z[#50+21*#52]
G2 I-0.00425 J0
G1 Z[#50+20*#52]
G2 I-0.00425 J0
G1 Z[#50+19*#52]
G2 I-0.00425 J0
G1 Z[#50+18*#52]
G2 I-0.00425 J0
G1 Z[#50+17*#52]
G2 I-0.00425 J0
G1 Z[#50+16*#52]
G2 I-0.00425 J0
G1 Z[#50+15*#52]
G2 I-0.00425 J0
G1 Z[#50+14*#52]
G2 I-0.00425 J0
G1 Z[#50+13*#52]
G2 I-0.00425 J0
G1 Z[#50+12*#52]
G2 I-0.00425 J0
G1 Z[#50+11*#52]
G2 I-0.00425 J0
G1 Z[#50+10*#52]
G2 I-0.00425 J0
G1 Z[#50+9*#52]
G2 I-0.00425 J0
G1 Z[#50+8*#52]
G2 I-0.00425 J0
G1 Z[#50+7*#52]
G2 I-0.00425 J0
G1 Z[#50+6*#52]
G2 I-0.00425 J0
G1 Z[#50+5*#52]
G2 I-0.00425 J0
G1 Z[#50+4*#52]
G2 I-0.00425 J0
G1 Z[#50+3*#52]
G2 I-0.00425 J0
G1 Z[#50+2*#52]
G2 I-0.00425 J0
G1 Z[#50+1*#52]
G2 I-0.00425 J0
G1 Z[#50+0*#52]
G2 I-0.00425 J0
G0 Z0.19685

G0 X1.95385 Y1.26010
G1 Z[#50+30*#52]
G2 I-0.00425 J0
G1 Z[#50+29*#52]
G2 I-0.00425 J0
G1 Z[#50+28*#52]
G2 I-0.00425 J0
G1 Z[#50+27*#52]
G2 I-0.00425 J0
G1 Z[#50+26*#52]
G2 I-0.00425 J0
G1 Z[#50+25*#52]
G2 I-0.00425 J0
G1 Z[#50+24*#52]
G2 I-0.00425 J0
G1 Z[#50+23*#52]
G2 I-0.00425 J0
G1 Z[#50+22*#52]
G2 I-0.00425 J0
G1 Z[#50+21*#52]
G2 I-0.00425 J0
G1 Z[#50+20*#52]
G2 I-0.00425 J0
G1 Z[#50+19*#52]
G2 I-0.00425 J0
G1 Z[#50+18*#52]
G2 I-0.00425 J0
G1 Z[#50+17*#52]
G2 I-0.00425 J0
G1 Z[#50+16*#52]
G2 I-0.00425 J0
G1 Z[#50+15*#52]
G2 I-0.00425 J0
G1 Z[#50+14*#52]
G2 I-0.00425 J0
G1 Z[#50+13*#52]
G2 I-0.00425 J0
G1 Z[#50+12*#52]
G2 I-0.00425 J0
G1 Z[#50+11*#52]
G2 I-0.00425 J0
G1 Z[#50+10*#52]
G2 I-0.00425 J0
G1 Z[#50+9*#52]
G2 I-0.00425 J0
G1 Z[#50+8*#52]
G2 I-0.00425 J0
G1 Z[#50+7*#52]
G2 I-0.00425 J0
G1 Z[#50+6*#52]
G2 I-0.00425 J0
G1 Z[#50+5*#52]
G2 I-0.00425 J0
G1 Z[#50+4*#52]
G2 I-0.00425 J0
G1 Z[#50+3*#52]
G2 I-0.00425 J0
G1 Z[#50+2*#52]
G2 I-0.00425 J0
G1 Z[#50+1*#52]
G2 I-0.00425 J0
G1 Z[#50+0*#52]
G2 I-0.00425 J0
G0 Z0.19685

G0 X1.95385 Y0.96010
G1 Z[#50+30*#52]
G2 I-0.00425 J0
G1 Z[#50+29*#52]
G2 I-0.00425 J0
G1 Z[#50+28*#52]
G2 I-0.00425 J0
G1 Z[#50+27*#52]
G2 I-0.00425 J0
G1 Z[#50+26*#52]
G2 I-0.00425 J0
G1 Z[#50+25*#52]
G2 I-0.00425 J0
G1 Z[#50+24*#52]
G2 I-0.00425 J0
G1 Z[#50+23*#52]
G2 I-0.00425 J0
G1 Z[#50+22*#52]
G2 I-0.00425 J0
G1 Z[#50+21*#52]
G2 I-0.00425 J0
G1 Z[#50+20*#52]
G2 I-0.00425 J0
G1 Z[#50+19*#52]
G2 I-0.00425 J0
G1 Z[#50+18*#52]
G2 I-0.00425 J0
G1 Z[#50+17*#52]
G2 I-0.00425 J0
G1 Z[#50+16*#52]
G2 I-0.00425 J0
G1 Z[#50+15*#52]
G2 I-0.00425 J0
G1 Z[#50+14*#52]
G2 I-0.00425 J0
G1 Z[#50+13*#52]
G2 I-0.00425 J0
G1 Z[#50+12*#52]
G2 I-0.00425 J0
G1 Z[#50+11*#52]
G2 I-0.00425 J0
G1 Z[#50+10*#52]
G2 I-0.00425 J0
G1 Z[#50+9*#52]
G2 I-0.00425 J0
G1 Z[#50+8*#52]
G2 I-0.00425 J0
G1 Z[#50+7*#52]
G2 I-0.00425 J0
G1 Z[#50+6*#52]
G2 I-0.00425 J0
G1 Z[#50+5*#52]
G2 I-0.00425 J0
G1 Z[#50+4*#52]
G2 I-0.00425 J0
G1 Z[#50+3*#52]
G2 I-0.00425 J0
G1 Z[#50+2*#52]
G2 I-0.00425 J0
G1 Z[#50+1*#52]
G2 I-0.00425 J0
G1 Z[#50+0*#52]
G2 I-0.00425 J0
G0 Z0.19685

G0 X1.95385 Y0.86010
G1 Z[#50+30*#52]
G2 I-0.00425 J0
G1 Z[#50+29*#52]
G2 I-0.00425 J0
G1 Z[#50+28*#52]
G2 I-0.00425 J0
G1 Z[#50+27*#52]
G2 I-0.00425 J0
G1 Z[#50+26*#52]
G2 I-0.00425 J0
G1 Z[#50+25*#52]
G2 I-0.00425 J0
G1 Z[#50+24*#52]
G2 I-0.00425 J0
G1 Z[#50+23*#52]
G2 I-0.00425 J0
G1 Z[#50+22*#52]
G2 I-0.00425 J0
G1 Z[#50+21*#52]
G2 I-0.00425 J0
G1 Z[#50+20*#52]
G2 I-0.00425 J0
G1 Z[#50+19*#52]
G2 I-0.00425 J0
G1 Z[#50+18*#52]
G2 I-0.00425 J0
G1 Z[#50+17*#52]
G2 I-0.00425 J0
G1 Z[#50+16*#52]
G2 I-0.00425 J0
G1 Z[#50+15*#52]
G2 I-0.00425 J0
G1 Z[#50+14*#52]
G2 I-0.00425 J0
G1 Z[#50+13*#52]
G2 I-0.00425 J0
G1 Z[#50+12*#52]
G2 I-0.00425 J0
G1 Z[#50+11*#52]
G2 I-0.00425 J0
G1 Z[#50+10*#52]
G2 I-0.00425 J0
G1 Z[#50+9*#52]
G2 I-0.00425 J0
G1 Z[#50+8*#52]
G2 I-0.00425 J0
G1 Z[#50+7*#52]
G2 I-0.00425 J0
G1 Z[#50+6*#52]
G2 I-0.00425 J0
G1 Z[#50+5*#52]
G2 I-0.00425 J0
G1 Z[#50+4*#52]
G2 I-0.00425 J0
G1 Z[#50+3*#52]
G2 I-0.00425 J0
G1 Z[#50+2*#52]
G2 I-0.00425 J0
G1 Z[#50+1*#52]
G2 I-0.00425 J0
G1 Z[#50+0*#52]
G2 I-0.00425 J0
G0 Z0.19685

G0 X1.95385 Y0.76010
G1 Z[#50+30*#52]
G2 I-0.00425 J0
G1 Z[#50+29*#52]
G2 I-0.00425 J0
G1 Z[#50+28*#52]
G2 I-0.00425 J0
G1 Z[#50+27*#52]
G2 I-0.00425 J0
G1 Z[#50+26*#52]
G2 I-0.00425 J0
G1 Z[#50+25*#52]
G2 I-0.00425 J0
G1 Z[#50+24*#52]
G2 I-0.00425 J0
G1 Z[#50+23*#52]
G2 I-0.00425 J0
G1 Z[#50+22*#52]
G2 I-0.00425 J0
G1 Z[#50+21*#52]
G2 I-0.00425 J0
G1 Z[#50+20*#52]
G2 I-0.00425 J0
G1 Z[#50+19*#52]
G2 I-0.00425 J0
G1 Z[#50+18*#52]
G2 I-0.00425 J0
G1 Z[#50+17*#52]
G2 I-0.00425 J0
G1 Z[#50+16*#52]
G2 I-0.00425 J0
G1 Z[#50+15*#52]
G2 I-0.00425 J0
G1 Z[#50+14*#52]
G2 I-0.00425 J0
G1 Z[#50+13*#52]
G2 I-0.00425 J0
G1 Z[#50+12*#52]
G2 I-0.00425 J0
G1 Z[#50+11*#52]
G2 I-0.00425 J0
G1 Z[#50+10*#52]
G2 I-0.00425 J0
G1 Z[#50+9*#52]
G2 I-0.00425 J0
G1 Z[#50+8*#52]
G2 I-0.00425 J0
G1 Z[#50+7*#52]
G2 I-0.00425 J0
G1 Z[#50+6*#52]
G2 I-0.00425 J0
G1 Z[#50+5*#52]
G2 I-0.00425 J0
G1 Z[#50+4*#52]
G2 I-0.00425 J0
G1 Z[#50+3*#52]
G2 I-0.00425 J0
G1 Z[#50+2*#52]
G2 I-0.00425 J0
G1 Z[#50+1*#52]
G2 I-0.00425 J0
G1 Z[#50+0*#52]
G2 I-0.00425 J0
G0 Z0.19685

G0 X1.95385 Y0.66010
G1 Z[#50+30*#52]
G2 I-0.00425 J0
G1 Z[#50+29*#52]
G2 I-0.00425 J0
G1 Z[#50+28*#52]
G2 I-0.00425 J0
G1 Z[#50+27*#52]
G2 I-0.00425 J0
G1 Z[#50+26*#52]
G2 I-0.00425 J0
G1 Z[#50+25*#52]
G2 I-0.00425 J0
G1 Z[#50+24*#52]
G2 I-0.00425 J0
G1 Z[#50+23*#52]
G2 I-0.00425 J0
G1 Z[#50+22*#52]
G2 I-0.00425 J0
G1 Z[#50+21*#52]
G2 I-0.00425 J0
G1 Z[#50+20*#52]
G2 I-0.00425 J0
G1 Z[#50+19*#52]
G2 I-0.00425 J0
G1 Z[#50+18*#52]
G2 I-0.00425 J0
G1 Z[#50+17*#52]
G2 I-0.00425 J0
G1 Z[#50+16*#52]
G2 I-0.00425 J0
G1 Z[#50+15*#52]
G2 I-0.00425 J0
G1 Z[#50+14*#52]
G2 I-0.00425 J0
G1 Z[#50+13*#52]
G2 I-0.00425 J0
G1 Z[#50+12*#52]
G2 I-0.00425 J0
G1 Z[#50+11*#52]
G2 I-0.00425 J0
G1 Z[#50+10*#52]
G2 I-0.00425 J0
G1 Z[#50+9*#52]
G2 I-0.00425 J0
G1 Z[#50+8*#52]
G2 I-0.00425 J0
G1 Z[#50+7*#52]
G2 I-0.00425 J0
G1 Z[#50+6*#52]
G2 I-0.00425 J0
G1 Z[#50+5*#52]
G2 I-0.00425 J0
G1 Z[#50+4*#52]
G2 I-0.00425 J0
G1 Z[#50+3*#52]
G2 I-0.00425 J0
G1 Z[#50+2*#52]
G2 I-0.00425 J0
G1 Z[#50+1*#52]
G2 I-0.00425 J0
G1 Z[#50+0*#52]
G2 I-0.00425 J0
G0 Z0.19685

G0 X1.95385 Y0.56010
G1 Z[#50+30*#52]
G2 I-0.00425 J0
G1 Z[#50+29*#52]
G2 I-0.00425 J0
G1 Z[#50+28*#52]
G2 I-0.00425 J0
G1 Z[#50+27*#52]
G2 I-0.00425 J0
G1 Z[#50+26*#52]
G2 I-0.00425 J0
G1 Z[#50+25*#52]
G2 I-0.00425 J0
G1 Z[#50+24*#52]
G2 I-0.00425 J0
G1 Z[#50+23*#52]
G2 I-0.00425 J0
G1 Z[#50+22*#52]
G2 I-0.00425 J0
G1 Z[#50+21*#52]
G2 I-0.00425 J0
G1 Z[#50+20*#52]
G2 I-0.00425 J0
G1 Z[#50+19*#52]
G2 I-0.00425 J0
G1 Z[#50+18*#52]
G2 I-0.00425 J0
G1 Z[#50+17*#52]
G2 I-0.00425 J0
G1 Z[#50+16*#52]
G2 I-0.00425 J0
G1 Z[#50+15*#52]
G2 I-0.00425 J0
G1 Z[#50+14*#52]
G2 I-0.00425 J0
G1 Z[#50+13*#52]
G2 I-0.00425 J0
G1 Z[#50+12*#52]
G2 I-0.00425 J0
G1 Z[#50+11*#52]
G2 I-0.00425 J0
G1 Z[#50+10*#52]
G2 I-0.00425 J0
G1 Z[#50+9*#52]
G2 I-0.00425 J0
G1 Z[#50+8*#52]
G2 I-0.00425 J0
G1 Z[#50+7*#52]
G2 I-0.00425 J0
G1 Z[#50+6*#52]
G2 I-0.00425 J0
G1 Z[#50+5*#52]
G2 I-0.00425 J0
G1 Z[#50+4*#52]
G2 I-0.00425 J0
G1 Z[#50+3*#52]
G2 I-0.00425 J0
G1 Z[#50+2*#52]
G2 I-0.00425 J0
G1 Z[#50+1*#52]
G2 I-0.00425 J0
G1 Z[#50+0*#52]
G2 I-0.00425 J0
G0 Z0.19685

G00 Z1.18110 ( All done -- retract )

M9 ( Coolant off. )
M2 ( Program end. )

