( pcb2gcode 1.1.2 )

G94     ( Inches per minute feed rate. )
G20     ( Units == INCHES.             )
G90     ( Absolute coordinates.        )
S20000  ( RPM spindle speed.           )
M3      ( Spindle on clockwise.        )

G64 P0.00075 ( set maximum deviation from commanded toolpath )

G04 P0 ( dwell for no time -- G64 should not smooth over this point )
G00 Z0.19685 ( retract )

G00 X1.68200 Y1.54220 ( rapid move to begin. )
G01 Z-0.11417 F43.30709 ( plunge. )
G04 P0 ( dwell for no time -- G64 should not smooth over this point )
X1.68200 Y1.54220
X1.68200 Y1.54120
X1.68100 Y1.54120
X1.68100 Y1.54020
X1.68000 Y1.54020
X1.68000 Y1.53920
X1.67900 Y1.53920
X1.67900 Y1.53820
X1.67800 Y1.53820
X1.67800 Y1.53720
X1.67700 Y1.53720
X1.67700 Y1.53620
X1.67600 Y1.53620
X1.67600 Y1.53520
X1.67500 Y1.53520
X1.67500 Y1.53420
X1.67400 Y1.53420
X1.67400 Y1.53320
X1.67300 Y1.53320
X1.67300 Y1.53220
X1.67200 Y1.53220
X1.67200 Y1.53120
X1.67100 Y1.53120
X1.67100 Y1.53020
X1.67000 Y1.53020
X1.67000 Y1.52920
X1.66900 Y1.52920
X1.66900 Y1.52820
X1.66800 Y1.52820
X1.66800 Y1.52720
X1.66700 Y1.52720
X1.66700 Y1.52620
X1.66600 Y1.52620
X1.66600 Y1.52520
X1.66500 Y1.52520
X1.66500 Y1.52420
X1.66400 Y1.52420
X1.66400 Y1.52320
X1.66300 Y1.52320
X1.66300 Y1.52220
X1.66200 Y1.52220
X1.66200 Y1.52120
X1.66100 Y1.52120
X1.66100 Y1.52020
X1.66000 Y1.52020
X1.66000 Y1.51920
X1.65900 Y1.51920
X1.65900 Y1.51820
X1.65800 Y1.51820
X1.65800 Y1.51720
X1.65700 Y1.51720
X1.65700 Y1.51620
X1.65600 Y1.51620
X1.65600 Y1.51520
X1.65500 Y1.51520
X1.65500 Y1.51420
X1.65400 Y1.51420
X1.65400 Y1.51320
X1.65300 Y1.51320
X1.65300 Y1.51220
X1.65200 Y1.51220
X1.65200 Y1.51120
X1.65100 Y1.51120
X1.65100 Y1.51020
X1.65000 Y1.51020
X1.65000 Y1.50920
X1.64900 Y1.50920
X1.64900 Y1.50820
X1.64800 Y1.50820
X1.64800 Y1.50720
X1.64700 Y1.50720
X1.64700 Y1.50620
X1.64600 Y1.50620
X1.64600 Y1.50520
X1.64500 Y1.50520
X1.64500 Y1.50420
X1.64400 Y1.50420
X1.64400 Y1.50320
X1.64300 Y1.50320
X1.64300 Y1.50220
X1.64200 Y1.50220
X1.64200 Y1.50120
X1.64100 Y1.50120
X1.64100 Y1.50020
X1.64000 Y1.50020
X1.64000 Y1.49920
X1.63900 Y1.49920
X1.63900 Y1.49820
X1.63800 Y1.49820
X1.63800 Y1.49720
X1.63700 Y1.49720
X1.63700 Y1.49620
X1.63600 Y1.49620
X1.63600 Y1.49520
X1.63500 Y1.49520
X1.63500 Y1.49420
X1.63400 Y1.49420
X1.63400 Y1.49220
X1.63300 Y1.49220
X1.63300 Y1.48920
X1.63200 Y1.48920
X1.63200 Y1.48620
X1.63100 Y1.48620
X1.63100 Y1.48320
X1.63000 Y1.48320
X1.63000 Y1.48020
X1.62900 Y1.48020
X1.62900 Y1.47720
X1.62800 Y1.47720
X1.62800 Y1.47420
X1.62700 Y1.47420
X1.62700 Y1.47120
X1.62600 Y1.47120
X1.62600 Y1.46820
X1.62500 Y1.46820
X1.62500 Y1.30020
X1.62400 Y1.30020
X1.62400 Y1.29720
X1.62300 Y1.29720
X1.62300 Y1.29420
X1.62200 Y1.29420
X1.62200 Y1.29120
X1.62100 Y1.29120
X1.62100 Y1.28820
X1.62000 Y1.28820
X1.62000 Y1.28520
X1.61900 Y1.28520
X1.61900 Y1.28220
X1.61800 Y1.28220
X1.61800 Y1.27920
X1.61700 Y1.27920
X1.61700 Y1.27620
X1.61600 Y1.27620
X1.61600 Y1.27520
X1.61500 Y1.27520
X1.61500 Y1.27420
X1.61400 Y1.27420
X1.61400 Y1.27320
X1.61300 Y1.27320
X1.61300 Y1.27220
X1.61200 Y1.27220
X1.61200 Y1.27120
X1.61100 Y1.27120
X1.61100 Y1.27020
X1.61000 Y1.27020
X1.61000 Y1.26920
X1.60900 Y1.26920
X1.60900 Y1.26820
X1.60800 Y1.26820
X1.60800 Y1.26720
X1.60700 Y1.26720
X1.60700 Y1.26620
X1.60600 Y1.26620
X1.60600 Y1.26520
X1.60500 Y1.26520
X1.60500 Y1.26420
X1.60400 Y1.26420
X1.60400 Y1.26320
X1.60300 Y1.26320
X1.60300 Y1.26220
X1.60200 Y1.26220
X1.60200 Y1.26120
X1.60100 Y1.26120
X1.60100 Y1.26020
X1.60000 Y1.26020
X1.60000 Y1.25920
X1.59900 Y1.25920
X1.59900 Y1.25820
X1.59800 Y1.25820
X1.59800 Y1.25720
X1.59700 Y1.25720
X1.59700 Y1.25620
X1.59600 Y1.25620
X1.59600 Y1.25520
X1.59500 Y1.25520
X1.59500 Y1.25420
X1.59400 Y1.25420
X1.59400 Y1.25320
X1.59300 Y1.25320
X1.59300 Y1.25220
X1.59200 Y1.25220
X1.59200 Y1.25120
X1.59100 Y1.25120
X1.59100 Y1.25020
X1.59000 Y1.25020
X1.59000 Y1.24920
X1.58900 Y1.24920
X1.58900 Y1.24820
X1.58800 Y1.24820
X1.58800 Y1.24720
X1.58700 Y1.24720
X1.58700 Y1.24620
X1.58600 Y1.24620
X1.58600 Y1.24520
X1.58500 Y1.24520
X1.58500 Y1.24420
X1.58400 Y1.24420
X1.58400 Y1.24320
X1.58300 Y1.24320
X1.58300 Y1.24220
X1.58200 Y1.24220
X1.58200 Y1.24120
X1.58100 Y1.24120
X1.58100 Y1.24020
X1.58000 Y1.24020
X1.58000 Y1.23920
X1.57900 Y1.23920
X1.57900 Y1.23820
X1.57800 Y1.23820
X1.57800 Y1.23720
X1.57700 Y1.23720
X1.57700 Y1.23620
X1.57600 Y1.23620
X1.57600 Y1.23520
X1.57500 Y1.23520
X1.57500 Y1.23420
X1.57400 Y1.23420
X1.57400 Y1.23320
X1.57300 Y1.23320
X1.57300 Y1.23220
X1.57200 Y1.23220
X1.57200 Y1.23120
X1.57100 Y1.23120
X1.57100 Y1.23020
X1.57000 Y1.23020
X1.57000 Y1.22920
X1.56900 Y1.22920
X1.56900 Y1.22820
X1.56800 Y1.22820
X1.56800 Y1.22720
X1.56700 Y1.22720
X1.56700 Y1.22620
X1.56600 Y1.22620
X1.56600 Y1.22520
X1.56500 Y1.22520
X1.56500 Y1.22420
X1.56400 Y1.22420
X1.56400 Y1.22320
X1.56300 Y1.22320
X1.56300 Y1.22220
X1.56200 Y1.22220
X1.56200 Y1.22120
X1.56100 Y1.22120
X1.56100 Y1.22020
X1.56000 Y1.22020
X1.56000 Y1.21920
X1.55900 Y1.21920
X1.55900 Y1.21820
X1.55800 Y1.21820
X1.55800 Y1.21720
X1.55700 Y1.21720
X1.55700 Y1.21620
X1.55600 Y1.21620
X1.55600 Y1.21520
X1.55500 Y1.21520
X1.55500 Y1.21420
X1.55400 Y1.21420
X1.55400 Y1.21320
X1.55300 Y1.21320
X1.55300 Y1.21220
X1.55200 Y1.21220
X1.55200 Y1.21020
X1.55000 Y1.21020
X1.55000 Y1.20920
X1.54900 Y1.20920
X1.54900 Y1.20820
X1.54800 Y1.20820
X1.54800 Y1.20720
X1.54700 Y1.20720
X1.54700 Y1.20620
X1.54600 Y1.20620
X1.54600 Y1.20520
X1.54500 Y1.20520
X1.54500 Y1.20420
X1.54400 Y1.20420
X1.54400 Y1.20320
X1.54300 Y1.20320
X1.54300 Y1.20220
X1.54200 Y1.20220
X1.54200 Y1.20120
X1.54100 Y1.20120
X1.54100 Y1.20020
X1.54000 Y1.20020
X1.54000 Y1.19920
X1.53900 Y1.19920
X1.53900 Y1.19820
X1.53800 Y1.19820
X1.53800 Y1.19720
X1.53700 Y1.19720
X1.53700 Y1.19620
X1.53600 Y1.19620
X1.53600 Y1.19520
X1.53500 Y1.19520
X1.53500 Y1.19420
X1.53400 Y1.19420
X1.53400 Y1.19320
X1.53300 Y1.19320
X1.53300 Y1.19220
X1.53200 Y1.19220
X1.53200 Y1.19120
X1.53100 Y1.19120
X1.53100 Y1.19020
X1.53000 Y1.19020
X1.53000 Y1.18920
X1.52900 Y1.18920
X1.52900 Y1.18820
X1.52800 Y1.18820
X1.52800 Y1.18720
X1.52700 Y1.18720
X1.52700 Y1.18620
X1.52600 Y1.18620
X1.52600 Y1.18520
X1.52500 Y1.18520
X1.52500 Y1.18420
X1.52400 Y1.18420
X1.52400 Y1.18320
X1.52300 Y1.18320
X1.52300 Y1.18220
X1.52200 Y1.18220
X1.52200 Y1.18120
X1.52100 Y1.18120
X1.52100 Y1.18020
X1.52000 Y1.18020
X1.52000 Y1.17920
X1.51900 Y1.17920
X1.51900 Y1.17820
X1.51600 Y1.17820
X1.51600 Y1.17920
X1.51500 Y1.17920
X1.51500 Y1.18020
X1.51100 Y1.18020
X1.51100 Y1.18120
X1.50700 Y1.18120
X1.50700 Y1.18220
X1.50600 Y1.18220
X1.50600 Y1.18320
X1.44700 Y1.18320
X1.44700 Y1.18420
X1.44600 Y1.18420
X1.44600 Y1.18520
X1.44500 Y1.18520
X1.44500 Y1.18720
X1.44200 Y1.18720
X1.44200 Y1.18920
X1.44100 Y1.18920
X1.44100 Y1.19020
X1.44000 Y1.19020
X1.44000 Y1.19120
X1.43900 Y1.19120
X1.43900 Y1.19220
X1.43800 Y1.19220
X1.43800 Y1.19320
X1.43700 Y1.19320
X1.43700 Y1.19420
X1.43600 Y1.19420
X1.43600 Y1.19520
X1.43500 Y1.19520
X1.43500 Y1.19620
X1.43400 Y1.19620
X1.43400 Y1.19720
X1.43300 Y1.19720
X1.43300 Y1.19820
X1.43200 Y1.19820
X1.43200 Y1.19920
X1.43100 Y1.19920
X1.43100 Y1.20020
X1.43000 Y1.20020
X1.43000 Y1.20120
X1.42900 Y1.20120
X1.42900 Y1.20220
X1.42800 Y1.20220
X1.42800 Y1.20320
X1.42700 Y1.20320
X1.42700 Y1.20420
X1.42600 Y1.20420
X1.42600 Y1.20520
X1.42500 Y1.20520
X1.42500 Y1.20620
X1.42400 Y1.20620
X1.42400 Y1.20720
X1.42300 Y1.20720
X1.42300 Y1.20820
X1.42200 Y1.20820
X1.42200 Y1.20920
X1.42100 Y1.20920
X1.42100 Y1.21020
X1.42000 Y1.21020
X1.42000 Y1.21120
X1.41900 Y1.21120
X1.41900 Y1.21220
X1.41800 Y1.21220
X1.41800 Y1.21320
X1.41700 Y1.21320
X1.41700 Y1.21420
X1.41600 Y1.21420
X1.41600 Y1.21520
X1.41500 Y1.21520
X1.41500 Y1.21620
X1.41400 Y1.21620
X1.41400 Y1.21720
X1.41300 Y1.21720
X1.41300 Y1.21820
X1.41200 Y1.21820
X1.41200 Y1.21920
X1.41100 Y1.21920
X1.41100 Y1.22020
X1.41000 Y1.22020
X1.41000 Y1.22120
X1.40900 Y1.22120
X1.40900 Y1.22220
X1.40800 Y1.22220
X1.40800 Y1.22320
X1.40700 Y1.22320
X1.40700 Y1.22420
X1.40600 Y1.22420
X1.40600 Y1.22520
X1.40500 Y1.22520
X1.40500 Y1.22620
X1.40400 Y1.22620
X1.40400 Y1.22720
X1.40300 Y1.22720
X1.40300 Y1.22820
X1.40200 Y1.22820
X1.40200 Y1.22920
X1.40100 Y1.22920
X1.40100 Y1.23020
X1.40000 Y1.23020
X1.40000 Y1.23120
X1.39900 Y1.23120
X1.39900 Y1.23220
X1.39800 Y1.23220
X1.39800 Y1.23320
X1.39700 Y1.23320
X1.39700 Y1.23420
X1.39600 Y1.23420
X1.39600 Y1.23520
X1.39500 Y1.23520
X1.39500 Y1.23620
X1.39400 Y1.23620
X1.39400 Y1.23720
X1.39300 Y1.23720
X1.39300 Y1.23820
X1.39200 Y1.23820
X1.39200 Y1.23920
X1.39100 Y1.23920
X1.39100 Y1.24020
X1.39000 Y1.24020
X1.39000 Y1.24120
X1.38900 Y1.24120
X1.38900 Y1.24220
X1.38800 Y1.24220
X1.38800 Y1.24320
X1.38700 Y1.24320
X1.38700 Y1.24420
X1.38600 Y1.24420
X1.38600 Y1.24520
X1.38500 Y1.24520
X1.38500 Y1.24620
X1.38400 Y1.24620
X1.38400 Y1.24720
X1.38300 Y1.24720
X1.38300 Y1.24820
X1.38200 Y1.24820
X1.38200 Y1.24920
X1.38100 Y1.24920
X1.38100 Y1.25020
X1.38000 Y1.25020
X1.38000 Y1.25120
X1.37900 Y1.25120
X1.37900 Y1.25220
X1.37800 Y1.25220
X1.37800 Y1.25320
X1.37700 Y1.25320
X1.37700 Y1.25420
X1.37600 Y1.25420
X1.37600 Y1.25520
X1.37500 Y1.25520
X1.37500 Y1.25620
X1.37400 Y1.25620
X1.37400 Y1.25720
X1.37300 Y1.25720
X1.37300 Y1.25820
X1.37200 Y1.25820
X1.37200 Y1.25920
X1.37100 Y1.25920
X1.37100 Y1.26020
X1.37000 Y1.26020
X1.37000 Y1.26120
X1.36900 Y1.26120
X1.36900 Y1.26220
X1.36800 Y1.26220
X1.36800 Y1.26320
X1.36700 Y1.26320
X1.36700 Y1.26420
X1.36600 Y1.26420
X1.36600 Y1.26520
X1.36500 Y1.26520
X1.36500 Y1.26620
X1.36400 Y1.26620
X1.36400 Y1.26720
X1.36300 Y1.26720
X1.36300 Y1.26820
X1.36200 Y1.26820
X1.36200 Y1.26920
X1.36100 Y1.26920
X1.36100 Y1.27020
X1.36000 Y1.27020
X1.36000 Y1.27120
X1.35900 Y1.27120
X1.35900 Y1.27220
X1.35800 Y1.27220
X1.35800 Y1.27320
X1.35700 Y1.27320
X1.35700 Y1.27420
X1.35600 Y1.27420
X1.35600 Y1.27520
X1.35500 Y1.27520
X1.35500 Y1.27620
X1.35400 Y1.27620
X1.35400 Y1.27720
X1.35300 Y1.27720
X1.35300 Y1.27820
X1.35200 Y1.27820
X1.35200 Y1.27920
X1.35100 Y1.27920
X1.35100 Y1.28020
X1.35000 Y1.28020
X1.35000 Y1.28120
X1.34900 Y1.28120
X1.34900 Y1.28220
X1.34800 Y1.28220
X1.34800 Y1.28320
X1.34700 Y1.28320
X1.34700 Y1.28420
X1.34600 Y1.28420
X1.34600 Y1.28520
X1.34500 Y1.28520
X1.34500 Y1.28720
X1.34200 Y1.28720
X1.34200 Y1.28920
X1.34100 Y1.28920
X1.34100 Y1.29020
X1.34000 Y1.29020
X1.34000 Y1.29120
X1.33900 Y1.29120
X1.33900 Y1.29220
X1.33800 Y1.29220
X1.33800 Y1.29320
X1.33700 Y1.29320
X1.33700 Y1.29420
X1.33600 Y1.29420
X1.33600 Y1.29520
X1.33500 Y1.29520
X1.33500 Y1.29620
X1.33400 Y1.29620
X1.33400 Y1.29720
X1.33300 Y1.29720
X1.33300 Y1.29820
X1.33200 Y1.29820
X1.33200 Y1.29920
X1.33100 Y1.29920
X1.33100 Y1.30020
X1.33000 Y1.30020
X1.33000 Y1.30120
X1.32900 Y1.30120
X1.32900 Y1.30220
X1.32800 Y1.30220
X1.32800 Y1.30320
X1.32700 Y1.30320
X1.32700 Y1.30420
X1.32600 Y1.30420
X1.32600 Y1.30520
X1.32500 Y1.30520
X1.32500 Y1.30620
X1.32400 Y1.30620
X1.32400 Y1.30720
X1.32300 Y1.30720
X1.32300 Y1.30820
X1.32200 Y1.30820
X1.32200 Y1.30920
X1.32100 Y1.30920
X1.32100 Y1.31020
X1.32000 Y1.31020
X1.32000 Y1.31120
X1.31900 Y1.31120
X1.31900 Y1.31220
X1.31800 Y1.31220
X1.31800 Y1.31320
X1.31700 Y1.31320
X1.31700 Y1.31420
X1.31600 Y1.31420
X1.31600 Y1.31520
X1.31500 Y1.31520
X1.31500 Y1.31620
X1.31400 Y1.31620
X1.31400 Y1.31720
X1.31300 Y1.31720
X1.31300 Y1.31820
X1.31200 Y1.31820
X1.31200 Y1.31920
X1.31100 Y1.31920
X1.31100 Y1.32020
X1.31000 Y1.32020
X1.31000 Y1.32120
X1.30900 Y1.32120
X1.30900 Y1.32220
X1.30800 Y1.32220
X1.30800 Y1.32320
X1.30700 Y1.32320
X1.30700 Y1.32420
X1.30600 Y1.32420
X1.30600 Y1.32520
X1.30500 Y1.32520
X1.30500 Y1.32620
X1.30400 Y1.32620
X1.30400 Y1.32720
X1.30300 Y1.32720
X1.30300 Y1.32820
X1.30200 Y1.32820
X1.30200 Y1.32920
X1.30100 Y1.32920
X1.30100 Y1.33020
X1.30000 Y1.33020
X1.30000 Y1.33120
X1.29900 Y1.33120
X1.29900 Y1.33220
X1.29800 Y1.33220
X1.29800 Y1.33320
X1.29700 Y1.33320
X1.29700 Y1.33420
X1.29600 Y1.33420
X1.29600 Y1.33520
X1.29500 Y1.33520
X1.29500 Y1.33620
X1.29400 Y1.33620
X1.29400 Y1.33720
X1.29300 Y1.33720
X1.29300 Y1.33820
X1.29200 Y1.33820
X1.29200 Y1.33920
X1.29100 Y1.33920
X1.29100 Y1.34020
X1.29000 Y1.34020
X1.29000 Y1.34120
X1.28900 Y1.34120
X1.28900 Y1.34220
X1.28800 Y1.34220
X1.28800 Y1.34320
X1.28700 Y1.34320
X1.28700 Y1.34420
X1.28600 Y1.34420
X1.28600 Y1.34520
X1.28500 Y1.34520
X1.28500 Y1.34620
X1.28400 Y1.34620
X1.28400 Y1.34720
X1.28300 Y1.34720
X1.28300 Y1.34820
X1.28200 Y1.34820
X1.28200 Y1.34920
X1.28100 Y1.34920
X1.28100 Y1.35020
X1.28000 Y1.35020
X1.28000 Y1.35120
X1.27900 Y1.35120
X1.27900 Y1.35220
X1.27800 Y1.35220
X1.27800 Y1.35320
X1.27700 Y1.35320
X1.27700 Y1.35420
X1.27600 Y1.35420
X1.27600 Y1.35520
X1.27500 Y1.35520
X1.27500 Y1.35620
X1.27400 Y1.35620
X1.27400 Y1.35720
X1.27300 Y1.35720
X1.27300 Y1.35820
X1.27200 Y1.35820
X1.27200 Y1.35920
X1.27100 Y1.35920
X1.27100 Y1.36020
X1.27000 Y1.36020
X1.27000 Y1.36120
X1.26900 Y1.36120
X1.26900 Y1.36220
X1.26800 Y1.36220
X1.26800 Y1.36520
X1.26700 Y1.36520
X1.26700 Y1.36820
X1.26600 Y1.36820
X1.26600 Y1.37120
X1.26500 Y1.37120
X1.26500 Y1.37420
X1.26400 Y1.37420
X1.26400 Y1.37720
X1.26300 Y1.37720
X1.26300 Y1.38020
X1.26200 Y1.38020
X1.26200 Y1.38320
X1.26100 Y1.38320
X1.26100 Y1.38720
X1.26000 Y1.38720
X1.26000 Y1.38920
X1.25900 Y1.38920
X1.25900 Y1.57520
X1.25800 Y1.57520
X1.25800 Y1.57620
X1.25700 Y1.57620
X1.25700 Y1.58520
X1.25600 Y1.58520
X1.25600 Y1.58620
X1.25500 Y1.58620
X1.25500 Y1.59020
X1.25400 Y1.59020
X1.25400 Y1.59220
X1.73100 Y1.59220
X1.73100 Y1.59020
X1.73000 Y1.59020
X1.73000 Y1.58920
X1.72900 Y1.58920
X1.72900 Y1.58820
X1.72800 Y1.58820
X1.72800 Y1.58720
X1.72700 Y1.58720
X1.72700 Y1.58620
X1.72600 Y1.58620
X1.72600 Y1.58520
X1.72500 Y1.58520
X1.72500 Y1.58420
X1.72400 Y1.58420
X1.72400 Y1.58320
X1.72300 Y1.58320
X1.72300 Y1.58220
X1.72200 Y1.58220
X1.72200 Y1.58120
X1.72100 Y1.58120
X1.72100 Y1.58020
X1.72000 Y1.58020
X1.72000 Y1.57920
X1.71900 Y1.57920
X1.71900 Y1.57820
X1.71800 Y1.57820
X1.71800 Y1.57720
X1.71700 Y1.57720
X1.71700 Y1.57620
X1.71600 Y1.57620
X1.71600 Y1.57520
X1.71500 Y1.57520
X1.71500 Y1.57420
X1.71400 Y1.57420
X1.71400 Y1.57320
X1.71300 Y1.57320
X1.71300 Y1.57220
X1.71200 Y1.57220
X1.71200 Y1.57120
X1.71100 Y1.57120
X1.71100 Y1.57020
X1.71000 Y1.57020
X1.71000 Y1.56920
X1.70900 Y1.56920
X1.70900 Y1.56820
X1.70800 Y1.56820
X1.70800 Y1.56720
X1.70700 Y1.56720
X1.70700 Y1.56620
X1.70600 Y1.56620
X1.70600 Y1.56520
X1.70500 Y1.56520
X1.70500 Y1.56420
X1.70400 Y1.56420
X1.70400 Y1.56320
X1.70300 Y1.56320
X1.70300 Y1.56220
X1.70200 Y1.56220
X1.70200 Y1.56120
X1.70100 Y1.56120
X1.70100 Y1.56020
X1.70000 Y1.56020
X1.70000 Y1.55920
X1.69900 Y1.55920
X1.69900 Y1.55820
X1.69800 Y1.55820
X1.69800 Y1.55720
X1.69700 Y1.55720
X1.69700 Y1.55620
X1.69600 Y1.55620
X1.69600 Y1.55520
X1.69500 Y1.55520
X1.69500 Y1.55420
X1.69400 Y1.55420
X1.69400 Y1.55320
X1.69300 Y1.55320
X1.69300 Y1.55220
X1.69200 Y1.55220
X1.69200 Y1.55120
X1.69100 Y1.55120
X1.69100 Y1.55020
X1.69000 Y1.55020
X1.69000 Y1.54920
X1.68900 Y1.54920
X1.68900 Y1.54820
X1.68800 Y1.54820
X1.68800 Y1.54720
X1.68700 Y1.54720
X1.68700 Y1.54620
X1.68600 Y1.54620
X1.68600 Y1.54520
X1.68500 Y1.54520
X1.68500 Y1.54420
X1.68400 Y1.54420
X1.68400 Y1.54320
X1.68300 Y1.54320
X1.68300 Y1.54220
X1.68200 Y1.54220
G04 P0 ( dwell for no time -- G64 should not smooth over this point )
G00 Z0.19685 ( retract )

G00 X0.73800 Y1.48620 ( rapid move to begin. )
G01 Z-0.11417 F43.30709 ( plunge. )
G04 P0 ( dwell for no time -- G64 should not smooth over this point )
X0.73800 Y1.48620
X0.73800 Y1.47820
X0.73700 Y1.47820
X0.73700 Y1.44320
X0.73800 Y1.44320
X0.73800 Y1.41220
X0.73900 Y1.41220
X0.73900 Y1.41020
X0.73800 Y1.41020
X0.73800 Y1.40920
X0.73500 Y1.40920
X0.73500 Y1.40820
X0.73200 Y1.40820
X0.73200 Y1.40720
X0.72900 Y1.40720
X0.72900 Y1.40620
X0.72600 Y1.40620
X0.72600 Y1.40520
X0.72300 Y1.40520
X0.72300 Y1.40420
X0.72000 Y1.40420
X0.72000 Y1.40320
X0.71900 Y1.40320
X0.71900 Y1.40220
X0.71700 Y1.40220
X0.71700 Y1.40120
X0.71600 Y1.40120
X0.71600 Y1.40020
X0.71400 Y1.40020
X0.71400 Y1.39920
X0.71300 Y1.39920
X0.71300 Y1.39820
X0.71100 Y1.39820
X0.71100 Y1.39720
X0.71000 Y1.39720
X0.71000 Y1.39620
X0.70900 Y1.39620
X0.70900 Y1.39520
X0.70800 Y1.39520
X0.70800 Y1.39420
X0.70700 Y1.39420
X0.70700 Y1.39320
X0.70600 Y1.39320
X0.70600 Y1.39220
X0.70500 Y1.39220
X0.70500 Y1.39120
X0.70400 Y1.39120
X0.70400 Y1.39020
X0.70300 Y1.39020
X0.70300 Y1.38920
X0.70200 Y1.38920
X0.70200 Y1.38820
X0.70100 Y1.38820
X0.70100 Y1.38720
X0.70000 Y1.38720
X0.70000 Y1.38620
X0.69900 Y1.38620
X0.69900 Y1.38520
X0.69800 Y1.38520
X0.69800 Y1.38420
X0.69700 Y1.38420
X0.69700 Y1.38320
X0.69600 Y1.38320
X0.69600 Y1.38220
X0.69500 Y1.38220
X0.69500 Y1.38120
X0.69400 Y1.38120
X0.69400 Y1.38020
X0.69300 Y1.38020
X0.69300 Y1.37920
X0.69200 Y1.37920
X0.69200 Y1.37820
X0.69100 Y1.37820
X0.69100 Y1.37720
X0.69000 Y1.37720
X0.69000 Y1.37620
X0.68900 Y1.37620
X0.68900 Y1.37520
X0.68800 Y1.37520
X0.68800 Y1.37420
X0.68700 Y1.37420
X0.68700 Y1.37320
X0.68600 Y1.37320
X0.68600 Y1.37220
X0.68500 Y1.37220
X0.68500 Y1.37120
X0.68400 Y1.37120
X0.68400 Y1.37020
X0.68300 Y1.37020
X0.68300 Y1.36920
X0.68200 Y1.36920
X0.68200 Y1.36820
X0.68100 Y1.36820
X0.68100 Y1.36720
X0.68000 Y1.36720
X0.68000 Y1.36620
X0.67900 Y1.36620
X0.67900 Y1.36520
X0.67800 Y1.36520
X0.67800 Y1.36420
X0.67700 Y1.36420
X0.67700 Y1.36320
X0.67600 Y1.36320
X0.67600 Y1.36220
X0.67500 Y1.36220
X0.67500 Y1.36120
X0.67400 Y1.36120
X0.67400 Y1.36020
X0.67300 Y1.36020
X0.67300 Y1.35920
X0.67200 Y1.35920
X0.67200 Y1.35820
X0.67100 Y1.35820
X0.67100 Y1.35720
X0.67000 Y1.35720
X0.67000 Y1.35620
X0.66900 Y1.35620
X0.66900 Y1.35520
X0.66800 Y1.35520
X0.66800 Y1.35420
X0.66700 Y1.35420
X0.66700 Y1.35320
X0.66600 Y1.35320
X0.66600 Y1.35220
X0.66500 Y1.35220
X0.66500 Y1.35120
X0.66400 Y1.35120
X0.66400 Y1.35020
X0.66300 Y1.35020
X0.66300 Y1.34920
X0.66200 Y1.34920
X0.66200 Y1.34820
X0.66100 Y1.34820
X0.66100 Y1.34720
X0.66000 Y1.34720
X0.66000 Y1.34620
X0.65900 Y1.34620
X0.65900 Y1.34520
X0.65800 Y1.34520
X0.65800 Y1.34420
X0.65700 Y1.34420
X0.65700 Y1.34320
X0.65600 Y1.34320
X0.65600 Y1.34220
X0.65500 Y1.34220
X0.65500 Y1.34120
X0.65400 Y1.34120
X0.65400 Y1.34020
X0.65300 Y1.34020
X0.65300 Y1.33920
X0.65200 Y1.33920
X0.65200 Y1.33820
X0.65100 Y1.33820
X0.65100 Y1.33720
X0.65000 Y1.33720
X0.65000 Y1.33620
X0.64900 Y1.33620
X0.64900 Y1.33520
X0.64800 Y1.33520
X0.64800 Y1.33420
X0.64700 Y1.33420
X0.64700 Y1.33320
X0.64600 Y1.33320
X0.64600 Y1.33220
X0.64500 Y1.33220
X0.64500 Y1.33120
X0.64400 Y1.33120
X0.64400 Y1.33020
X0.64300 Y1.33020
X0.64300 Y1.32920
X0.64200 Y1.32920
X0.64200 Y1.32820
X0.64100 Y1.32820
X0.64100 Y1.32720
X0.64000 Y1.32720
X0.64000 Y1.32620
X0.63900 Y1.32620
X0.63900 Y1.32520
X0.63800 Y1.32520
X0.63800 Y1.32420
X0.63700 Y1.32420
X0.63700 Y1.32320
X0.63600 Y1.32320
X0.63600 Y1.32220
X0.63500 Y1.32220
X0.63500 Y1.32120
X0.63400 Y1.32120
X0.63400 Y1.32020
X0.63300 Y1.32020
X0.63300 Y1.31920
X0.63200 Y1.31920
X0.63200 Y1.31820
X0.63100 Y1.31820
X0.63100 Y1.31720
X0.63000 Y1.31720
X0.63000 Y1.31620
X0.62900 Y1.31620
X0.62900 Y1.31520
X0.62700 Y1.31520
X0.62700 Y1.31620
X0.62600 Y1.31620
X0.62600 Y1.31720
X0.62500 Y1.31720
X0.62500 Y1.31820
X0.62400 Y1.31820
X0.62400 Y1.31920
X0.62300 Y1.31920
X0.62300 Y1.32020
X0.62200 Y1.32020
X0.62200 Y1.32120
X0.62100 Y1.32120
X0.62100 Y1.32220
X0.62000 Y1.32220
X0.62000 Y1.32320
X0.61900 Y1.32320
X0.61900 Y1.32420
X0.61800 Y1.32420
X0.61800 Y1.32520
X0.61700 Y1.32520
X0.61700 Y1.32620
X0.61600 Y1.32620
X0.61600 Y1.32720
X0.61500 Y1.32720
X0.61500 Y1.32820
X0.61400 Y1.32820
X0.61400 Y1.32920
X0.61300 Y1.32920
X0.61300 Y1.33020
X0.61200 Y1.33020
X0.61200 Y1.33120
X0.61100 Y1.33120
X0.61100 Y1.33220
X0.61000 Y1.33220
X0.61000 Y1.33320
X0.60900 Y1.33320
X0.60900 Y1.33420
X0.60800 Y1.33420
X0.60800 Y1.33520
X0.60700 Y1.33520
X0.60700 Y1.33620
X0.60600 Y1.33620
X0.60600 Y1.33720
X0.60500 Y1.33720
X0.60500 Y1.33820
X0.60400 Y1.33820
X0.60400 Y1.33920
X0.60300 Y1.33920
X0.60300 Y1.34020
X0.60200 Y1.34020
X0.60200 Y1.34120
X0.60100 Y1.34120
X0.60100 Y1.34220
X0.60000 Y1.34220
X0.60000 Y1.34320
X0.59900 Y1.34320
X0.59900 Y1.34420
X0.59800 Y1.34420
X0.59800 Y1.34720
X0.59700 Y1.34720
X0.59700 Y1.35020
X0.59600 Y1.35020
X0.59600 Y1.35320
X0.59500 Y1.35320
X0.59500 Y1.35420
X0.59400 Y1.35420
X0.59400 Y1.35520
X0.59200 Y1.35520
X0.59200 Y1.35720
X0.59100 Y1.35720
X0.59100 Y1.36020
X0.59000 Y1.36020
X0.59000 Y1.36120
X0.58900 Y1.36120
X0.58900 Y1.36220
X0.58800 Y1.36220
X0.58800 Y1.36320
X0.58700 Y1.36320
X0.58700 Y1.36620
X0.58600 Y1.36620
X0.58600 Y1.37020
X0.58500 Y1.37020
X0.58500 Y1.37120
X0.58400 Y1.37120
X0.58400 Y1.37520
X0.58300 Y1.37520
X0.58300 Y1.37620
X0.58200 Y1.37620
X0.58200 Y1.37920
X0.58100 Y1.37920
X0.58100 Y1.38020
X0.58000 Y1.38020
X0.58000 Y1.38320
X0.57900 Y1.38320
X0.57900 Y1.38420
X0.57800 Y1.38420
X0.57800 Y1.38620
X0.57700 Y1.38620
X0.57700 Y1.38720
X0.57600 Y1.38720
X0.57600 Y1.38820
X0.57500 Y1.38820
X0.57500 Y1.38920
X0.57400 Y1.38920
X0.57400 Y1.39020
X0.57300 Y1.39020
X0.57300 Y1.39120
X0.57200 Y1.39120
X0.57200 Y1.39220
X0.57100 Y1.39220
X0.57100 Y1.39320
X0.57000 Y1.39320
X0.57000 Y1.39420
X0.56900 Y1.39420
X0.56900 Y1.39520
X0.56800 Y1.39520
X0.56800 Y1.39620
X0.56700 Y1.39620
X0.56700 Y1.39720
X0.56600 Y1.39720
X0.56600 Y1.39820
X0.56500 Y1.39820
X0.56500 Y1.39920
X0.56400 Y1.39920
X0.56400 Y1.40020
X0.56300 Y1.40020
X0.56300 Y1.40120
X0.56200 Y1.40120
X0.56200 Y1.40220
X0.56100 Y1.40220
X0.56100 Y1.40320
X0.56000 Y1.40320
X0.56000 Y1.40420
X0.55900 Y1.40420
X0.55900 Y1.40520
X0.55800 Y1.40520
X0.55800 Y1.40620
X0.55700 Y1.40620
X0.55700 Y1.40720
X0.55600 Y1.40720
X0.55600 Y1.40820
X0.55500 Y1.40820
X0.55500 Y1.40920
X0.55400 Y1.40920
X0.55400 Y1.41020
X0.55300 Y1.41020
X0.55300 Y1.41120
X0.55200 Y1.41120
X0.55200 Y1.41220
X0.55100 Y1.41220
X0.55100 Y1.41320
X0.55000 Y1.41320
X0.55000 Y1.41420
X0.54900 Y1.41420
X0.54900 Y1.41520
X0.54800 Y1.41520
X0.54800 Y1.41620
X0.54700 Y1.41620
X0.54700 Y1.41720
X0.54600 Y1.41720
X0.54600 Y1.41820
X0.54500 Y1.41820
X0.54500 Y1.41920
X0.54400 Y1.41920
X0.54400 Y1.42020
X0.54300 Y1.42020
X0.54300 Y1.42120
X0.54200 Y1.42120
X0.54200 Y1.42220
X0.54100 Y1.42220
X0.54100 Y1.42320
X0.54000 Y1.42320
X0.54000 Y1.42420
X0.53900 Y1.42420
X0.53900 Y1.42520
X0.53800 Y1.42520
X0.53800 Y1.42620
X0.53700 Y1.42620
X0.53700 Y1.42720
X0.53600 Y1.42720
X0.53600 Y1.42820
X0.53500 Y1.42820
X0.53500 Y1.42920
X0.53400 Y1.42920
X0.53400 Y1.43020
X0.53300 Y1.43020
X0.53300 Y1.43120
X0.53200 Y1.43120
X0.53200 Y1.43220
X0.53100 Y1.43220
X0.53100 Y1.43320
X0.53000 Y1.43320
X0.53000 Y1.43420
X0.52900 Y1.43420
X0.52900 Y1.43520
X0.52800 Y1.43520
X0.52800 Y1.43620
X0.52700 Y1.43620
X0.52700 Y1.43720
X0.52600 Y1.43720
X0.52600 Y1.43820
X0.52500 Y1.43820
X0.52500 Y1.43920
X0.52400 Y1.43920
X0.52400 Y1.44020
X0.52300 Y1.44020
X0.52300 Y1.44120
X0.52200 Y1.44120
X0.52200 Y1.44220
X0.52100 Y1.44220
X0.52100 Y1.44320
X0.52000 Y1.44320
X0.52000 Y1.44420
X0.51900 Y1.44420
X0.51900 Y1.44520
X0.51800 Y1.44520
X0.51800 Y1.44620
X0.51700 Y1.44620
X0.51700 Y1.44720
X0.51600 Y1.44720
X0.51600 Y1.44820
X0.51500 Y1.44820
X0.51500 Y1.44920
X0.51400 Y1.44920
X0.51400 Y1.45020
X0.51300 Y1.45020
X0.51300 Y1.45120
X0.51200 Y1.45120
X0.51200 Y1.45220
X0.51100 Y1.45220
X0.51100 Y1.45320
X0.51000 Y1.45320
X0.51000 Y1.45420
X0.50900 Y1.45420
X0.50900 Y1.45520
X0.50800 Y1.45520
X0.50800 Y1.45620
X0.50700 Y1.45620
X0.50700 Y1.45720
X0.50600 Y1.45720
X0.50600 Y1.45820
X0.50500 Y1.45820
X0.50500 Y1.45920
X0.50400 Y1.45920
X0.50400 Y1.46020
X0.50300 Y1.46020
X0.50300 Y1.46120
X0.50200 Y1.46120
X0.50200 Y1.46220
X0.50100 Y1.46220
X0.50100 Y1.46320
X0.50000 Y1.46320
X0.50000 Y1.46420
X0.49900 Y1.46420
X0.49900 Y1.46520
X0.49800 Y1.46520
X0.49800 Y1.46620
X0.49700 Y1.46620
X0.49700 Y1.46720
X0.49600 Y1.46720
X0.49600 Y1.46820
X0.49500 Y1.46820
X0.49500 Y1.46920
X0.49400 Y1.46920
X0.49400 Y1.47020
X0.49300 Y1.47020
X0.49300 Y1.47120
X0.49200 Y1.47120
X0.49200 Y1.47220
X0.49100 Y1.47220
X0.49100 Y1.47320
X0.49000 Y1.47320
X0.49000 Y1.47420
X0.48900 Y1.47420
X0.48900 Y1.47520
X0.48800 Y1.47520
X0.48800 Y1.47620
X0.48700 Y1.47620
X0.48700 Y1.47720
X0.48600 Y1.47720
X0.48600 Y1.47820
X0.48500 Y1.47820
X0.48500 Y1.47920
X0.48400 Y1.47920
X0.48400 Y1.48020
X0.48300 Y1.48020
X0.48300 Y1.48120
X0.48200 Y1.48120
X0.48200 Y1.48220
X0.48100 Y1.48220
X0.48100 Y1.48320
X0.48000 Y1.48320
X0.48000 Y1.48420
X0.47900 Y1.48420
X0.47900 Y1.48520
X0.47800 Y1.48520
X0.47800 Y1.48620
X0.47700 Y1.48620
X0.47700 Y1.48720
X0.47600 Y1.48720
X0.47600 Y1.48820
X0.47500 Y1.48820
X0.47500 Y1.48920
X0.47400 Y1.48920
X0.47400 Y1.49020
X0.47300 Y1.49020
X0.47300 Y1.49120
X0.47200 Y1.49120
X0.47200 Y1.49220
X0.47100 Y1.49220
X0.47100 Y1.49320
X0.47000 Y1.49320
X0.47000 Y1.49420
X0.46900 Y1.49420
X0.46900 Y1.49520
X0.46800 Y1.49520
X0.46800 Y1.49620
X0.46700 Y1.49620
X0.46700 Y1.49720
X0.46600 Y1.49720
X0.46600 Y1.49820
X0.46500 Y1.49820
X0.46500 Y1.49920
X0.46400 Y1.49920
X0.46400 Y1.50020
X0.46300 Y1.50020
X0.46300 Y1.50120
X0.46200 Y1.50120
X0.46200 Y1.50220
X0.46100 Y1.50220
X0.46100 Y1.50320
X0.46000 Y1.50320
X0.46000 Y1.50420
X0.45900 Y1.50420
X0.45900 Y1.50520
X0.45800 Y1.50520
X0.45800 Y1.50620
X0.45700 Y1.50620
X0.45700 Y1.50720
X0.45600 Y1.50720
X0.45600 Y1.50820
X0.45500 Y1.50820
X0.45500 Y1.50920
X0.45400 Y1.50920
X0.45400 Y1.51020
X0.45300 Y1.51020
X0.45300 Y1.51120
X0.45200 Y1.51120
X0.45200 Y1.51220
X0.45100 Y1.51220
X0.45100 Y1.51320
X0.45000 Y1.51320
X0.45000 Y1.51420
X0.44900 Y1.51420
X0.44900 Y1.51520
X0.44800 Y1.51520
X0.44800 Y1.51620
X0.44700 Y1.51620
X0.44700 Y1.51720
X0.44600 Y1.51720
X0.44600 Y1.51820
X0.44500 Y1.51820
X0.44500 Y1.51920
X0.44400 Y1.51920
X0.44400 Y1.52020
X0.44300 Y1.52020
X0.44300 Y1.52120
X0.44200 Y1.52120
X0.44200 Y1.52220
X0.44100 Y1.52220
X0.44100 Y1.52320
X0.44000 Y1.52320
X0.44000 Y1.52420
X0.43900 Y1.52420
X0.43900 Y1.52520
X0.43800 Y1.52520
X0.43800 Y1.52620
X0.43700 Y1.52620
X0.43700 Y1.52720
X0.43600 Y1.52720
X0.43600 Y1.52820
X0.43500 Y1.52820
X0.43500 Y1.52920
X0.43400 Y1.52920
X0.43400 Y1.53020
X0.43300 Y1.53020
X0.43300 Y1.53120
X0.43200 Y1.53120
X0.43200 Y1.53220
X0.43100 Y1.53220
X0.43100 Y1.53320
X0.43000 Y1.53320
X0.43000 Y1.53420
X0.42900 Y1.53420
X0.42900 Y1.53520
X0.42800 Y1.53520
X0.42800 Y1.53620
X0.42700 Y1.53620
X0.42700 Y1.53720
X0.42600 Y1.53720
X0.42600 Y1.53820
X0.42500 Y1.53820
X0.42500 Y1.53920
X0.42400 Y1.53920
X0.42400 Y1.54020
X0.42300 Y1.54020
X0.42300 Y1.54120
X0.42200 Y1.54120
X0.42200 Y1.54220
X0.42100 Y1.54220
X0.42100 Y1.54320
X0.42000 Y1.54320
X0.42000 Y1.54420
X0.41900 Y1.54420
X0.41900 Y1.54520
X0.41800 Y1.54520
X0.41800 Y1.54620
X0.41700 Y1.54620
X0.41700 Y1.54720
X0.41600 Y1.54720
X0.41600 Y1.54820
X0.41500 Y1.54820
X0.41500 Y1.54920
X0.41400 Y1.54920
X0.41400 Y1.55020
X0.41300 Y1.55020
X0.41300 Y1.55120
X0.41200 Y1.55120
X0.41200 Y1.55220
X0.41100 Y1.55220
X0.41100 Y1.55320
X0.41000 Y1.55320
X0.41000 Y1.55420
X0.40900 Y1.55420
X0.40900 Y1.55520
X0.40800 Y1.55520
X0.40800 Y1.55620
X0.40700 Y1.55620
X0.40700 Y1.55720
X0.40600 Y1.55720
X0.40600 Y1.55820
X0.40500 Y1.55820
X0.40500 Y1.55920
X0.40400 Y1.55920
X0.40400 Y1.56020
X0.40300 Y1.56020
X0.40300 Y1.56120
X0.40200 Y1.56120
X0.40200 Y1.56220
X0.40100 Y1.56220
X0.40100 Y1.56320
X0.40000 Y1.56320
X0.40000 Y1.56420
X0.39900 Y1.56420
X0.39900 Y1.56520
X0.39800 Y1.56520
X0.39800 Y1.56620
X0.39700 Y1.56620
X0.39700 Y1.56720
X0.39600 Y1.56720
X0.39600 Y1.56820
X0.39500 Y1.56820
X0.39500 Y1.56920
X0.39400 Y1.56920
X0.39400 Y1.57020
X0.39300 Y1.57020
X0.39300 Y1.57120
X0.39200 Y1.57120
X0.39200 Y1.57220
X0.39100 Y1.57220
X0.39100 Y1.57320
X0.39000 Y1.57320
X0.39000 Y1.57420
X0.38900 Y1.57420
X0.38900 Y1.57520
X0.38800 Y1.57520
X0.38800 Y1.57620
X0.38700 Y1.57620
X0.38700 Y1.57720
X0.38600 Y1.57720
X0.38600 Y1.57820
X0.38500 Y1.57820
X0.38500 Y1.57920
X0.38400 Y1.57920
X0.38400 Y1.58020
X0.38300 Y1.58020
X0.38300 Y1.58120
X0.38200 Y1.58120
X0.38200 Y1.58220
X0.38100 Y1.58220
X0.38100 Y1.58320
X0.38000 Y1.58320
X0.38000 Y1.58420
X0.37900 Y1.58420
X0.37900 Y1.58520
X0.37800 Y1.58520
X0.37800 Y1.58620
X0.37700 Y1.58620
X0.37700 Y1.58720
X0.37600 Y1.58720
X0.37600 Y1.58820
X0.37500 Y1.58820
X0.37500 Y1.58920
X0.37400 Y1.58920
X0.37400 Y1.59020
X0.37300 Y1.59020
X0.37300 Y1.59220
X0.74100 Y1.59220
X0.74100 Y1.51620
X0.74000 Y1.51620
X0.74000 Y1.51520
X0.73900 Y1.51520
X0.73900 Y1.51320
X0.73800 Y1.51320
X0.73800 Y1.51220
X0.73700 Y1.51220
X0.73700 Y1.50620
X0.73600 Y1.50620
X0.73600 Y1.50420
X0.73700 Y1.50420
X0.73700 Y1.50020
X0.73600 Y1.50020
X0.73600 Y1.49820
X0.73700 Y1.49820
X0.73700 Y1.49420
X0.73600 Y1.49420
X0.73600 Y1.49220
X0.73700 Y1.49220
X0.73700 Y1.48720
X0.73800 Y1.48720
X0.73800 Y1.48620
G04 P0 ( dwell for no time -- G64 should not smooth over this point )
G00 Z0.19685 ( retract )

G00 X0.95000 Y1.48620 ( rapid move to begin. )
G01 Z-0.11417 F43.30709 ( plunge. )
G04 P0 ( dwell for no time -- G64 should not smooth over this point )
X0.95000 Y1.48620
X0.95000 Y1.38720
X0.92100 Y1.38720
X0.92100 Y1.38820
X0.92000 Y1.38820
X0.92000 Y1.38920
X0.91900 Y1.38920
X0.91900 Y1.39020
X0.91800 Y1.39020
X0.91800 Y1.39120
X0.91700 Y1.39120
X0.91700 Y1.39220
X0.91600 Y1.39220
X0.91600 Y1.39320
X0.91500 Y1.39320
X0.91500 Y1.39420
X0.91400 Y1.39420
X0.91400 Y1.39520
X0.91300 Y1.39520
X0.91300 Y1.39620
X0.91200 Y1.39620
X0.91200 Y1.39720
X0.91100 Y1.39720
X0.91100 Y1.39820
X0.91000 Y1.39820
X0.91000 Y1.39920
X0.90900 Y1.39920
X0.90900 Y1.40020
X0.90800 Y1.40020
X0.90800 Y1.40120
X0.90700 Y1.40120
X0.90700 Y1.40220
X0.90600 Y1.40220
X0.90600 Y1.40320
X0.90500 Y1.40320
X0.90500 Y1.40420
X0.90400 Y1.40420
X0.90400 Y1.40520
X0.90300 Y1.40520
X0.90300 Y1.40620
X0.90200 Y1.40620
X0.90200 Y1.40720
X0.90100 Y1.40720
X0.90100 Y1.40820
X0.90000 Y1.40820
X0.90000 Y1.40920
X0.89100 Y1.40920
X0.89100 Y1.40820
X0.89000 Y1.40820
X0.89000 Y1.40720
X0.88800 Y1.40720
X0.88800 Y1.40620
X0.88600 Y1.40620
X0.88600 Y1.40720
X0.88500 Y1.40720
X0.88500 Y1.40820
X0.88400 Y1.40820
X0.88400 Y1.40920
X0.86500 Y1.40920
X0.86500 Y1.41020
X0.73900 Y1.41020
X0.73900 Y1.41220
X0.73800 Y1.41220
X0.73800 Y1.44320
X0.73700 Y1.44320
X0.73700 Y1.47820
X0.73800 Y1.47820
X0.73800 Y1.48720
X0.73700 Y1.48720
X0.73700 Y1.49220
X0.73600 Y1.49220
X0.73600 Y1.49420
X0.73700 Y1.49420
X0.73700 Y1.49820
X0.73600 Y1.49820
X0.73600 Y1.50020
X0.73700 Y1.50020
X0.73700 Y1.50420
X0.73600 Y1.50420
X0.73600 Y1.50620
X0.73700 Y1.50620
X0.73700 Y1.51220
X0.73800 Y1.51220
X0.73800 Y1.51320
X0.73900 Y1.51320
X0.73900 Y1.51520
X0.74000 Y1.51520
X0.74000 Y1.51620
X0.74100 Y1.51620
X0.74100 Y1.59220
X0.94900 Y1.59220
X0.94900 Y1.57120
X0.94800 Y1.57120
X0.94800 Y1.56820
X0.94900 Y1.56820
X0.94900 Y1.56720
X0.95000 Y1.56720
X0.95000 Y1.56120
X0.94900 Y1.56120
X0.94900 Y1.48720
X0.95000 Y1.48720
X0.95000 Y1.48620
G04 P0 ( dwell for no time -- G64 should not smooth over this point )
G00 Z0.19685 ( retract )

G00 X1.25900 Y1.48620 ( rapid move to begin. )
G01 Z-0.11417 F43.30709 ( plunge. )
G04 P0 ( dwell for no time -- G64 should not smooth over this point )
X1.25900 Y1.48620
X1.25900 Y1.38920
X1.26000 Y1.38920
X1.26000 Y1.38720
X1.22100 Y1.38720
X1.22100 Y1.38820
X1.22000 Y1.38820
X1.22000 Y1.38920
X1.21900 Y1.38920
X1.21900 Y1.39020
X1.21800 Y1.39020
X1.21800 Y1.39120
X1.21700 Y1.39120
X1.21700 Y1.39220
X1.21600 Y1.39220
X1.21600 Y1.39320
X1.21500 Y1.39320
X1.21500 Y1.39420
X1.21400 Y1.39420
X1.21400 Y1.39520
X1.21300 Y1.39520
X1.21300 Y1.39620
X1.21200 Y1.39620
X1.21200 Y1.39720
X1.21100 Y1.39720
X1.21100 Y1.39820
X1.21000 Y1.39820
X1.21000 Y1.39920
X1.20900 Y1.39920
X1.20900 Y1.40020
X1.20800 Y1.40020
X1.20800 Y1.40120
X1.20700 Y1.40120
X1.20700 Y1.40220
X1.20600 Y1.40220
X1.20600 Y1.40320
X1.20500 Y1.40320
X1.20500 Y1.40420
X1.20400 Y1.40420
X1.20400 Y1.40520
X1.20300 Y1.40520
X1.20300 Y1.40620
X1.20200 Y1.40620
X1.20200 Y1.40720
X1.20100 Y1.40720
X1.20100 Y1.40820
X1.20000 Y1.40820
X1.20000 Y1.40920
X1.19100 Y1.40920
X1.19100 Y1.40820
X1.19000 Y1.40820
X1.19000 Y1.40720
X1.18800 Y1.40720
X1.18800 Y1.40620
X1.18600 Y1.40620
X1.18600 Y1.40720
X1.18500 Y1.40720
X1.18500 Y1.40820
X1.18400 Y1.40820
X1.18400 Y1.40920
X1.16500 Y1.40920
X1.16500 Y1.41020
X0.95000 Y1.41020
X0.95000 Y1.48720
X0.94900 Y1.48720
X0.94900 Y1.56120
X0.95000 Y1.56120
X0.95000 Y1.56720
X0.94900 Y1.56720
X0.94900 Y1.56820
X0.94800 Y1.56820
X0.94800 Y1.57120
X0.94900 Y1.57120
X0.94900 Y1.59220
X1.25400 Y1.59220
X1.25400 Y1.59020
X1.25500 Y1.59020
X1.25500 Y1.58620
X1.25600 Y1.58620
X1.25600 Y1.58520
X1.25700 Y1.58520
X1.25700 Y1.57620
X1.25800 Y1.57620
X1.25800 Y1.57520
X1.25900 Y1.57520
X1.25900 Y1.48620
G04 P0 ( dwell for no time -- G64 should not smooth over this point )
G00 Z0.19685 ( retract )

G00 X0.95000 Y1.38620 ( rapid move to begin. )
G01 Z-0.11417 F43.30709 ( plunge. )
G04 P0 ( dwell for no time -- G64 should not smooth over this point )
X0.95000 Y1.38620
X0.95000 Y1.28720
X0.92100 Y1.28720
X0.92100 Y1.28820
X0.92000 Y1.28820
X0.92000 Y1.28920
X0.91900 Y1.28920
X0.91900 Y1.29020
X0.91800 Y1.29020
X0.91800 Y1.29120
X0.91700 Y1.29120
X0.91700 Y1.29220
X0.91600 Y1.29220
X0.91600 Y1.29320
X0.91500 Y1.29320
X0.91500 Y1.29420
X0.91400 Y1.29420
X0.91400 Y1.29520
X0.91300 Y1.29520
X0.91300 Y1.29620
X0.91200 Y1.29620
X0.91200 Y1.29720
X0.91100 Y1.29720
X0.91100 Y1.29820
X0.91000 Y1.29820
X0.91000 Y1.29920
X0.90900 Y1.29920
X0.90900 Y1.30020
X0.90800 Y1.30020
X0.90800 Y1.30120
X0.90700 Y1.30120
X0.90700 Y1.30220
X0.90600 Y1.30220
X0.90600 Y1.30320
X0.90500 Y1.30320
X0.90500 Y1.30420
X0.90400 Y1.30420
X0.90400 Y1.30520
X0.90300 Y1.30520
X0.90300 Y1.30620
X0.90200 Y1.30620
X0.90200 Y1.30720
X0.90100 Y1.30720
X0.90100 Y1.30820
X0.90000 Y1.30820
X0.90000 Y1.30920
X0.89100 Y1.30920
X0.89100 Y1.30820
X0.89000 Y1.30820
X0.89000 Y1.30720
X0.88800 Y1.30720
X0.88800 Y1.30620
X0.88600 Y1.30620
X0.88600 Y1.30720
X0.88500 Y1.30720
X0.88500 Y1.30820
X0.88400 Y1.30820
X0.88400 Y1.30920
X0.86500 Y1.30920
X0.86500 Y1.31020
X0.62800 Y1.31020
X0.62800 Y1.31520
X0.62900 Y1.31520
X0.62900 Y1.31620
X0.63000 Y1.31620
X0.63000 Y1.31720
X0.63100 Y1.31720
X0.63100 Y1.31820
X0.63200 Y1.31820
X0.63200 Y1.31920
X0.63300 Y1.31920
X0.63300 Y1.32020
X0.63400 Y1.32020
X0.63400 Y1.32120
X0.63500 Y1.32120
X0.63500 Y1.32220
X0.63600 Y1.32220
X0.63600 Y1.32320
X0.63700 Y1.32320
X0.63700 Y1.32420
X0.63800 Y1.32420
X0.63800 Y1.32520
X0.63900 Y1.32520
X0.63900 Y1.32620
X0.64000 Y1.32620
X0.64000 Y1.32720
X0.64100 Y1.32720
X0.64100 Y1.32820
X0.64200 Y1.32820
X0.64200 Y1.32920
X0.64300 Y1.32920
X0.64300 Y1.33020
X0.64400 Y1.33020
X0.64400 Y1.33120
X0.64500 Y1.33120
X0.64500 Y1.33220
X0.64600 Y1.33220
X0.64600 Y1.33320
X0.64700 Y1.33320
X0.64700 Y1.33420
X0.64800 Y1.33420
X0.64800 Y1.33520
X0.64900 Y1.33520
X0.64900 Y1.33620
X0.65000 Y1.33620
X0.65000 Y1.33720
X0.65100 Y1.33720
X0.65100 Y1.33820
X0.65200 Y1.33820
X0.65200 Y1.33920
X0.65300 Y1.33920
X0.65300 Y1.34020
X0.65400 Y1.34020
X0.65400 Y1.34120
X0.65500 Y1.34120
X0.65500 Y1.34220
X0.65600 Y1.34220
X0.65600 Y1.34320
X0.65700 Y1.34320
X0.65700 Y1.34420
X0.65800 Y1.34420
X0.65800 Y1.34520
X0.65900 Y1.34520
X0.65900 Y1.34620
X0.66000 Y1.34620
X0.66000 Y1.34720
X0.66100 Y1.34720
X0.66100 Y1.34820
X0.66200 Y1.34820
X0.66200 Y1.34920
X0.66300 Y1.34920
X0.66300 Y1.35020
X0.66400 Y1.35020
X0.66400 Y1.35120
X0.66500 Y1.35120
X0.66500 Y1.35220
X0.66600 Y1.35220
X0.66600 Y1.35320
X0.66700 Y1.35320
X0.66700 Y1.35420
X0.66800 Y1.35420
X0.66800 Y1.35520
X0.66900 Y1.35520
X0.66900 Y1.35620
X0.67000 Y1.35620
X0.67000 Y1.35720
X0.67100 Y1.35720
X0.67100 Y1.35820
X0.67200 Y1.35820
X0.67200 Y1.35920
X0.67300 Y1.35920
X0.67300 Y1.36020
X0.67400 Y1.36020
X0.67400 Y1.36120
X0.67500 Y1.36120
X0.67500 Y1.36220
X0.67600 Y1.36220
X0.67600 Y1.36320
X0.67700 Y1.36320
X0.67700 Y1.36420
X0.67800 Y1.36420
X0.67800 Y1.36520
X0.67900 Y1.36520
X0.67900 Y1.36620
X0.68000 Y1.36620
X0.68000 Y1.36720
X0.68100 Y1.36720
X0.68100 Y1.36820
X0.68200 Y1.36820
X0.68200 Y1.36920
X0.68300 Y1.36920
X0.68300 Y1.37020
X0.68400 Y1.37020
X0.68400 Y1.37120
X0.68500 Y1.37120
X0.68500 Y1.37220
X0.68600 Y1.37220
X0.68600 Y1.37320
X0.68700 Y1.37320
X0.68700 Y1.37420
X0.68800 Y1.37420
X0.68800 Y1.37520
X0.68900 Y1.37520
X0.68900 Y1.37620
X0.69000 Y1.37620
X0.69000 Y1.37720
X0.69100 Y1.37720
X0.69100 Y1.37820
X0.69200 Y1.37820
X0.69200 Y1.37920
X0.69300 Y1.37920
X0.69300 Y1.38020
X0.69400 Y1.38020
X0.69400 Y1.38120
X0.69500 Y1.38120
X0.69500 Y1.38220
X0.69600 Y1.38220
X0.69600 Y1.38320
X0.69700 Y1.38320
X0.69700 Y1.38420
X0.69800 Y1.38420
X0.69800 Y1.38520
X0.69900 Y1.38520
X0.69900 Y1.38620
X0.70000 Y1.38620
X0.70000 Y1.38720
X0.70100 Y1.38720
X0.70100 Y1.38820
X0.70200 Y1.38820
X0.70200 Y1.38920
X0.70300 Y1.38920
X0.70300 Y1.39020
X0.70400 Y1.39020
X0.70400 Y1.39120
X0.70500 Y1.39120
X0.70500 Y1.39220
X0.70600 Y1.39220
X0.70600 Y1.39320
X0.70700 Y1.39320
X0.70700 Y1.39420
X0.70800 Y1.39420
X0.70800 Y1.39520
X0.70900 Y1.39520
X0.70900 Y1.39620
X0.71000 Y1.39620
X0.71000 Y1.39720
X0.71100 Y1.39720
X0.71100 Y1.39820
X0.71300 Y1.39820
X0.71300 Y1.39920
X0.71400 Y1.39920
X0.71400 Y1.40020
X0.71600 Y1.40020
X0.71600 Y1.40120
X0.71700 Y1.40120
X0.71700 Y1.40220
X0.71900 Y1.40220
X0.71900 Y1.40320
X0.72000 Y1.40320
X0.72000 Y1.40420
X0.72300 Y1.40420
X0.72300 Y1.40520
X0.72600 Y1.40520
X0.72600 Y1.40620
X0.72900 Y1.40620
X0.72900 Y1.40720
X0.73200 Y1.40720
X0.73200 Y1.40820
X0.73500 Y1.40820
X0.73500 Y1.40920
X0.73800 Y1.40920
X0.73800 Y1.41020
X0.86500 Y1.41020
X0.86500 Y1.40920
X0.88400 Y1.40920
X0.88400 Y1.40820
X0.88500 Y1.40820
X0.88500 Y1.40720
X0.88600 Y1.40720
X0.88600 Y1.40620
X0.88800 Y1.40620
X0.88800 Y1.40720
X0.89000 Y1.40720
X0.89000 Y1.40820
X0.89100 Y1.40820
X0.89100 Y1.40920
X0.90000 Y1.40920
X0.90000 Y1.40820
X0.90100 Y1.40820
X0.90100 Y1.40720
X0.90200 Y1.40720
X0.90200 Y1.40620
X0.90300 Y1.40620
X0.90300 Y1.40520
X0.90400 Y1.40520
X0.90400 Y1.40420
X0.90500 Y1.40420
X0.90500 Y1.40320
X0.90600 Y1.40320
X0.90600 Y1.40220
X0.90700 Y1.40220
X0.90700 Y1.40120
X0.90800 Y1.40120
X0.90800 Y1.40020
X0.90900 Y1.40020
X0.90900 Y1.39920
X0.91000 Y1.39920
X0.91000 Y1.39820
X0.91100 Y1.39820
X0.91100 Y1.39720
X0.91200 Y1.39720
X0.91200 Y1.39620
X0.91300 Y1.39620
X0.91300 Y1.39520
X0.91400 Y1.39520
X0.91400 Y1.39420
X0.91500 Y1.39420
X0.91500 Y1.39320
X0.91600 Y1.39320
X0.91600 Y1.39220
X0.91700 Y1.39220
X0.91700 Y1.39120
X0.91800 Y1.39120
X0.91800 Y1.39020
X0.91900 Y1.39020
X0.91900 Y1.38920
X0.92000 Y1.38920
X0.92000 Y1.38820
X0.92100 Y1.38820
X0.92100 Y1.38720
X0.95000 Y1.38720
X0.95000 Y1.38620
G04 P0 ( dwell for no time -- G64 should not smooth over this point )
G00 Z0.19685 ( retract )

G00 X1.26100 Y1.38620 ( rapid move to begin. )
G01 Z-0.11417 F43.30709 ( plunge. )
G04 P0 ( dwell for no time -- G64 should not smooth over this point )
X1.26100 Y1.38620
X1.26100 Y1.38320
X1.26200 Y1.38320
X1.26200 Y1.38020
X1.26300 Y1.38020
X1.26300 Y1.37720
X1.26400 Y1.37720
X1.26400 Y1.37420
X1.26500 Y1.37420
X1.26500 Y1.37120
X1.26600 Y1.37120
X1.26600 Y1.36820
X1.26700 Y1.36820
X1.26700 Y1.36520
X1.26800 Y1.36520
X1.26800 Y1.36220
X1.26900 Y1.36220
X1.26900 Y1.36120
X1.27000 Y1.36120
X1.27000 Y1.36020
X1.27100 Y1.36020
X1.27100 Y1.35920
X1.27200 Y1.35920
X1.27200 Y1.35820
X1.27300 Y1.35820
X1.27300 Y1.35720
X1.27400 Y1.35720
X1.27400 Y1.35620
X1.27500 Y1.35620
X1.27500 Y1.35520
X1.27600 Y1.35520
X1.27600 Y1.35420
X1.27700 Y1.35420
X1.27700 Y1.35320
X1.27800 Y1.35320
X1.27800 Y1.35220
X1.27900 Y1.35220
X1.27900 Y1.35120
X1.28000 Y1.35120
X1.28000 Y1.35020
X1.28100 Y1.35020
X1.28100 Y1.34920
X1.28200 Y1.34920
X1.28200 Y1.34820
X1.28300 Y1.34820
X1.28300 Y1.34720
X1.28400 Y1.34720
X1.28400 Y1.34620
X1.28500 Y1.34620
X1.28500 Y1.34520
X1.28600 Y1.34520
X1.28600 Y1.34420
X1.28700 Y1.34420
X1.28700 Y1.34320
X1.28800 Y1.34320
X1.28800 Y1.34220
X1.28900 Y1.34220
X1.28900 Y1.34120
X1.29000 Y1.34120
X1.29000 Y1.34020
X1.29100 Y1.34020
X1.29100 Y1.33920
X1.29200 Y1.33920
X1.29200 Y1.33820
X1.29300 Y1.33820
X1.29300 Y1.33720
X1.29400 Y1.33720
X1.29400 Y1.33620
X1.29500 Y1.33620
X1.29500 Y1.33520
X1.29600 Y1.33520
X1.29600 Y1.33420
X1.29700 Y1.33420
X1.29700 Y1.33320
X1.29800 Y1.33320
X1.29800 Y1.33220
X1.29900 Y1.33220
X1.29900 Y1.33120
X1.30000 Y1.33120
X1.30000 Y1.33020
X1.30100 Y1.33020
X1.30100 Y1.32920
X1.30200 Y1.32920
X1.30200 Y1.32820
X1.30300 Y1.32820
X1.30300 Y1.32720
X1.30400 Y1.32720
X1.30400 Y1.32620
X1.30500 Y1.32620
X1.30500 Y1.32520
X1.30600 Y1.32520
X1.30600 Y1.32420
X1.30700 Y1.32420
X1.30700 Y1.32320
X1.30800 Y1.32320
X1.30800 Y1.32220
X1.30900 Y1.32220
X1.30900 Y1.32120
X1.31000 Y1.32120
X1.31000 Y1.32020
X1.31100 Y1.32020
X1.31100 Y1.31920
X1.31200 Y1.31920
X1.31200 Y1.31820
X1.31300 Y1.31820
X1.31300 Y1.31720
X1.31400 Y1.31720
X1.31400 Y1.31620
X1.31500 Y1.31620
X1.31500 Y1.31520
X1.31600 Y1.31520
X1.31600 Y1.31420
X1.31700 Y1.31420
X1.31700 Y1.31320
X1.31800 Y1.31320
X1.31800 Y1.31220
X1.31900 Y1.31220
X1.31900 Y1.31120
X1.32000 Y1.31120
X1.32000 Y1.31020
X1.32100 Y1.31020
X1.32100 Y1.30920
X1.32200 Y1.30920
X1.32200 Y1.30820
X1.32300 Y1.30820
X1.32300 Y1.30720
X1.32400 Y1.30720
X1.32400 Y1.30620
X1.32500 Y1.30620
X1.32500 Y1.30520
X1.32600 Y1.30520
X1.32600 Y1.30420
X1.32700 Y1.30420
X1.32700 Y1.30320
X1.32800 Y1.30320
X1.32800 Y1.30220
X1.32900 Y1.30220
X1.32900 Y1.30120
X1.33000 Y1.30120
X1.33000 Y1.30020
X1.33100 Y1.30020
X1.33100 Y1.29920
X1.33200 Y1.29920
X1.33200 Y1.29820
X1.33300 Y1.29820
X1.33300 Y1.29720
X1.33400 Y1.29720
X1.33400 Y1.29620
X1.33500 Y1.29620
X1.33500 Y1.29520
X1.33600 Y1.29520
X1.33600 Y1.29420
X1.33700 Y1.29420
X1.33700 Y1.29320
X1.33800 Y1.29320
X1.33800 Y1.29220
X1.33900 Y1.29220
X1.33900 Y1.29120
X1.34000 Y1.29120
X1.34000 Y1.29020
X1.34100 Y1.29020
X1.34100 Y1.28920
X1.34200 Y1.28920
X1.34200 Y1.28720
X1.22100 Y1.28720
X1.22100 Y1.28820
X1.22000 Y1.28820
X1.22000 Y1.28920
X1.21900 Y1.28920
X1.21900 Y1.29020
X1.21800 Y1.29020
X1.21800 Y1.29120
X1.21700 Y1.29120
X1.21700 Y1.29220
X1.21600 Y1.29220
X1.21600 Y1.29320
X1.21500 Y1.29320
X1.21500 Y1.29420
X1.21400 Y1.29420
X1.21400 Y1.29520
X1.21300 Y1.29520
X1.21300 Y1.29620
X1.21200 Y1.29620
X1.21200 Y1.29720
X1.21100 Y1.29720
X1.21100 Y1.29820
X1.21000 Y1.29820
X1.21000 Y1.29920
X1.20900 Y1.29920
X1.20900 Y1.30020
X1.20800 Y1.30020
X1.20800 Y1.30120
X1.20700 Y1.30120
X1.20700 Y1.30220
X1.20600 Y1.30220
X1.20600 Y1.30320
X1.20500 Y1.30320
X1.20500 Y1.30420
X1.20400 Y1.30420
X1.20400 Y1.30520
X1.20300 Y1.30520
X1.20300 Y1.30620
X1.20200 Y1.30620
X1.20200 Y1.30720
X1.20100 Y1.30720
X1.20100 Y1.30820
X1.20000 Y1.30820
X1.20000 Y1.30920
X1.19100 Y1.30920
X1.19100 Y1.30820
X1.19000 Y1.30820
X1.19000 Y1.30720
X1.18800 Y1.30720
X1.18800 Y1.30620
X1.18600 Y1.30620
X1.18600 Y1.30720
X1.18500 Y1.30720
X1.18500 Y1.30820
X1.18400 Y1.30820
X1.18400 Y1.30920
X1.16500 Y1.30920
X1.16500 Y1.31020
X0.95000 Y1.31020
X0.95000 Y1.41020
X1.16500 Y1.41020
X1.16500 Y1.40920
X1.18400 Y1.40920
X1.18400 Y1.40820
X1.18500 Y1.40820
X1.18500 Y1.40720
X1.18600 Y1.40720
X1.18600 Y1.40620
X1.18800 Y1.40620
X1.18800 Y1.40720
X1.19000 Y1.40720
X1.19000 Y1.40820
X1.19100 Y1.40820
X1.19100 Y1.40920
X1.20000 Y1.40920
X1.20000 Y1.40820
X1.20100 Y1.40820
X1.20100 Y1.40720
X1.20200 Y1.40720
X1.20200 Y1.40620
X1.20300 Y1.40620
X1.20300 Y1.40520
X1.20400 Y1.40520
X1.20400 Y1.40420
X1.20500 Y1.40420
X1.20500 Y1.40320
X1.20600 Y1.40320
X1.20600 Y1.40220
X1.20700 Y1.40220
X1.20700 Y1.40120
X1.20800 Y1.40120
X1.20800 Y1.40020
X1.20900 Y1.40020
X1.20900 Y1.39920
X1.21000 Y1.39920
X1.21000 Y1.39820
X1.21100 Y1.39820
X1.21100 Y1.39720
X1.21200 Y1.39720
X1.21200 Y1.39620
X1.21300 Y1.39620
X1.21300 Y1.39520
X1.21400 Y1.39520
X1.21400 Y1.39420
X1.21500 Y1.39420
X1.21500 Y1.39320
X1.21600 Y1.39320
X1.21600 Y1.39220
X1.21700 Y1.39220
X1.21700 Y1.39120
X1.21800 Y1.39120
X1.21800 Y1.39020
X1.21900 Y1.39020
X1.21900 Y1.38920
X1.22000 Y1.38920
X1.22000 Y1.38820
X1.22100 Y1.38820
X1.22100 Y1.38720
X1.26100 Y1.38720
X1.26100 Y1.38620
G04 P0 ( dwell for no time -- G64 should not smooth over this point )
G00 Z0.19685 ( retract )

G00 X0.61200 Y1.29020 ( rapid move to begin. )
G01 Z-0.11417 F43.30709 ( plunge. )
G04 P0 ( dwell for no time -- G64 should not smooth over this point )
X0.61200 Y1.29020
X0.61200 Y1.28820
X0.61100 Y1.28820
X0.61100 Y1.28720
X0.61000 Y1.28720
X0.61000 Y1.28620
X0.60900 Y1.28620
X0.60900 Y1.28520
X0.60800 Y1.28520
X0.60800 Y1.28420
X0.60700 Y1.28420
X0.60700 Y1.28320
X0.60600 Y1.28320
X0.60600 Y1.28220
X0.60500 Y1.28220
X0.60500 Y1.28120
X0.60400 Y1.28120
X0.60400 Y1.28020
X0.60300 Y1.28020
X0.60300 Y1.27920
X0.60200 Y1.27920
X0.60200 Y1.27820
X0.60100 Y1.27820
X0.60100 Y1.27720
X0.60000 Y1.27720
X0.60000 Y1.27620
X0.59900 Y1.27620
X0.59900 Y1.27320
X0.59800 Y1.27320
X0.59800 Y1.27020
X0.59700 Y1.27020
X0.59700 Y1.26720
X0.59600 Y1.26720
X0.59600 Y1.26420
X0.59500 Y1.26420
X0.59500 Y1.26120
X0.59400 Y1.26120
X0.59400 Y1.25820
X0.59300 Y1.25820
X0.59300 Y1.25520
X0.59200 Y1.25520
X0.59200 Y1.19120
X0.57500 Y1.19120
X0.57500 Y1.19220
X0.57400 Y1.19220
X0.57400 Y1.19320
X0.57300 Y1.19320
X0.57300 Y1.19420
X0.57200 Y1.19420
X0.57200 Y1.19520
X0.57100 Y1.19520
X0.57100 Y1.19620
X0.57000 Y1.19620
X0.57000 Y1.19720
X0.56900 Y1.19720
X0.56900 Y1.19820
X0.56800 Y1.19820
X0.56800 Y1.19920
X0.56700 Y1.19920
X0.56700 Y1.20020
X0.56600 Y1.20020
X0.56600 Y1.20120
X0.56500 Y1.20120
X0.56500 Y1.20220
X0.56400 Y1.20220
X0.56400 Y1.20320
X0.56300 Y1.20320
X0.56300 Y1.20420
X0.56200 Y1.20420
X0.56200 Y1.20520
X0.56100 Y1.20520
X0.56100 Y1.20620
X0.56000 Y1.20620
X0.56000 Y1.20720
X0.55900 Y1.20720
X0.55900 Y1.20820
X0.54700 Y1.20820
X0.54700 Y1.20720
X0.54500 Y1.20720
X0.54500 Y1.20620
X0.54300 Y1.20620
X0.54300 Y1.20720
X0.54200 Y1.20720
X0.54200 Y1.20820
X0.54100 Y1.20820
X0.54100 Y1.20920
X0.53600 Y1.20920
X0.53600 Y1.20820
X0.53400 Y1.20820
X0.53400 Y1.20920
X0.52100 Y1.20920
X0.52100 Y1.21020
X0.51600 Y1.21020
X0.51600 Y1.20920
X0.51400 Y1.20920
X0.51400 Y1.21020
X0.51000 Y1.21020
X0.51000 Y1.20920
X0.50800 Y1.20920
X0.50800 Y1.21020
X0.05500 Y1.21020
X0.05500 Y1.59220
X0.37300 Y1.59220
X0.37300 Y1.59020
X0.37400 Y1.59020
X0.37400 Y1.58920
X0.37500 Y1.58920
X0.37500 Y1.58820
X0.37600 Y1.58820
X0.37600 Y1.58720
X0.37700 Y1.58720
X0.37700 Y1.58620
X0.37800 Y1.58620
X0.37800 Y1.58520
X0.37900 Y1.58520
X0.37900 Y1.58420
X0.38000 Y1.58420
X0.38000 Y1.58320
X0.38100 Y1.58320
X0.38100 Y1.58220
X0.38200 Y1.58220
X0.38200 Y1.58120
X0.38300 Y1.58120
X0.38300 Y1.58020
X0.38400 Y1.58020
X0.38400 Y1.57920
X0.38500 Y1.57920
X0.38500 Y1.57820
X0.38600 Y1.57820
X0.38600 Y1.57720
X0.38700 Y1.57720
X0.38700 Y1.57620
X0.38800 Y1.57620
X0.38800 Y1.57520
X0.38900 Y1.57520
X0.38900 Y1.57420
X0.39000 Y1.57420
X0.39000 Y1.57320
X0.39100 Y1.57320
X0.39100 Y1.57220
X0.39200 Y1.57220
X0.39200 Y1.57120
X0.39300 Y1.57120
X0.39300 Y1.57020
X0.39400 Y1.57020
X0.39400 Y1.56920
X0.39500 Y1.56920
X0.39500 Y1.56820
X0.39600 Y1.56820
X0.39600 Y1.56720
X0.39700 Y1.56720
X0.39700 Y1.56620
X0.39800 Y1.56620
X0.39800 Y1.56520
X0.39900 Y1.56520
X0.39900 Y1.56420
X0.40000 Y1.56420
X0.40000 Y1.56320
X0.40100 Y1.56320
X0.40100 Y1.56220
X0.40200 Y1.56220
X0.40200 Y1.56120
X0.40300 Y1.56120
X0.40300 Y1.56020
X0.40400 Y1.56020
X0.40400 Y1.55920
X0.40500 Y1.55920
X0.40500 Y1.55820
X0.40600 Y1.55820
X0.40600 Y1.55720
X0.40700 Y1.55720
X0.40700 Y1.55620
X0.40800 Y1.55620
X0.40800 Y1.55520
X0.40900 Y1.55520
X0.40900 Y1.55420
X0.41000 Y1.55420
X0.41000 Y1.55320
X0.41100 Y1.55320
X0.41100 Y1.55220
X0.41200 Y1.55220
X0.41200 Y1.55120
X0.41300 Y1.55120
X0.41300 Y1.55020
X0.41400 Y1.55020
X0.41400 Y1.54920
X0.41500 Y1.54920
X0.41500 Y1.54820
X0.41600 Y1.54820
X0.41600 Y1.54720
X0.41700 Y1.54720
X0.41700 Y1.54620
X0.41800 Y1.54620
X0.41800 Y1.54520
X0.41900 Y1.54520
X0.41900 Y1.54420
X0.42000 Y1.54420
X0.42000 Y1.54320
X0.42100 Y1.54320
X0.42100 Y1.54220
X0.42200 Y1.54220
X0.42200 Y1.54120
X0.42300 Y1.54120
X0.42300 Y1.54020
X0.42400 Y1.54020
X0.42400 Y1.53920
X0.42500 Y1.53920
X0.42500 Y1.53820
X0.42600 Y1.53820
X0.42600 Y1.53720
X0.42700 Y1.53720
X0.42700 Y1.53620
X0.42800 Y1.53620
X0.42800 Y1.53520
X0.42900 Y1.53520
X0.42900 Y1.53420
X0.43000 Y1.53420
X0.43000 Y1.53320
X0.43100 Y1.53320
X0.43100 Y1.53220
X0.43200 Y1.53220
X0.43200 Y1.53120
X0.43300 Y1.53120
X0.43300 Y1.53020
X0.43400 Y1.53020
X0.43400 Y1.52920
X0.43500 Y1.52920
X0.43500 Y1.52820
X0.43600 Y1.52820
X0.43600 Y1.52720
X0.43700 Y1.52720
X0.43700 Y1.52620
X0.43800 Y1.52620
X0.43800 Y1.52520
X0.43900 Y1.52520
X0.43900 Y1.52420
X0.44000 Y1.52420
X0.44000 Y1.52320
X0.44100 Y1.52320
X0.44100 Y1.52220
X0.44200 Y1.52220
X0.44200 Y1.52120
X0.44300 Y1.52120
X0.44300 Y1.52020
X0.44400 Y1.52020
X0.44400 Y1.51920
X0.44500 Y1.51920
X0.44500 Y1.51820
X0.44600 Y1.51820
X0.44600 Y1.51720
X0.44700 Y1.51720
X0.44700 Y1.51620
X0.44800 Y1.51620
X0.44800 Y1.51520
X0.44900 Y1.51520
X0.44900 Y1.51420
X0.45000 Y1.51420
X0.45000 Y1.51320
X0.45100 Y1.51320
X0.45100 Y1.51220
X0.45200 Y1.51220
X0.45200 Y1.51120
X0.45300 Y1.51120
X0.45300 Y1.51020
X0.45400 Y1.51020
X0.45400 Y1.50920
X0.45500 Y1.50920
X0.45500 Y1.50820
X0.45600 Y1.50820
X0.45600 Y1.50720
X0.45700 Y1.50720
X0.45700 Y1.50620
X0.45800 Y1.50620
X0.45800 Y1.50520
X0.45900 Y1.50520
X0.45900 Y1.50420
X0.46000 Y1.50420
X0.46000 Y1.50320
X0.46100 Y1.50320
X0.46100 Y1.50220
X0.46200 Y1.50220
X0.46200 Y1.50120
X0.46300 Y1.50120
X0.46300 Y1.50020
X0.46400 Y1.50020
X0.46400 Y1.49920
X0.46500 Y1.49920
X0.46500 Y1.49820
X0.46600 Y1.49820
X0.46600 Y1.49720
X0.46700 Y1.49720
X0.46700 Y1.49620
X0.46800 Y1.49620
X0.46800 Y1.49520
X0.46900 Y1.49520
X0.46900 Y1.49420
X0.47000 Y1.49420
X0.47000 Y1.49320
X0.47100 Y1.49320
X0.47100 Y1.49220
X0.47200 Y1.49220
X0.47200 Y1.49120
X0.47300 Y1.49120
X0.47300 Y1.49020
X0.47400 Y1.49020
X0.47400 Y1.48920
X0.47500 Y1.48920
X0.47500 Y1.48820
X0.47600 Y1.48820
X0.47600 Y1.48720
X0.47700 Y1.48720
X0.47700 Y1.48620
X0.47800 Y1.48620
X0.47800 Y1.48520
X0.47900 Y1.48520
X0.47900 Y1.48420
X0.48000 Y1.48420
X0.48000 Y1.48320
X0.48100 Y1.48320
X0.48100 Y1.48220
X0.48200 Y1.48220
X0.48200 Y1.48120
X0.48300 Y1.48120
X0.48300 Y1.48020
X0.48400 Y1.48020
X0.48400 Y1.47920
X0.48500 Y1.47920
X0.48500 Y1.47820
X0.48600 Y1.47820
X0.48600 Y1.47720
X0.48700 Y1.47720
X0.48700 Y1.47620
X0.48800 Y1.47620
X0.48800 Y1.47520
X0.48900 Y1.47520
X0.48900 Y1.47420
X0.49000 Y1.47420
X0.49000 Y1.47320
X0.49100 Y1.47320
X0.49100 Y1.47220
X0.49200 Y1.47220
X0.49200 Y1.47120
X0.49300 Y1.47120
X0.49300 Y1.47020
X0.49400 Y1.47020
X0.49400 Y1.46920
X0.49500 Y1.46920
X0.49500 Y1.46820
X0.49600 Y1.46820
X0.49600 Y1.46720
X0.49700 Y1.46720
X0.49700 Y1.46620
X0.49800 Y1.46620
X0.49800 Y1.46520
X0.49900 Y1.46520
X0.49900 Y1.46420
X0.50000 Y1.46420
X0.50000 Y1.46320
X0.50100 Y1.46320
X0.50100 Y1.46220
X0.50200 Y1.46220
X0.50200 Y1.46120
X0.50300 Y1.46120
X0.50300 Y1.46020
X0.50400 Y1.46020
X0.50400 Y1.45920
X0.50500 Y1.45920
X0.50500 Y1.45820
X0.50600 Y1.45820
X0.50600 Y1.45720
X0.50700 Y1.45720
X0.50700 Y1.45620
X0.50800 Y1.45620
X0.50800 Y1.45520
X0.50900 Y1.45520
X0.50900 Y1.45420
X0.51000 Y1.45420
X0.51000 Y1.45320
X0.51100 Y1.45320
X0.51100 Y1.45220
X0.51200 Y1.45220
X0.51200 Y1.45120
X0.51300 Y1.45120
X0.51300 Y1.45020
X0.51400 Y1.45020
X0.51400 Y1.44920
X0.51500 Y1.44920
X0.51500 Y1.44820
X0.51600 Y1.44820
X0.51600 Y1.44720
X0.51700 Y1.44720
X0.51700 Y1.44620
X0.51800 Y1.44620
X0.51800 Y1.44520
X0.51900 Y1.44520
X0.51900 Y1.44420
X0.52000 Y1.44420
X0.52000 Y1.44320
X0.52100 Y1.44320
X0.52100 Y1.44220
X0.52200 Y1.44220
X0.52200 Y1.44120
X0.52300 Y1.44120
X0.52300 Y1.44020
X0.52400 Y1.44020
X0.52400 Y1.43920
X0.52500 Y1.43920
X0.52500 Y1.43820
X0.52600 Y1.43820
X0.52600 Y1.43720
X0.52700 Y1.43720
X0.52700 Y1.43620
X0.52800 Y1.43620
X0.52800 Y1.43520
X0.52900 Y1.43520
X0.52900 Y1.43420
X0.53000 Y1.43420
X0.53000 Y1.43320
X0.53100 Y1.43320
X0.53100 Y1.43220
X0.53200 Y1.43220
X0.53200 Y1.43120
X0.53300 Y1.43120
X0.53300 Y1.43020
X0.53400 Y1.43020
X0.53400 Y1.42920
X0.53500 Y1.42920
X0.53500 Y1.42820
X0.53600 Y1.42820
X0.53600 Y1.42720
X0.53700 Y1.42720
X0.53700 Y1.42620
X0.53800 Y1.42620
X0.53800 Y1.42520
X0.53900 Y1.42520
X0.53900 Y1.42420
X0.54000 Y1.42420
X0.54000 Y1.42320
X0.54100 Y1.42320
X0.54100 Y1.42220
X0.54200 Y1.42220
X0.54200 Y1.42120
X0.54300 Y1.42120
X0.54300 Y1.42020
X0.54400 Y1.42020
X0.54400 Y1.41920
X0.54500 Y1.41920
X0.54500 Y1.41820
X0.54600 Y1.41820
X0.54600 Y1.41720
X0.54700 Y1.41720
X0.54700 Y1.41620
X0.54800 Y1.41620
X0.54800 Y1.41520
X0.54900 Y1.41520
X0.54900 Y1.41420
X0.55000 Y1.41420
X0.55000 Y1.41320
X0.55100 Y1.41320
X0.55100 Y1.41220
X0.55200 Y1.41220
X0.55200 Y1.41120
X0.55300 Y1.41120
X0.55300 Y1.41020
X0.55400 Y1.41020
X0.55400 Y1.40920
X0.55500 Y1.40920
X0.55500 Y1.40820
X0.55600 Y1.40820
X0.55600 Y1.40720
X0.55700 Y1.40720
X0.55700 Y1.40620
X0.55800 Y1.40620
X0.55800 Y1.40520
X0.55900 Y1.40520
X0.55900 Y1.40420
X0.56000 Y1.40420
X0.56000 Y1.40320
X0.56100 Y1.40320
X0.56100 Y1.40220
X0.56200 Y1.40220
X0.56200 Y1.40120
X0.56300 Y1.40120
X0.56300 Y1.40020
X0.56400 Y1.40020
X0.56400 Y1.39920
X0.56500 Y1.39920
X0.56500 Y1.39820
X0.56600 Y1.39820
X0.56600 Y1.39720
X0.56700 Y1.39720
X0.56700 Y1.39620
X0.56800 Y1.39620
X0.56800 Y1.39520
X0.56900 Y1.39520
X0.56900 Y1.39420
X0.57000 Y1.39420
X0.57000 Y1.39320
X0.57100 Y1.39320
X0.57100 Y1.39220
X0.57200 Y1.39220
X0.57200 Y1.39120
X0.57300 Y1.39120
X0.57300 Y1.39020
X0.57400 Y1.39020
X0.57400 Y1.38920
X0.57500 Y1.38920
X0.57500 Y1.38820
X0.57600 Y1.38820
X0.57600 Y1.38720
X0.57700 Y1.38720
X0.57700 Y1.38620
X0.57800 Y1.38620
X0.57800 Y1.38420
X0.57900 Y1.38420
X0.57900 Y1.38320
X0.58000 Y1.38320
X0.58000 Y1.38020
X0.58100 Y1.38020
X0.58100 Y1.37920
X0.58200 Y1.37920
X0.58200 Y1.37620
X0.58300 Y1.37620
X0.58300 Y1.37520
X0.58400 Y1.37520
X0.58400 Y1.37120
X0.58500 Y1.37120
X0.58500 Y1.37020
X0.58600 Y1.37020
X0.58600 Y1.36620
X0.58700 Y1.36620
X0.58700 Y1.36320
X0.58800 Y1.36320
X0.58800 Y1.36220
X0.58900 Y1.36220
X0.58900 Y1.36120
X0.59000 Y1.36120
X0.59000 Y1.36020
X0.59100 Y1.36020
X0.59100 Y1.35720
X0.59200 Y1.35720
X0.59200 Y1.35520
X0.59400 Y1.35520
X0.59400 Y1.35420
X0.59500 Y1.35420
X0.59500 Y1.35320
X0.59600 Y1.35320
X0.59600 Y1.35020
X0.59700 Y1.35020
X0.59700 Y1.34720
X0.59800 Y1.34720
X0.59800 Y1.34420
X0.59900 Y1.34420
X0.59900 Y1.34320
X0.60000 Y1.34320
X0.60000 Y1.34220
X0.60100 Y1.34220
X0.60100 Y1.34120
X0.60200 Y1.34120
X0.60200 Y1.34020
X0.60300 Y1.34020
X0.60300 Y1.33920
X0.60400 Y1.33920
X0.60400 Y1.33820
X0.60500 Y1.33820
X0.60500 Y1.33720
X0.60600 Y1.33720
X0.60600 Y1.33620
X0.60700 Y1.33620
X0.60700 Y1.33520
X0.60800 Y1.33520
X0.60800 Y1.33420
X0.60900 Y1.33420
X0.60900 Y1.33320
X0.61000 Y1.33320
X0.61000 Y1.33220
X0.61100 Y1.33220
X0.61100 Y1.33120
X0.61200 Y1.33120
X0.61200 Y1.33020
X0.61300 Y1.33020
X0.61300 Y1.32920
X0.61400 Y1.32920
X0.61400 Y1.32820
X0.61500 Y1.32820
X0.61500 Y1.32720
X0.61600 Y1.32720
X0.61600 Y1.32620
X0.61700 Y1.32620
X0.61700 Y1.32520
X0.61800 Y1.32520
X0.61800 Y1.32420
X0.61900 Y1.32420
X0.61900 Y1.32320
X0.62000 Y1.32320
X0.62000 Y1.32220
X0.62100 Y1.32220
X0.62100 Y1.32120
X0.62200 Y1.32120
X0.62200 Y1.32020
X0.62300 Y1.32020
X0.62300 Y1.31920
X0.62400 Y1.31920
X0.62400 Y1.31820
X0.62500 Y1.31820
X0.62500 Y1.31720
X0.62600 Y1.31720
X0.62600 Y1.31620
X0.62700 Y1.31620
X0.62700 Y1.31520
X0.62800 Y1.31520
X0.62800 Y1.30520
X0.62700 Y1.30520
X0.62700 Y1.30420
X0.62600 Y1.30420
X0.62600 Y1.30320
X0.62500 Y1.30320
X0.62500 Y1.30220
X0.62400 Y1.30220
X0.62400 Y1.30120
X0.62300 Y1.30120
X0.62300 Y1.30020
X0.62200 Y1.30020
X0.62200 Y1.29920
X0.62100 Y1.29920
X0.62100 Y1.29820
X0.62000 Y1.29820
X0.62000 Y1.29720
X0.61900 Y1.29720
X0.61900 Y1.29620
X0.61800 Y1.29620
X0.61800 Y1.29520
X0.61700 Y1.29520
X0.61700 Y1.29420
X0.61600 Y1.29420
X0.61600 Y1.29320
X0.61500 Y1.29320
X0.61500 Y1.29220
X0.61400 Y1.29220
X0.61400 Y1.29120
X0.61300 Y1.29120
X0.61300 Y1.29020
X0.61200 Y1.29020
G04 P0 ( dwell for no time -- G64 should not smooth over this point )
G00 Z0.19685 ( retract )

G00 X1.90000 Y1.29020 ( rapid move to begin. )
G01 Z-0.11417 F43.30709 ( plunge. )
G04 P0 ( dwell for no time -- G64 should not smooth over this point )
X1.90000 Y1.29020
X1.90000 Y1.21020
X1.89900 Y1.21020
X1.89900 Y1.20920
X1.88200 Y1.20920
X1.88200 Y1.21020
X1.55200 Y1.21020
X1.55200 Y1.21220
X1.55300 Y1.21220
X1.55300 Y1.21320
X1.55400 Y1.21320
X1.55400 Y1.21420
X1.55500 Y1.21420
X1.55500 Y1.21520
X1.55600 Y1.21520
X1.55600 Y1.21620
X1.55700 Y1.21620
X1.55700 Y1.21720
X1.55800 Y1.21720
X1.55800 Y1.21820
X1.55900 Y1.21820
X1.55900 Y1.21920
X1.56000 Y1.21920
X1.56000 Y1.22020
X1.56100 Y1.22020
X1.56100 Y1.22120
X1.56200 Y1.22120
X1.56200 Y1.22220
X1.56300 Y1.22220
X1.56300 Y1.22320
X1.56400 Y1.22320
X1.56400 Y1.22420
X1.56500 Y1.22420
X1.56500 Y1.22520
X1.56600 Y1.22520
X1.56600 Y1.22620
X1.56700 Y1.22620
X1.56700 Y1.22720
X1.56800 Y1.22720
X1.56800 Y1.22820
X1.56900 Y1.22820
X1.56900 Y1.22920
X1.57000 Y1.22920
X1.57000 Y1.23020
X1.57100 Y1.23020
X1.57100 Y1.23120
X1.57200 Y1.23120
X1.57200 Y1.23220
X1.57300 Y1.23220
X1.57300 Y1.23320
X1.57400 Y1.23320
X1.57400 Y1.23420
X1.57500 Y1.23420
X1.57500 Y1.23520
X1.57600 Y1.23520
X1.57600 Y1.23620
X1.57700 Y1.23620
X1.57700 Y1.23720
X1.57800 Y1.23720
X1.57800 Y1.23820
X1.57900 Y1.23820
X1.57900 Y1.23920
X1.58000 Y1.23920
X1.58000 Y1.24020
X1.58100 Y1.24020
X1.58100 Y1.24120
X1.58200 Y1.24120
X1.58200 Y1.24220
X1.58300 Y1.24220
X1.58300 Y1.24320
X1.58400 Y1.24320
X1.58400 Y1.24420
X1.58500 Y1.24420
X1.58500 Y1.24520
X1.58600 Y1.24520
X1.58600 Y1.24620
X1.58700 Y1.24620
X1.58700 Y1.24720
X1.58800 Y1.24720
X1.58800 Y1.24820
X1.58900 Y1.24820
X1.58900 Y1.24920
X1.59000 Y1.24920
X1.59000 Y1.25020
X1.59100 Y1.25020
X1.59100 Y1.25120
X1.59200 Y1.25120
X1.59200 Y1.25220
X1.59300 Y1.25220
X1.59300 Y1.25320
X1.59400 Y1.25320
X1.59400 Y1.25420
X1.59500 Y1.25420
X1.59500 Y1.25520
X1.59600 Y1.25520
X1.59600 Y1.25620
X1.59700 Y1.25620
X1.59700 Y1.25720
X1.59800 Y1.25720
X1.59800 Y1.25820
X1.59900 Y1.25820
X1.59900 Y1.25920
X1.60000 Y1.25920
X1.60000 Y1.26020
X1.60100 Y1.26020
X1.60100 Y1.26120
X1.60200 Y1.26120
X1.60200 Y1.26220
X1.60300 Y1.26220
X1.60300 Y1.26320
X1.60400 Y1.26320
X1.60400 Y1.26420
X1.60500 Y1.26420
X1.60500 Y1.26520
X1.60600 Y1.26520
X1.60600 Y1.26620
X1.60700 Y1.26620
X1.60700 Y1.26720
X1.60800 Y1.26720
X1.60800 Y1.26820
X1.60900 Y1.26820
X1.60900 Y1.26920
X1.61000 Y1.26920
X1.61000 Y1.27020
X1.61100 Y1.27020
X1.61100 Y1.27120
X1.61200 Y1.27120
X1.61200 Y1.27220
X1.61300 Y1.27220
X1.61300 Y1.27320
X1.61400 Y1.27320
X1.61400 Y1.27420
X1.61500 Y1.27420
X1.61500 Y1.27520
X1.61600 Y1.27520
X1.61600 Y1.27620
X1.61700 Y1.27620
X1.61700 Y1.27920
X1.61800 Y1.27920
X1.61800 Y1.28220
X1.61900 Y1.28220
X1.61900 Y1.28520
X1.62000 Y1.28520
X1.62000 Y1.28820
X1.62100 Y1.28820
X1.62100 Y1.29120
X1.62200 Y1.29120
X1.62200 Y1.29420
X1.62300 Y1.29420
X1.62300 Y1.29720
X1.62400 Y1.29720
X1.62400 Y1.30020
X1.62500 Y1.30020
X1.62500 Y1.46820
X1.62600 Y1.46820
X1.62600 Y1.47120
X1.62700 Y1.47120
X1.62700 Y1.47420
X1.62800 Y1.47420
X1.62800 Y1.47720
X1.62900 Y1.47720
X1.62900 Y1.48020
X1.63000 Y1.48020
X1.63000 Y1.48320
X1.63100 Y1.48320
X1.63100 Y1.48620
X1.63200 Y1.48620
X1.63200 Y1.48920
X1.63300 Y1.48920
X1.63300 Y1.49220
X1.63400 Y1.49220
X1.63400 Y1.49420
X1.63500 Y1.49420
X1.63500 Y1.49520
X1.63600 Y1.49520
X1.63600 Y1.49620
X1.63700 Y1.49620
X1.63700 Y1.49720
X1.63800 Y1.49720
X1.63800 Y1.49820
X1.63900 Y1.49820
X1.63900 Y1.49920
X1.64000 Y1.49920
X1.64000 Y1.50020
X1.64100 Y1.50020
X1.64100 Y1.50120
X1.64200 Y1.50120
X1.64200 Y1.50220
X1.64300 Y1.50220
X1.64300 Y1.50320
X1.64400 Y1.50320
X1.64400 Y1.50420
X1.64500 Y1.50420
X1.64500 Y1.50520
X1.64600 Y1.50520
X1.64600 Y1.50620
X1.64700 Y1.50620
X1.64700 Y1.50720
X1.64800 Y1.50720
X1.64800 Y1.50820
X1.64900 Y1.50820
X1.64900 Y1.50920
X1.65000 Y1.50920
X1.65000 Y1.51020
X1.65100 Y1.51020
X1.65100 Y1.51120
X1.65200 Y1.51120
X1.65200 Y1.51220
X1.65300 Y1.51220
X1.65300 Y1.51320
X1.65400 Y1.51320
X1.65400 Y1.51420
X1.65500 Y1.51420
X1.65500 Y1.51520
X1.65600 Y1.51520
X1.65600 Y1.51620
X1.65700 Y1.51620
X1.65700 Y1.51720
X1.65800 Y1.51720
X1.65800 Y1.51820
X1.65900 Y1.51820
X1.65900 Y1.51920
X1.66000 Y1.51920
X1.66000 Y1.52020
X1.66100 Y1.52020
X1.66100 Y1.52120
X1.66200 Y1.52120
X1.66200 Y1.52220
X1.66300 Y1.52220
X1.66300 Y1.52320
X1.66400 Y1.52320
X1.66400 Y1.52420
X1.66500 Y1.52420
X1.66500 Y1.52520
X1.66600 Y1.52520
X1.66600 Y1.52620
X1.66700 Y1.52620
X1.66700 Y1.52720
X1.66800 Y1.52720
X1.66800 Y1.52820
X1.66900 Y1.52820
X1.66900 Y1.52920
X1.67000 Y1.52920
X1.67000 Y1.53020
X1.67100 Y1.53020
X1.67100 Y1.53120
X1.67200 Y1.53120
X1.67200 Y1.53220
X1.67300 Y1.53220
X1.67300 Y1.53320
X1.67400 Y1.53320
X1.67400 Y1.53420
X1.67500 Y1.53420
X1.67500 Y1.53520
X1.67600 Y1.53520
X1.67600 Y1.53620
X1.67700 Y1.53620
X1.67700 Y1.53720
X1.67800 Y1.53720
X1.67800 Y1.53820
X1.67900 Y1.53820
X1.67900 Y1.53920
X1.68000 Y1.53920
X1.68000 Y1.54020
X1.68100 Y1.54020
X1.68100 Y1.54120
X1.68200 Y1.54120
X1.68200 Y1.54220
X1.68300 Y1.54220
X1.68300 Y1.54320
X1.68400 Y1.54320
X1.68400 Y1.54420
X1.68500 Y1.54420
X1.68500 Y1.54520
X1.68600 Y1.54520
X1.68600 Y1.54620
X1.68700 Y1.54620
X1.68700 Y1.54720
X1.68800 Y1.54720
X1.68800 Y1.54820
X1.68900 Y1.54820
X1.68900 Y1.54920
X1.69000 Y1.54920
X1.69000 Y1.55020
X1.69100 Y1.55020
X1.69100 Y1.55120
X1.69200 Y1.55120
X1.69200 Y1.55220
X1.69300 Y1.55220
X1.69300 Y1.55320
X1.69400 Y1.55320
X1.69400 Y1.55420
X1.69500 Y1.55420
X1.69500 Y1.55520
X1.69600 Y1.55520
X1.69600 Y1.55620
X1.69700 Y1.55620
X1.69700 Y1.55720
X1.69800 Y1.55720
X1.69800 Y1.55820
X1.69900 Y1.55820
X1.69900 Y1.55920
X1.70000 Y1.55920
X1.70000 Y1.56020
X1.70100 Y1.56020
X1.70100 Y1.56120
X1.70200 Y1.56120
X1.70200 Y1.56220
X1.70300 Y1.56220
X1.70300 Y1.56320
X1.70400 Y1.56320
X1.70400 Y1.56420
X1.70500 Y1.56420
X1.70500 Y1.56520
X1.70600 Y1.56520
X1.70600 Y1.56620
X1.70700 Y1.56620
X1.70700 Y1.56720
X1.70800 Y1.56720
X1.70800 Y1.56820
X1.70900 Y1.56820
X1.70900 Y1.56920
X1.71000 Y1.56920
X1.71000 Y1.57020
X1.71100 Y1.57020
X1.71100 Y1.57120
X1.71200 Y1.57120
X1.71200 Y1.57220
X1.71300 Y1.57220
X1.71300 Y1.57320
X1.71400 Y1.57320
X1.71400 Y1.57420
X1.71500 Y1.57420
X1.71500 Y1.57520
X1.71600 Y1.57520
X1.71600 Y1.57620
X1.71700 Y1.57620
X1.71700 Y1.57720
X1.71800 Y1.57720
X1.71800 Y1.57820
X1.71900 Y1.57820
X1.71900 Y1.57920
X1.72000 Y1.57920
X1.72000 Y1.58020
X1.72100 Y1.58020
X1.72100 Y1.58120
X1.72200 Y1.58120
X1.72200 Y1.58220
X1.72300 Y1.58220
X1.72300 Y1.58320
X1.72400 Y1.58320
X1.72400 Y1.58420
X1.72500 Y1.58420
X1.72500 Y1.58520
X1.72600 Y1.58520
X1.72600 Y1.58620
X1.72700 Y1.58620
X1.72700 Y1.58720
X1.72800 Y1.58720
X1.72800 Y1.58820
X1.72900 Y1.58820
X1.72900 Y1.58920
X1.73000 Y1.58920
X1.73000 Y1.59020
X1.73100 Y1.59020
X1.73100 Y1.59220
X1.89900 Y1.59220
X1.89900 Y1.29520
X1.89800 Y1.29520
X1.89800 Y1.29120
X1.90000 Y1.29120
X1.90000 Y1.29020
G04 P0 ( dwell for no time -- G64 should not smooth over this point )
G00 Z0.19685 ( retract )

G00 X2.33100 Y1.29020 ( rapid move to begin. )
G01 Z-0.11417 F43.30709 ( plunge. )
G04 P0 ( dwell for no time -- G64 should not smooth over this point )
X2.33100 Y1.29020
X2.33100 Y1.28920
X2.33400 Y1.28920
X2.33400 Y1.19020
X2.33200 Y1.19020
X2.33200 Y1.19120
X2.03000 Y1.19120
X2.03000 Y1.19220
X2.02900 Y1.19220
X2.02900 Y1.19320
X2.02800 Y1.19320
X2.02800 Y1.19420
X2.02700 Y1.19420
X2.02700 Y1.19520
X2.02600 Y1.19520
X2.02600 Y1.19620
X2.02500 Y1.19620
X2.02500 Y1.19720
X2.02400 Y1.19720
X2.02400 Y1.19820
X2.02300 Y1.19820
X2.02300 Y1.19920
X2.02200 Y1.19920
X2.02200 Y1.20020
X2.02100 Y1.20020
X2.02100 Y1.20120
X2.02000 Y1.20120
X2.02000 Y1.20220
X2.01900 Y1.20220
X2.01900 Y1.20320
X2.01800 Y1.20320
X2.01800 Y1.20420
X2.01700 Y1.20420
X2.01700 Y1.20520
X2.01600 Y1.20520
X2.01600 Y1.20620
X2.01500 Y1.20620
X2.01500 Y1.20720
X2.01400 Y1.20720
X2.01400 Y1.20820
X2.01300 Y1.20820
X2.01300 Y1.20920
X1.98200 Y1.20920
X1.98200 Y1.21020
X1.90000 Y1.21020
X1.90000 Y1.29120
X1.89800 Y1.29120
X1.89800 Y1.29520
X1.89900 Y1.29520
X1.89900 Y1.59220
X2.33100 Y1.59220
X2.33100 Y1.29020
G04 P0 ( dwell for no time -- G64 should not smooth over this point )
G00 Z0.19685 ( retract )

G00 X0.95000 Y1.28620 ( rapid move to begin. )
G01 Z-0.11417 F43.30709 ( plunge. )
G04 P0 ( dwell for no time -- G64 should not smooth over this point )
X0.95000 Y1.28620
X0.95000 Y1.18720
X0.92100 Y1.18720
X0.92100 Y1.18820
X0.92000 Y1.18820
X0.92000 Y1.18920
X0.91900 Y1.18920
X0.91900 Y1.19020
X0.91800 Y1.19020
X0.91800 Y1.19120
X0.91700 Y1.19120
X0.91700 Y1.19220
X0.91600 Y1.19220
X0.91600 Y1.19320
X0.91500 Y1.19320
X0.91500 Y1.19420
X0.91400 Y1.19420
X0.91400 Y1.19520
X0.91300 Y1.19520
X0.91300 Y1.19620
X0.91200 Y1.19620
X0.91200 Y1.19720
X0.91100 Y1.19720
X0.91100 Y1.19820
X0.91000 Y1.19820
X0.91000 Y1.19920
X0.90900 Y1.19920
X0.90900 Y1.20020
X0.90800 Y1.20020
X0.90800 Y1.20120
X0.90700 Y1.20120
X0.90700 Y1.20220
X0.90600 Y1.20220
X0.90600 Y1.20320
X0.90500 Y1.20320
X0.90500 Y1.20420
X0.90400 Y1.20420
X0.90400 Y1.20520
X0.90300 Y1.20520
X0.90300 Y1.20620
X0.90200 Y1.20620
X0.90200 Y1.20720
X0.90100 Y1.20720
X0.90100 Y1.20820
X0.90000 Y1.20820
X0.90000 Y1.20920
X0.89100 Y1.20920
X0.89100 Y1.20820
X0.89000 Y1.20820
X0.89000 Y1.20720
X0.88800 Y1.20720
X0.88800 Y1.20620
X0.88600 Y1.20620
X0.88600 Y1.20720
X0.88500 Y1.20720
X0.88500 Y1.20820
X0.88400 Y1.20820
X0.88400 Y1.20920
X0.86500 Y1.20920
X0.86500 Y1.21020
X0.73600 Y1.21020
X0.73600 Y1.21120
X0.73500 Y1.21120
X0.73500 Y1.21220
X0.73300 Y1.21220
X0.73300 Y1.21320
X0.73000 Y1.21320
X0.73000 Y1.21420
X0.72700 Y1.21420
X0.72700 Y1.21520
X0.72400 Y1.21520
X0.72400 Y1.21620
X0.72100 Y1.21620
X0.72100 Y1.21720
X0.71900 Y1.21720
X0.71900 Y1.21820
X0.71800 Y1.21820
X0.71800 Y1.21920
X0.71600 Y1.21920
X0.71600 Y1.22020
X0.71400 Y1.22020
X0.71400 Y1.22120
X0.71300 Y1.22120
X0.71300 Y1.22220
X0.71100 Y1.22220
X0.71100 Y1.22320
X0.71000 Y1.22320
X0.71000 Y1.22420
X0.70900 Y1.22420
X0.70900 Y1.22520
X0.70800 Y1.22520
X0.70800 Y1.22620
X0.70700 Y1.22620
X0.70700 Y1.22720
X0.70600 Y1.22720
X0.70600 Y1.22820
X0.70500 Y1.22820
X0.70500 Y1.22920
X0.70400 Y1.22920
X0.70400 Y1.23020
X0.70300 Y1.23020
X0.70300 Y1.23120
X0.70200 Y1.23120
X0.70200 Y1.23220
X0.70100 Y1.23220
X0.70100 Y1.23320
X0.70000 Y1.23320
X0.70000 Y1.23420
X0.69900 Y1.23420
X0.69900 Y1.23520
X0.69800 Y1.23520
X0.69800 Y1.23620
X0.69700 Y1.23620
X0.69700 Y1.23720
X0.69600 Y1.23720
X0.69600 Y1.23820
X0.69500 Y1.23820
X0.69500 Y1.23920
X0.69400 Y1.23920
X0.69400 Y1.24020
X0.69300 Y1.24020
X0.69300 Y1.24120
X0.69200 Y1.24120
X0.69200 Y1.24220
X0.69100 Y1.24220
X0.69100 Y1.24320
X0.69000 Y1.24320
X0.69000 Y1.24420
X0.68900 Y1.24420
X0.68900 Y1.24520
X0.68800 Y1.24520
X0.68800 Y1.24620
X0.68700 Y1.24620
X0.68700 Y1.24720
X0.68600 Y1.24720
X0.68600 Y1.24820
X0.68500 Y1.24820
X0.68500 Y1.24920
X0.68400 Y1.24920
X0.68400 Y1.25020
X0.68300 Y1.25020
X0.68300 Y1.25120
X0.68200 Y1.25120
X0.68200 Y1.25220
X0.68100 Y1.25220
X0.68100 Y1.25320
X0.68000 Y1.25320
X0.68000 Y1.25420
X0.67900 Y1.25420
X0.67900 Y1.25520
X0.67800 Y1.25520
X0.67800 Y1.25620
X0.67700 Y1.25620
X0.67700 Y1.25720
X0.67600 Y1.25720
X0.67600 Y1.25820
X0.67500 Y1.25820
X0.67500 Y1.25920
X0.67400 Y1.25920
X0.67400 Y1.26020
X0.67300 Y1.26020
X0.67300 Y1.26120
X0.67200 Y1.26120
X0.67200 Y1.26220
X0.67100 Y1.26220
X0.67100 Y1.26320
X0.67000 Y1.26320
X0.67000 Y1.26420
X0.66900 Y1.26420
X0.66900 Y1.26520
X0.66800 Y1.26520
X0.66800 Y1.26620
X0.66700 Y1.26620
X0.66700 Y1.26720
X0.66600 Y1.26720
X0.66600 Y1.26820
X0.66500 Y1.26820
X0.66500 Y1.26920
X0.66400 Y1.26920
X0.66400 Y1.27020
X0.66300 Y1.27020
X0.66300 Y1.27120
X0.66200 Y1.27120
X0.66200 Y1.27220
X0.66100 Y1.27220
X0.66100 Y1.27320
X0.66000 Y1.27320
X0.66000 Y1.27420
X0.65900 Y1.27420
X0.65900 Y1.27520
X0.65800 Y1.27520
X0.65800 Y1.27620
X0.65700 Y1.27620
X0.65700 Y1.27720
X0.65600 Y1.27720
X0.65600 Y1.27820
X0.65500 Y1.27820
X0.65500 Y1.27920
X0.65400 Y1.27920
X0.65400 Y1.28020
X0.65300 Y1.28020
X0.65300 Y1.28120
X0.65200 Y1.28120
X0.65200 Y1.28220
X0.65100 Y1.28220
X0.65100 Y1.28320
X0.65000 Y1.28320
X0.65000 Y1.28420
X0.64900 Y1.28420
X0.64900 Y1.28520
X0.64800 Y1.28520
X0.64800 Y1.28620
X0.64700 Y1.28620
X0.64700 Y1.28720
X0.64600 Y1.28720
X0.64600 Y1.28820
X0.64500 Y1.28820
X0.64500 Y1.28920
X0.64400 Y1.28920
X0.64400 Y1.29020
X0.64300 Y1.29020
X0.64300 Y1.29120
X0.64200 Y1.29120
X0.64200 Y1.29220
X0.64100 Y1.29220
X0.64100 Y1.29320
X0.64000 Y1.29320
X0.64000 Y1.29420
X0.63900 Y1.29420
X0.63900 Y1.29520
X0.63800 Y1.29520
X0.63800 Y1.29620
X0.63700 Y1.29620
X0.63700 Y1.29720
X0.63600 Y1.29720
X0.63600 Y1.29820
X0.63500 Y1.29820
X0.63500 Y1.29920
X0.63400 Y1.29920
X0.63400 Y1.30020
X0.63300 Y1.30020
X0.63300 Y1.30120
X0.63200 Y1.30120
X0.63200 Y1.30220
X0.63100 Y1.30220
X0.63100 Y1.30320
X0.63000 Y1.30320
X0.63000 Y1.30420
X0.62900 Y1.30420
X0.62900 Y1.30520
X0.62800 Y1.30520
X0.62800 Y1.31020
X0.86500 Y1.31020
X0.86500 Y1.30920
X0.88400 Y1.30920
X0.88400 Y1.30820
X0.88500 Y1.30820
X0.88500 Y1.30720
X0.88600 Y1.30720
X0.88600 Y1.30620
X0.88800 Y1.30620
X0.88800 Y1.30720
X0.89000 Y1.30720
X0.89000 Y1.30820
X0.89100 Y1.30820
X0.89100 Y1.30920
X0.90000 Y1.30920
X0.90000 Y1.30820
X0.90100 Y1.30820
X0.90100 Y1.30720
X0.90200 Y1.30720
X0.90200 Y1.30620
X0.90300 Y1.30620
X0.90300 Y1.30520
X0.90400 Y1.30520
X0.90400 Y1.30420
X0.90500 Y1.30420
X0.90500 Y1.30320
X0.90600 Y1.30320
X0.90600 Y1.30220
X0.90700 Y1.30220
X0.90700 Y1.30120
X0.90800 Y1.30120
X0.90800 Y1.30020
X0.90900 Y1.30020
X0.90900 Y1.29920
X0.91000 Y1.29920
X0.91000 Y1.29820
X0.91100 Y1.29820
X0.91100 Y1.29720
X0.91200 Y1.29720
X0.91200 Y1.29620
X0.91300 Y1.29620
X0.91300 Y1.29520
X0.91400 Y1.29520
X0.91400 Y1.29420
X0.91500 Y1.29420
X0.91500 Y1.29320
X0.91600 Y1.29320
X0.91600 Y1.29220
X0.91700 Y1.29220
X0.91700 Y1.29120
X0.91800 Y1.29120
X0.91800 Y1.29020
X0.91900 Y1.29020
X0.91900 Y1.28920
X0.92000 Y1.28920
X0.92000 Y1.28820
X0.92100 Y1.28820
X0.92100 Y1.28720
X0.95000 Y1.28720
X0.95000 Y1.28620
G04 P0 ( dwell for no time -- G64 should not smooth over this point )
G00 Z0.19685 ( retract )

G00 X1.34500 Y1.28620 ( rapid move to begin. )
G01 Z-0.11417 F43.30709 ( plunge. )
G04 P0 ( dwell for no time -- G64 should not smooth over this point )
X1.34500 Y1.28620
X1.34500 Y1.28520
X1.34600 Y1.28520
X1.34600 Y1.28420
X1.34700 Y1.28420
X1.34700 Y1.28320
X1.34800 Y1.28320
X1.34800 Y1.28220
X1.34900 Y1.28220
X1.34900 Y1.28120
X1.35000 Y1.28120
X1.35000 Y1.28020
X1.35100 Y1.28020
X1.35100 Y1.27920
X1.35200 Y1.27920
X1.35200 Y1.27820
X1.35300 Y1.27820
X1.35300 Y1.27720
X1.35400 Y1.27720
X1.35400 Y1.27620
X1.35500 Y1.27620
X1.35500 Y1.27520
X1.35600 Y1.27520
X1.35600 Y1.27420
X1.35700 Y1.27420
X1.35700 Y1.27320
X1.35800 Y1.27320
X1.35800 Y1.27220
X1.35900 Y1.27220
X1.35900 Y1.27120
X1.36000 Y1.27120
X1.36000 Y1.27020
X1.36100 Y1.27020
X1.36100 Y1.26920
X1.36200 Y1.26920
X1.36200 Y1.26820
X1.36300 Y1.26820
X1.36300 Y1.26720
X1.36400 Y1.26720
X1.36400 Y1.26620
X1.36500 Y1.26620
X1.36500 Y1.26520
X1.36600 Y1.26520
X1.36600 Y1.26420
X1.36700 Y1.26420
X1.36700 Y1.26320
X1.36800 Y1.26320
X1.36800 Y1.26220
X1.36900 Y1.26220
X1.36900 Y1.26120
X1.37000 Y1.26120
X1.37000 Y1.26020
X1.37100 Y1.26020
X1.37100 Y1.25920
X1.37200 Y1.25920
X1.37200 Y1.25820
X1.37300 Y1.25820
X1.37300 Y1.25720
X1.37400 Y1.25720
X1.37400 Y1.25620
X1.37500 Y1.25620
X1.37500 Y1.25520
X1.37600 Y1.25520
X1.37600 Y1.25420
X1.37700 Y1.25420
X1.37700 Y1.25320
X1.37800 Y1.25320
X1.37800 Y1.25220
X1.37900 Y1.25220
X1.37900 Y1.25120
X1.38000 Y1.25120
X1.38000 Y1.25020
X1.38100 Y1.25020
X1.38100 Y1.24920
X1.38200 Y1.24920
X1.38200 Y1.24820
X1.38300 Y1.24820
X1.38300 Y1.24720
X1.38400 Y1.24720
X1.38400 Y1.24620
X1.38500 Y1.24620
X1.38500 Y1.24520
X1.38600 Y1.24520
X1.38600 Y1.24420
X1.38700 Y1.24420
X1.38700 Y1.24320
X1.38800 Y1.24320
X1.38800 Y1.24220
X1.38900 Y1.24220
X1.38900 Y1.24120
X1.39000 Y1.24120
X1.39000 Y1.24020
X1.39100 Y1.24020
X1.39100 Y1.23920
X1.39200 Y1.23920
X1.39200 Y1.23820
X1.39300 Y1.23820
X1.39300 Y1.23720
X1.39400 Y1.23720
X1.39400 Y1.23620
X1.39500 Y1.23620
X1.39500 Y1.23520
X1.39600 Y1.23520
X1.39600 Y1.23420
X1.39700 Y1.23420
X1.39700 Y1.23320
X1.39800 Y1.23320
X1.39800 Y1.23220
X1.39900 Y1.23220
X1.39900 Y1.23120
X1.40000 Y1.23120
X1.40000 Y1.23020
X1.40100 Y1.23020
X1.40100 Y1.22920
X1.40200 Y1.22920
X1.40200 Y1.22820
X1.40300 Y1.22820
X1.40300 Y1.22720
X1.40400 Y1.22720
X1.40400 Y1.22620
X1.40500 Y1.22620
X1.40500 Y1.22520
X1.40600 Y1.22520
X1.40600 Y1.22420
X1.40700 Y1.22420
X1.40700 Y1.22320
X1.40800 Y1.22320
X1.40800 Y1.22220
X1.40900 Y1.22220
X1.40900 Y1.22120
X1.41000 Y1.22120
X1.41000 Y1.22020
X1.41100 Y1.22020
X1.41100 Y1.21920
X1.41200 Y1.21920
X1.41200 Y1.21820
X1.41300 Y1.21820
X1.41300 Y1.21720
X1.41400 Y1.21720
X1.41400 Y1.21620
X1.41500 Y1.21620
X1.41500 Y1.21520
X1.41600 Y1.21520
X1.41600 Y1.21420
X1.41700 Y1.21420
X1.41700 Y1.21320
X1.41800 Y1.21320
X1.41800 Y1.21220
X1.41900 Y1.21220
X1.41900 Y1.21120
X1.42000 Y1.21120
X1.42000 Y1.21020
X1.42100 Y1.21020
X1.42100 Y1.20920
X1.42200 Y1.20920
X1.42200 Y1.20820
X1.42300 Y1.20820
X1.42300 Y1.20720
X1.42400 Y1.20720
X1.42400 Y1.20620
X1.42500 Y1.20620
X1.42500 Y1.20520
X1.42600 Y1.20520
X1.42600 Y1.20420
X1.42700 Y1.20420
X1.42700 Y1.20320
X1.42800 Y1.20320
X1.42800 Y1.20220
X1.42900 Y1.20220
X1.42900 Y1.20120
X1.43000 Y1.20120
X1.43000 Y1.20020
X1.43100 Y1.20020
X1.43100 Y1.19920
X1.43200 Y1.19920
X1.43200 Y1.19820
X1.43300 Y1.19820
X1.43300 Y1.19720
X1.43400 Y1.19720
X1.43400 Y1.19620
X1.43500 Y1.19620
X1.43500 Y1.19520
X1.43600 Y1.19520
X1.43600 Y1.19420
X1.43700 Y1.19420
X1.43700 Y1.19320
X1.43800 Y1.19320
X1.43800 Y1.19220
X1.43900 Y1.19220
X1.43900 Y1.19120
X1.44000 Y1.19120
X1.44000 Y1.19020
X1.44100 Y1.19020
X1.44100 Y1.18920
X1.44200 Y1.18920
X1.44200 Y1.18720
X1.22100 Y1.18720
X1.22100 Y1.18820
X1.22000 Y1.18820
X1.22000 Y1.18920
X1.21900 Y1.18920
X1.21900 Y1.19020
X1.21800 Y1.19020
X1.21800 Y1.19120
X1.21700 Y1.19120
X1.21700 Y1.19220
X1.21600 Y1.19220
X1.21600 Y1.19320
X1.21500 Y1.19320
X1.21500 Y1.19420
X1.21400 Y1.19420
X1.21400 Y1.19520
X1.21300 Y1.19520
X1.21300 Y1.19620
X1.21200 Y1.19620
X1.21200 Y1.19720
X1.21100 Y1.19720
X1.21100 Y1.19820
X1.21000 Y1.19820
X1.21000 Y1.19920
X1.20900 Y1.19920
X1.20900 Y1.20020
X1.20800 Y1.20020
X1.20800 Y1.20120
X1.20700 Y1.20120
X1.20700 Y1.20220
X1.20600 Y1.20220
X1.20600 Y1.20320
X1.20500 Y1.20320
X1.20500 Y1.20420
X1.20400 Y1.20420
X1.20400 Y1.20520
X1.20300 Y1.20520
X1.20300 Y1.20620
X1.20200 Y1.20620
X1.20200 Y1.20720
X1.20100 Y1.20720
X1.20100 Y1.20820
X1.20000 Y1.20820
X1.20000 Y1.20920
X1.19100 Y1.20920
X1.19100 Y1.20820
X1.19000 Y1.20820
X1.19000 Y1.20720
X1.18800 Y1.20720
X1.18800 Y1.20620
X1.18600 Y1.20620
X1.18600 Y1.20720
X1.18500 Y1.20720
X1.18500 Y1.20820
X1.18400 Y1.20820
X1.18400 Y1.20920
X1.16500 Y1.20920
X1.16500 Y1.21020
X0.95000 Y1.21020
X0.95000 Y1.31020
X1.16500 Y1.31020
X1.16500 Y1.30920
X1.18400 Y1.30920
X1.18400 Y1.30820
X1.18500 Y1.30820
X1.18500 Y1.30720
X1.18600 Y1.30720
X1.18600 Y1.30620
X1.18800 Y1.30620
X1.18800 Y1.30720
X1.19000 Y1.30720
X1.19000 Y1.30820
X1.19100 Y1.30820
X1.19100 Y1.30920
X1.20000 Y1.30920
X1.20000 Y1.30820
X1.20100 Y1.30820
X1.20100 Y1.30720
X1.20200 Y1.30720
X1.20200 Y1.30620
X1.20300 Y1.30620
X1.20300 Y1.30520
X1.20400 Y1.30520
X1.20400 Y1.30420
X1.20500 Y1.30420
X1.20500 Y1.30320
X1.20600 Y1.30320
X1.20600 Y1.30220
X1.20700 Y1.30220
X1.20700 Y1.30120
X1.20800 Y1.30120
X1.20800 Y1.30020
X1.20900 Y1.30020
X1.20900 Y1.29920
X1.21000 Y1.29920
X1.21000 Y1.29820
X1.21100 Y1.29820
X1.21100 Y1.29720
X1.21200 Y1.29720
X1.21200 Y1.29620
X1.21300 Y1.29620
X1.21300 Y1.29520
X1.21400 Y1.29520
X1.21400 Y1.29420
X1.21500 Y1.29420
X1.21500 Y1.29320
X1.21600 Y1.29320
X1.21600 Y1.29220
X1.21700 Y1.29220
X1.21700 Y1.29120
X1.21800 Y1.29120
X1.21800 Y1.29020
X1.21900 Y1.29020
X1.21900 Y1.28920
X1.22000 Y1.28920
X1.22000 Y1.28820
X1.22100 Y1.28820
X1.22100 Y1.28720
X1.34500 Y1.28720
X1.34500 Y1.28620
G04 P0 ( dwell for no time -- G64 should not smooth over this point )
G00 Z0.19685 ( retract )

G00 X0.59200 Y1.19020 ( rapid move to begin. )
G01 Z-0.11417 F43.30709 ( plunge. )
G04 P0 ( dwell for no time -- G64 should not smooth over this point )
X0.59200 Y1.19020
X0.59200 Y1.09120
X0.57500 Y1.09120
X0.57500 Y1.09220
X0.57400 Y1.09220
X0.57400 Y1.09320
X0.57300 Y1.09320
X0.57300 Y1.09420
X0.57200 Y1.09420
X0.57200 Y1.09520
X0.57100 Y1.09520
X0.57100 Y1.09620
X0.57000 Y1.09620
X0.57000 Y1.09720
X0.56900 Y1.09720
X0.56900 Y1.09820
X0.56800 Y1.09820
X0.56800 Y1.09920
X0.56700 Y1.09920
X0.56700 Y1.10020
X0.56600 Y1.10020
X0.56600 Y1.10120
X0.56500 Y1.10120
X0.56500 Y1.10220
X0.56400 Y1.10220
X0.56400 Y1.10320
X0.56300 Y1.10320
X0.56300 Y1.10420
X0.56200 Y1.10420
X0.56200 Y1.10520
X0.56100 Y1.10520
X0.56100 Y1.10620
X0.56000 Y1.10620
X0.56000 Y1.10720
X0.55900 Y1.10720
X0.55900 Y1.10820
X0.54700 Y1.10820
X0.54700 Y1.10720
X0.54500 Y1.10720
X0.54500 Y1.10620
X0.54300 Y1.10620
X0.54300 Y1.10720
X0.54200 Y1.10720
X0.54200 Y1.10820
X0.54100 Y1.10820
X0.54100 Y1.10920
X0.53600 Y1.10920
X0.53600 Y1.10820
X0.53400 Y1.10820
X0.53400 Y1.10920
X0.52100 Y1.10920
X0.52100 Y1.11020
X0.51600 Y1.11020
X0.51600 Y1.10920
X0.51400 Y1.10920
X0.51400 Y1.11020
X0.51000 Y1.11020
X0.51000 Y1.10920
X0.50800 Y1.10920
X0.50800 Y1.11020
X0.05500 Y1.11020
X0.05500 Y1.21020
X0.50800 Y1.21020
X0.50800 Y1.20920
X0.51000 Y1.20920
X0.51000 Y1.21020
X0.51400 Y1.21020
X0.51400 Y1.20920
X0.51600 Y1.20920
X0.51600 Y1.21020
X0.52100 Y1.21020
X0.52100 Y1.20920
X0.53400 Y1.20920
X0.53400 Y1.20820
X0.53600 Y1.20820
X0.53600 Y1.20920
X0.54100 Y1.20920
X0.54100 Y1.20820
X0.54200 Y1.20820
X0.54200 Y1.20720
X0.54300 Y1.20720
X0.54300 Y1.20620
X0.54500 Y1.20620
X0.54500 Y1.20720
X0.54700 Y1.20720
X0.54700 Y1.20820
X0.55900 Y1.20820
X0.55900 Y1.20720
X0.56000 Y1.20720
X0.56000 Y1.20620
X0.56100 Y1.20620
X0.56100 Y1.20520
X0.56200 Y1.20520
X0.56200 Y1.20420
X0.56300 Y1.20420
X0.56300 Y1.20320
X0.56400 Y1.20320
X0.56400 Y1.20220
X0.56500 Y1.20220
X0.56500 Y1.20120
X0.56600 Y1.20120
X0.56600 Y1.20020
X0.56700 Y1.20020
X0.56700 Y1.19920
X0.56800 Y1.19920
X0.56800 Y1.19820
X0.56900 Y1.19820
X0.56900 Y1.19720
X0.57000 Y1.19720
X0.57000 Y1.19620
X0.57100 Y1.19620
X0.57100 Y1.19520
X0.57200 Y1.19520
X0.57200 Y1.19420
X0.57300 Y1.19420
X0.57300 Y1.19320
X0.57400 Y1.19320
X0.57400 Y1.19220
X0.57500 Y1.19220
X0.57500 Y1.19120
X0.59200 Y1.19120
X0.59200 Y1.19020
G04 P0 ( dwell for no time -- G64 should not smooth over this point )
G00 Z0.19685 ( retract )

G00 X1.90000 Y1.19020 ( rapid move to begin. )
G01 Z-0.11417 F43.30709 ( plunge. )
G04 P0 ( dwell for no time -- G64 should not smooth over this point )
X1.90000 Y1.19020
X1.90000 Y1.11620
X1.89800 Y1.11620
X1.89800 Y1.11520
X1.89500 Y1.11520
X1.89500 Y1.11220
X1.89400 Y1.11220
X1.89400 Y1.10920
X1.88200 Y1.10920
X1.88200 Y1.11020
X1.52200 Y1.11020
X1.52200 Y1.16920
X1.52100 Y1.16920
X1.52100 Y1.17020
X1.52000 Y1.17020
X1.52000 Y1.17420
X1.51900 Y1.17420
X1.51900 Y1.17920
X1.52000 Y1.17920
X1.52000 Y1.18020
X1.52100 Y1.18020
X1.52100 Y1.18120
X1.52200 Y1.18120
X1.52200 Y1.18220
X1.52300 Y1.18220
X1.52300 Y1.18320
X1.52400 Y1.18320
X1.52400 Y1.18420
X1.52500 Y1.18420
X1.52500 Y1.18520
X1.52600 Y1.18520
X1.52600 Y1.18620
X1.52700 Y1.18620
X1.52700 Y1.18720
X1.52800 Y1.18720
X1.52800 Y1.18820
X1.52900 Y1.18820
X1.52900 Y1.18920
X1.53000 Y1.18920
X1.53000 Y1.19020
X1.53100 Y1.19020
X1.53100 Y1.19120
X1.53200 Y1.19120
X1.53200 Y1.19220
X1.53300 Y1.19220
X1.53300 Y1.19320
X1.53400 Y1.19320
X1.53400 Y1.19420
X1.53500 Y1.19420
X1.53500 Y1.19520
X1.53600 Y1.19520
X1.53600 Y1.19620
X1.53700 Y1.19620
X1.53700 Y1.19720
X1.53800 Y1.19720
X1.53800 Y1.19820
X1.53900 Y1.19820
X1.53900 Y1.19920
X1.54000 Y1.19920
X1.54000 Y1.20020
X1.54100 Y1.20020
X1.54100 Y1.20120
X1.54200 Y1.20120
X1.54200 Y1.20220
X1.54300 Y1.20220
X1.54300 Y1.20320
X1.54400 Y1.20320
X1.54400 Y1.20420
X1.54500 Y1.20420
X1.54500 Y1.20520
X1.54600 Y1.20520
X1.54600 Y1.20620
X1.54700 Y1.20620
X1.54700 Y1.20720
X1.54800 Y1.20720
X1.54800 Y1.20820
X1.54900 Y1.20820
X1.54900 Y1.20920
X1.55000 Y1.20920
X1.55000 Y1.21020
X1.88200 Y1.21020
X1.88200 Y1.20920
X1.89900 Y1.20920
X1.89900 Y1.19520
X1.89800 Y1.19520
X1.89800 Y1.19120
X1.90000 Y1.19120
X1.90000 Y1.19020
G04 P0 ( dwell for no time -- G64 should not smooth over this point )
G00 Z0.19685 ( retract )

G00 X2.33100 Y1.19020 ( rapid move to begin. )
G01 Z-0.11417 F43.30709 ( plunge. )
G04 P0 ( dwell for no time -- G64 should not smooth over this point )
X2.33100 Y1.19020
X2.33100 Y1.18920
X2.33400 Y1.18920
X2.33400 Y1.11820
X2.00400 Y1.11820
X2.00400 Y1.11720
X2.00100 Y1.11720
X2.00100 Y1.11620
X1.99800 Y1.11620
X1.99800 Y1.11520
X1.99500 Y1.11520
X1.99500 Y1.11420
X1.99200 Y1.11420
X1.99200 Y1.11320
X1.98900 Y1.11320
X1.98900 Y1.11220
X1.98600 Y1.11220
X1.98600 Y1.11120
X1.98300 Y1.11120
X1.98300 Y1.11020
X1.91600 Y1.11020
X1.91600 Y1.11120
X1.91300 Y1.11120
X1.91300 Y1.11220
X1.91000 Y1.11220
X1.91000 Y1.11320
X1.90700 Y1.11320
X1.90700 Y1.11420
X1.90400 Y1.11420
X1.90400 Y1.11520
X1.90100 Y1.11520
X1.90100 Y1.11620
X1.90000 Y1.11620
X1.90000 Y1.19120
X1.89800 Y1.19120
X1.89800 Y1.19520
X1.89900 Y1.19520
X1.89900 Y1.21020
X1.98200 Y1.21020
X1.98200 Y1.20920
X2.01300 Y1.20920
X2.01300 Y1.20820
X2.01400 Y1.20820
X2.01400 Y1.20720
X2.01500 Y1.20720
X2.01500 Y1.20620
X2.01600 Y1.20620
X2.01600 Y1.20520
X2.01700 Y1.20520
X2.01700 Y1.20420
X2.01800 Y1.20420
X2.01800 Y1.20320
X2.01900 Y1.20320
X2.01900 Y1.20220
X2.02000 Y1.20220
X2.02000 Y1.20120
X2.02100 Y1.20120
X2.02100 Y1.20020
X2.02200 Y1.20020
X2.02200 Y1.19920
X2.02300 Y1.19920
X2.02300 Y1.19820
X2.02400 Y1.19820
X2.02400 Y1.19720
X2.02500 Y1.19720
X2.02500 Y1.19620
X2.02600 Y1.19620
X2.02600 Y1.19520
X2.02700 Y1.19520
X2.02700 Y1.19420
X2.02800 Y1.19420
X2.02800 Y1.19320
X2.02900 Y1.19320
X2.02900 Y1.19220
X2.03000 Y1.19220
X2.03000 Y1.19120
X2.33100 Y1.19120
X2.33100 Y1.19020
G04 P0 ( dwell for no time -- G64 should not smooth over this point )
G00 Z0.19685 ( retract )

G00 X0.73800 Y1.18620 ( rapid move to begin. )
G01 Z-0.11417 F43.30709 ( plunge. )
G04 P0 ( dwell for no time -- G64 should not smooth over this point )
X0.73800 Y1.18620
X0.73800 Y1.17820
X0.73700 Y1.17820
X0.73700 Y1.14320
X0.73800 Y1.14320
X0.73800 Y1.11220
X0.73900 Y1.11220
X0.73900 Y1.11020
X0.73800 Y1.11020
X0.73800 Y1.10920
X0.73500 Y1.10920
X0.73500 Y1.10820
X0.73200 Y1.10820
X0.73200 Y1.10720
X0.72900 Y1.10720
X0.72900 Y1.10620
X0.72600 Y1.10620
X0.72600 Y1.10520
X0.72300 Y1.10520
X0.72300 Y1.10420
X0.72000 Y1.10420
X0.72000 Y1.10320
X0.71900 Y1.10320
X0.71900 Y1.10220
X0.71700 Y1.10220
X0.71700 Y1.10120
X0.71600 Y1.10120
X0.71600 Y1.10020
X0.71400 Y1.10020
X0.71400 Y1.09920
X0.71300 Y1.09920
X0.71300 Y1.09820
X0.71100 Y1.09820
X0.71100 Y1.09720
X0.71000 Y1.09720
X0.71000 Y1.09620
X0.70900 Y1.09620
X0.70900 Y1.09520
X0.70800 Y1.09520
X0.70800 Y1.09420
X0.70700 Y1.09420
X0.70700 Y1.09320
X0.70600 Y1.09320
X0.70600 Y1.09220
X0.70500 Y1.09220
X0.70500 Y1.09120
X0.70400 Y1.09120
X0.70400 Y1.09020
X0.70300 Y1.09020
X0.70300 Y1.08920
X0.70200 Y1.08920
X0.70200 Y1.08820
X0.70100 Y1.08820
X0.70100 Y1.08720
X0.70000 Y1.08720
X0.70000 Y1.08620
X0.69900 Y1.08620
X0.69900 Y1.08520
X0.69800 Y1.08520
X0.69800 Y1.08420
X0.69700 Y1.08420
X0.69700 Y1.08320
X0.69600 Y1.08320
X0.69600 Y1.08220
X0.69500 Y1.08220
X0.69500 Y1.08120
X0.69400 Y1.08120
X0.69400 Y1.08020
X0.69300 Y1.08020
X0.69300 Y1.07920
X0.69200 Y1.07920
X0.69200 Y1.07820
X0.69100 Y1.07820
X0.69100 Y1.07720
X0.69000 Y1.07720
X0.69000 Y1.07620
X0.68900 Y1.07620
X0.68900 Y1.07520
X0.68800 Y1.07520
X0.68800 Y1.07420
X0.68700 Y1.07420
X0.68700 Y1.07320
X0.68600 Y1.07320
X0.68600 Y1.07220
X0.68500 Y1.07220
X0.68500 Y1.07120
X0.68400 Y1.07120
X0.68400 Y1.07020
X0.68300 Y1.07020
X0.68300 Y1.06920
X0.68200 Y1.06920
X0.68200 Y1.06820
X0.68100 Y1.06820
X0.68100 Y1.06720
X0.68000 Y1.06720
X0.68000 Y1.06620
X0.67900 Y1.06620
X0.67900 Y1.06520
X0.67800 Y1.06520
X0.67800 Y1.06420
X0.67700 Y1.06420
X0.67700 Y1.06320
X0.67600 Y1.06320
X0.67600 Y1.06220
X0.67500 Y1.06220
X0.67500 Y1.06120
X0.67400 Y1.06120
X0.67400 Y1.06020
X0.67300 Y1.06020
X0.67300 Y1.05920
X0.67200 Y1.05920
X0.67200 Y1.05820
X0.67100 Y1.05820
X0.67100 Y1.05720
X0.67000 Y1.05720
X0.67000 Y1.05620
X0.66900 Y1.05620
X0.66900 Y1.05520
X0.66800 Y1.05520
X0.66800 Y1.05420
X0.66700 Y1.05420
X0.66700 Y1.05320
X0.66600 Y1.05320
X0.66600 Y1.05220
X0.66500 Y1.05220
X0.66500 Y1.05120
X0.66400 Y1.05120
X0.66400 Y1.05020
X0.66300 Y1.05020
X0.66300 Y1.04920
X0.66200 Y1.04920
X0.66200 Y1.04820
X0.66100 Y1.04820
X0.66100 Y1.04720
X0.66000 Y1.04720
X0.66000 Y1.04620
X0.65900 Y1.04620
X0.65900 Y1.04520
X0.65800 Y1.04520
X0.65800 Y1.04420
X0.65700 Y1.04420
X0.65700 Y1.04320
X0.65600 Y1.04320
X0.65600 Y1.04220
X0.65500 Y1.04220
X0.65500 Y1.04120
X0.65400 Y1.04120
X0.65400 Y1.04020
X0.65300 Y1.04020
X0.65300 Y1.03920
X0.65200 Y1.03920
X0.65200 Y1.03820
X0.65100 Y1.03820
X0.65100 Y1.03720
X0.65000 Y1.03720
X0.65000 Y1.03620
X0.64900 Y1.03620
X0.64900 Y1.03520
X0.64800 Y1.03520
X0.64800 Y1.03420
X0.64700 Y1.03420
X0.64700 Y1.03320
X0.64600 Y1.03320
X0.64600 Y1.03220
X0.64500 Y1.03220
X0.64500 Y1.03120
X0.64400 Y1.03120
X0.64400 Y1.03020
X0.64300 Y1.03020
X0.64300 Y1.02920
X0.64200 Y1.02920
X0.64200 Y1.02820
X0.64100 Y1.02820
X0.64100 Y1.02720
X0.64000 Y1.02720
X0.64000 Y1.02620
X0.63900 Y1.02620
X0.63900 Y1.02520
X0.63800 Y1.02520
X0.63800 Y1.02420
X0.63700 Y1.02420
X0.63700 Y1.02320
X0.63600 Y1.02320
X0.63600 Y1.02220
X0.63500 Y1.02220
X0.63500 Y1.02120
X0.63400 Y1.02120
X0.63400 Y1.02020
X0.63300 Y1.02020
X0.63300 Y1.01920
X0.63200 Y1.01920
X0.63200 Y1.01820
X0.63100 Y1.01820
X0.63100 Y1.01720
X0.63000 Y1.01720
X0.63000 Y1.01620
X0.62700 Y1.01620
X0.62700 Y1.01720
X0.62600 Y1.01720
X0.62600 Y1.01820
X0.62500 Y1.01820
X0.62500 Y1.01920
X0.62400 Y1.01920
X0.62400 Y1.02020
X0.62300 Y1.02020
X0.62300 Y1.02120
X0.62200 Y1.02120
X0.62200 Y1.02220
X0.62100 Y1.02220
X0.62100 Y1.02320
X0.62000 Y1.02320
X0.62000 Y1.02420
X0.61900 Y1.02420
X0.61900 Y1.02520
X0.61800 Y1.02520
X0.61800 Y1.02620
X0.61700 Y1.02620
X0.61700 Y1.02720
X0.61600 Y1.02720
X0.61600 Y1.02820
X0.61500 Y1.02820
X0.61500 Y1.02920
X0.61400 Y1.02920
X0.61400 Y1.03020
X0.61300 Y1.03020
X0.61300 Y1.03120
X0.61200 Y1.03120
X0.61200 Y1.03220
X0.61100 Y1.03220
X0.61100 Y1.03320
X0.61000 Y1.03320
X0.61000 Y1.03420
X0.60900 Y1.03420
X0.60900 Y1.03520
X0.60800 Y1.03520
X0.60800 Y1.03620
X0.60700 Y1.03620
X0.60700 Y1.03720
X0.60600 Y1.03720
X0.60600 Y1.03820
X0.60500 Y1.03820
X0.60500 Y1.03920
X0.60400 Y1.03920
X0.60400 Y1.04020
X0.60300 Y1.04020
X0.60300 Y1.04120
X0.60200 Y1.04120
X0.60200 Y1.04220
X0.60100 Y1.04220
X0.60100 Y1.04320
X0.60000 Y1.04320
X0.60000 Y1.04420
X0.59900 Y1.04420
X0.59900 Y1.04620
X0.59800 Y1.04620
X0.59800 Y1.04920
X0.59700 Y1.04920
X0.59700 Y1.05220
X0.59600 Y1.05220
X0.59600 Y1.05520
X0.59500 Y1.05520
X0.59500 Y1.05820
X0.59400 Y1.05820
X0.59400 Y1.06120
X0.59300 Y1.06120
X0.59300 Y1.06420
X0.59200 Y1.06420
X0.59200 Y1.06720
X0.59100 Y1.06720
X0.59100 Y1.09120
X0.59200 Y1.09120
X0.59200 Y1.25520
X0.59300 Y1.25520
X0.59300 Y1.25820
X0.59400 Y1.25820
X0.59400 Y1.26120
X0.59500 Y1.26120
X0.59500 Y1.26420
X0.59600 Y1.26420
X0.59600 Y1.26720
X0.59700 Y1.26720
X0.59700 Y1.27020
X0.59800 Y1.27020
X0.59800 Y1.27320
X0.59900 Y1.27320
X0.59900 Y1.27620
X0.60000 Y1.27620
X0.60000 Y1.27720
X0.60100 Y1.27720
X0.60100 Y1.27820
X0.60200 Y1.27820
X0.60200 Y1.27920
X0.60300 Y1.27920
X0.60300 Y1.28020
X0.60400 Y1.28020
X0.60400 Y1.28120
X0.60500 Y1.28120
X0.60500 Y1.28220
X0.60600 Y1.28220
X0.60600 Y1.28320
X0.60700 Y1.28320
X0.60700 Y1.28420
X0.60800 Y1.28420
X0.60800 Y1.28520
X0.60900 Y1.28520
X0.60900 Y1.28620
X0.61000 Y1.28620
X0.61000 Y1.28720
X0.61100 Y1.28720
X0.61100 Y1.28820
X0.61200 Y1.28820
X0.61200 Y1.29020
X0.61300 Y1.29020
X0.61300 Y1.29120
X0.61400 Y1.29120
X0.61400 Y1.29220
X0.61500 Y1.29220
X0.61500 Y1.29320
X0.61600 Y1.29320
X0.61600 Y1.29420
X0.61700 Y1.29420
X0.61700 Y1.29520
X0.61800 Y1.29520
X0.61800 Y1.29620
X0.61900 Y1.29620
X0.61900 Y1.29720
X0.62000 Y1.29720
X0.62000 Y1.29820
X0.62100 Y1.29820
X0.62100 Y1.29920
X0.62200 Y1.29920
X0.62200 Y1.30020
X0.62300 Y1.30020
X0.62300 Y1.30120
X0.62400 Y1.30120
X0.62400 Y1.30220
X0.62500 Y1.30220
X0.62500 Y1.30320
X0.62600 Y1.30320
X0.62600 Y1.30420
X0.62700 Y1.30420
X0.62700 Y1.30520
X0.62900 Y1.30520
X0.62900 Y1.30420
X0.63000 Y1.30420
X0.63000 Y1.30320
X0.63100 Y1.30320
X0.63100 Y1.30220
X0.63200 Y1.30220
X0.63200 Y1.30120
X0.63300 Y1.30120
X0.63300 Y1.30020
X0.63400 Y1.30020
X0.63400 Y1.29920
X0.63500 Y1.29920
X0.63500 Y1.29820
X0.63600 Y1.29820
X0.63600 Y1.29720
X0.63700 Y1.29720
X0.63700 Y1.29620
X0.63800 Y1.29620
X0.63800 Y1.29520
X0.63900 Y1.29520
X0.63900 Y1.29420
X0.64000 Y1.29420
X0.64000 Y1.29320
X0.64100 Y1.29320
X0.64100 Y1.29220
X0.64200 Y1.29220
X0.64200 Y1.29120
X0.64300 Y1.29120
X0.64300 Y1.29020
X0.64400 Y1.29020
X0.64400 Y1.28920
X0.64500 Y1.28920
X0.64500 Y1.28820
X0.64600 Y1.28820
X0.64600 Y1.28720
X0.64700 Y1.28720
X0.64700 Y1.28620
X0.64800 Y1.28620
X0.64800 Y1.28520
X0.64900 Y1.28520
X0.64900 Y1.28420
X0.65000 Y1.28420
X0.65000 Y1.28320
X0.65100 Y1.28320
X0.65100 Y1.28220
X0.65200 Y1.28220
X0.65200 Y1.28120
X0.65300 Y1.28120
X0.65300 Y1.28020
X0.65400 Y1.28020
X0.65400 Y1.27920
X0.65500 Y1.27920
X0.65500 Y1.27820
X0.65600 Y1.27820
X0.65600 Y1.27720
X0.65700 Y1.27720
X0.65700 Y1.27620
X0.65800 Y1.27620
X0.65800 Y1.27520
X0.65900 Y1.27520
X0.65900 Y1.27420
X0.66000 Y1.27420
X0.66000 Y1.27320
X0.66100 Y1.27320
X0.66100 Y1.27220
X0.66200 Y1.27220
X0.66200 Y1.27120
X0.66300 Y1.27120
X0.66300 Y1.27020
X0.66400 Y1.27020
X0.66400 Y1.26920
X0.66500 Y1.26920
X0.66500 Y1.26820
X0.66600 Y1.26820
X0.66600 Y1.26720
X0.66700 Y1.26720
X0.66700 Y1.26620
X0.66800 Y1.26620
X0.66800 Y1.26520
X0.66900 Y1.26520
X0.66900 Y1.26420
X0.67000 Y1.26420
X0.67000 Y1.26320
X0.67100 Y1.26320
X0.67100 Y1.26220
X0.67200 Y1.26220
X0.67200 Y1.26120
X0.67300 Y1.26120
X0.67300 Y1.26020
X0.67400 Y1.26020
X0.67400 Y1.25920
X0.67500 Y1.25920
X0.67500 Y1.25820
X0.67600 Y1.25820
X0.67600 Y1.25720
X0.67700 Y1.25720
X0.67700 Y1.25620
X0.67800 Y1.25620
X0.67800 Y1.25520
X0.67900 Y1.25520
X0.67900 Y1.25420
X0.68000 Y1.25420
X0.68000 Y1.25320
X0.68100 Y1.25320
X0.68100 Y1.25220
X0.68200 Y1.25220
X0.68200 Y1.25120
X0.68300 Y1.25120
X0.68300 Y1.25020
X0.68400 Y1.25020
X0.68400 Y1.24920
X0.68500 Y1.24920
X0.68500 Y1.24820
X0.68600 Y1.24820
X0.68600 Y1.24720
X0.68700 Y1.24720
X0.68700 Y1.24620
X0.68800 Y1.24620
X0.68800 Y1.24520
X0.68900 Y1.24520
X0.68900 Y1.24420
X0.69000 Y1.24420
X0.69000 Y1.24320
X0.69100 Y1.24320
X0.69100 Y1.24220
X0.69200 Y1.24220
X0.69200 Y1.24120
X0.69300 Y1.24120
X0.69300 Y1.24020
X0.69400 Y1.24020
X0.69400 Y1.23920
X0.69500 Y1.23920
X0.69500 Y1.23820
X0.69600 Y1.23820
X0.69600 Y1.23720
X0.69700 Y1.23720
X0.69700 Y1.23620
X0.69800 Y1.23620
X0.69800 Y1.23520
X0.69900 Y1.23520
X0.69900 Y1.23420
X0.70000 Y1.23420
X0.70000 Y1.23320
X0.70100 Y1.23320
X0.70100 Y1.23220
X0.70200 Y1.23220
X0.70200 Y1.23120
X0.70300 Y1.23120
X0.70300 Y1.23020
X0.70400 Y1.23020
X0.70400 Y1.22920
X0.70500 Y1.22920
X0.70500 Y1.22820
X0.70600 Y1.22820
X0.70600 Y1.22720
X0.70700 Y1.22720
X0.70700 Y1.22620
X0.70800 Y1.22620
X0.70800 Y1.22520
X0.70900 Y1.22520
X0.70900 Y1.22420
X0.71000 Y1.22420
X0.71000 Y1.22320
X0.71100 Y1.22320
X0.71100 Y1.22220
X0.71300 Y1.22220
X0.71300 Y1.22120
X0.71400 Y1.22120
X0.71400 Y1.22020
X0.71600 Y1.22020
X0.71600 Y1.21920
X0.71800 Y1.21920
X0.71800 Y1.21820
X0.71900 Y1.21820
X0.71900 Y1.21720
X0.72100 Y1.21720
X0.72100 Y1.21620
X0.72400 Y1.21620
X0.72400 Y1.21520
X0.72700 Y1.21520
X0.72700 Y1.21420
X0.73000 Y1.21420
X0.73000 Y1.21320
X0.73300 Y1.21320
X0.73300 Y1.21220
X0.73500 Y1.21220
X0.73500 Y1.21120
X0.73600 Y1.21120
X0.73600 Y1.21020
X0.73700 Y1.21020
X0.73700 Y1.20620
X0.73600 Y1.20620
X0.73600 Y1.20420
X0.73700 Y1.20420
X0.73700 Y1.20020
X0.73600 Y1.20020
X0.73600 Y1.19820
X0.73700 Y1.19820
X0.73700 Y1.19420
X0.73600 Y1.19420
X0.73600 Y1.19220
X0.73700 Y1.19220
X0.73700 Y1.18720
X0.73800 Y1.18720
X0.73800 Y1.18620
G04 P0 ( dwell for no time -- G64 should not smooth over this point )
G00 Z0.19685 ( retract )

G00 X0.95000 Y1.18620 ( rapid move to begin. )
G01 Z-0.11417 F43.30709 ( plunge. )
G04 P0 ( dwell for no time -- G64 should not smooth over this point )
X0.95000 Y1.18620
X0.95000 Y1.08720
X0.92100 Y1.08720
X0.92100 Y1.08820
X0.92000 Y1.08820
X0.92000 Y1.08920
X0.91900 Y1.08920
X0.91900 Y1.09020
X0.91800 Y1.09020
X0.91800 Y1.09120
X0.91700 Y1.09120
X0.91700 Y1.09220
X0.91600 Y1.09220
X0.91600 Y1.09320
X0.91500 Y1.09320
X0.91500 Y1.09420
X0.91400 Y1.09420
X0.91400 Y1.09520
X0.91300 Y1.09520
X0.91300 Y1.09620
X0.91200 Y1.09620
X0.91200 Y1.09720
X0.91100 Y1.09720
X0.91100 Y1.09820
X0.91000 Y1.09820
X0.91000 Y1.09920
X0.90900 Y1.09920
X0.90900 Y1.10020
X0.90800 Y1.10020
X0.90800 Y1.10120
X0.90700 Y1.10120
X0.90700 Y1.10220
X0.90600 Y1.10220
X0.90600 Y1.10320
X0.90500 Y1.10320
X0.90500 Y1.10420
X0.90400 Y1.10420
X0.90400 Y1.10520
X0.90300 Y1.10520
X0.90300 Y1.10620
X0.90200 Y1.10620
X0.90200 Y1.10720
X0.90100 Y1.10720
X0.90100 Y1.10820
X0.90000 Y1.10820
X0.90000 Y1.10920
X0.89100 Y1.10920
X0.89100 Y1.10820
X0.89000 Y1.10820
X0.89000 Y1.10720
X0.88800 Y1.10720
X0.88800 Y1.10620
X0.88600 Y1.10620
X0.88600 Y1.10720
X0.88500 Y1.10720
X0.88500 Y1.10820
X0.88400 Y1.10820
X0.88400 Y1.10920
X0.86500 Y1.10920
X0.86500 Y1.11020
X0.73900 Y1.11020
X0.73900 Y1.11220
X0.73800 Y1.11220
X0.73800 Y1.14320
X0.73700 Y1.14320
X0.73700 Y1.17820
X0.73800 Y1.17820
X0.73800 Y1.18720
X0.73700 Y1.18720
X0.73700 Y1.19220
X0.73600 Y1.19220
X0.73600 Y1.19420
X0.73700 Y1.19420
X0.73700 Y1.19820
X0.73600 Y1.19820
X0.73600 Y1.20020
X0.73700 Y1.20020
X0.73700 Y1.20420
X0.73600 Y1.20420
X0.73600 Y1.20620
X0.73700 Y1.20620
X0.73700 Y1.21020
X0.86500 Y1.21020
X0.86500 Y1.20920
X0.88400 Y1.20920
X0.88400 Y1.20820
X0.88500 Y1.20820
X0.88500 Y1.20720
X0.88600 Y1.20720
X0.88600 Y1.20620
X0.88800 Y1.20620
X0.88800 Y1.20720
X0.89000 Y1.20720
X0.89000 Y1.20820
X0.89100 Y1.20820
X0.89100 Y1.20920
X0.90000 Y1.20920
X0.90000 Y1.20820
X0.90100 Y1.20820
X0.90100 Y1.20720
X0.90200 Y1.20720
X0.90200 Y1.20620
X0.90300 Y1.20620
X0.90300 Y1.20520
X0.90400 Y1.20520
X0.90400 Y1.20420
X0.90500 Y1.20420
X0.90500 Y1.20320
X0.90600 Y1.20320
X0.90600 Y1.20220
X0.90700 Y1.20220
X0.90700 Y1.20120
X0.90800 Y1.20120
X0.90800 Y1.20020
X0.90900 Y1.20020
X0.90900 Y1.19920
X0.91000 Y1.19920
X0.91000 Y1.19820
X0.91100 Y1.19820
X0.91100 Y1.19720
X0.91200 Y1.19720
X0.91200 Y1.19620
X0.91300 Y1.19620
X0.91300 Y1.19520
X0.91400 Y1.19520
X0.91400 Y1.19420
X0.91500 Y1.19420
X0.91500 Y1.19320
X0.91600 Y1.19320
X0.91600 Y1.19220
X0.91700 Y1.19220
X0.91700 Y1.19120
X0.91800 Y1.19120
X0.91800 Y1.19020
X0.91900 Y1.19020
X0.91900 Y1.18920
X0.92000 Y1.18920
X0.92000 Y1.18820
X0.92100 Y1.18820
X0.92100 Y1.18720
X0.95000 Y1.18720
X0.95000 Y1.18620
G04 P0 ( dwell for no time -- G64 should not smooth over this point )
G00 Z0.19685 ( retract )

G00 X1.44500 Y1.18620 ( rapid move to begin. )
G01 Z-0.11417 F43.30709 ( plunge. )
G04 P0 ( dwell for no time -- G64 should not smooth over this point )
X1.44500 Y1.18620
X1.44500 Y1.18520
X1.44600 Y1.18520
X1.44600 Y1.18420
X1.44700 Y1.18420
X1.44700 Y1.18120
X1.44600 Y1.18120
X1.44600 Y1.18020
X1.44500 Y1.18020
X1.44500 Y1.17920
X1.44400 Y1.17920
X1.44400 Y1.17820
X1.44300 Y1.17820
X1.44300 Y1.17720
X1.44200 Y1.17720
X1.44200 Y1.17620
X1.44100 Y1.17620
X1.44100 Y1.17520
X1.44000 Y1.17520
X1.44000 Y1.17420
X1.43900 Y1.17420
X1.43900 Y1.17320
X1.43800 Y1.17320
X1.43800 Y1.17220
X1.43700 Y1.17220
X1.43700 Y1.17120
X1.43600 Y1.17120
X1.43600 Y1.17020
X1.43500 Y1.17020
X1.43500 Y1.16920
X1.43400 Y1.16920
X1.43400 Y1.16820
X1.43300 Y1.16820
X1.43300 Y1.16720
X1.43200 Y1.16720
X1.43200 Y1.16620
X1.43100 Y1.16620
X1.43100 Y1.16520
X1.43000 Y1.16520
X1.43000 Y1.16420
X1.42900 Y1.16420
X1.42900 Y1.16320
X1.42800 Y1.16320
X1.42800 Y1.16220
X1.42700 Y1.16220
X1.42700 Y1.16120
X1.42600 Y1.16120
X1.42600 Y1.16020
X1.42500 Y1.16020
X1.42500 Y1.15920
X1.42400 Y1.15920
X1.42400 Y1.15820
X1.42300 Y1.15820
X1.42300 Y1.15720
X1.42200 Y1.15720
X1.42200 Y1.15620
X1.42100 Y1.15620
X1.42100 Y1.15520
X1.42000 Y1.15520
X1.42000 Y1.15420
X1.41900 Y1.15420
X1.41900 Y1.15320
X1.41800 Y1.15320
X1.41800 Y1.15220
X1.41700 Y1.15220
X1.41700 Y1.15120
X1.41600 Y1.15120
X1.41600 Y1.15020
X1.41500 Y1.15020
X1.41500 Y1.14920
X1.41400 Y1.14920
X1.41400 Y1.14820
X1.41300 Y1.14820
X1.41300 Y1.14720
X1.41200 Y1.14720
X1.41200 Y1.14620
X1.41100 Y1.14620
X1.41100 Y1.14520
X1.41000 Y1.14520
X1.41000 Y1.14420
X1.40900 Y1.14420
X1.40900 Y1.14320
X1.40800 Y1.14320
X1.40800 Y1.14220
X1.40700 Y1.14220
X1.40700 Y1.14120
X1.40600 Y1.14120
X1.40600 Y1.14020
X1.40500 Y1.14020
X1.40500 Y1.13920
X1.40400 Y1.13920
X1.40400 Y1.13820
X1.40300 Y1.13820
X1.40300 Y1.13720
X1.40200 Y1.13720
X1.40200 Y1.13620
X1.40100 Y1.13620
X1.40100 Y1.13520
X1.40000 Y1.13520
X1.40000 Y1.13420
X1.39900 Y1.13420
X1.39900 Y1.13320
X1.39800 Y1.13320
X1.39800 Y1.13220
X1.39700 Y1.13220
X1.39700 Y1.13120
X1.39600 Y1.13120
X1.39600 Y1.13020
X1.39500 Y1.13020
X1.39500 Y1.12920
X1.39400 Y1.12920
X1.39400 Y1.12820
X1.39300 Y1.12820
X1.39300 Y1.12720
X1.39200 Y1.12720
X1.39200 Y1.12620
X1.39100 Y1.12620
X1.39100 Y1.12520
X1.39000 Y1.12520
X1.39000 Y1.12420
X1.38900 Y1.12420
X1.38900 Y1.12320
X1.38800 Y1.12320
X1.38800 Y1.12220
X1.38700 Y1.12220
X1.38700 Y1.12120
X1.38600 Y1.12120
X1.38600 Y1.12020
X1.38500 Y1.12020
X1.38500 Y1.11920
X1.38400 Y1.11920
X1.38400 Y1.11820
X1.38300 Y1.11820
X1.38300 Y1.11720
X1.38200 Y1.11720
X1.38200 Y1.11620
X1.38100 Y1.11620
X1.38100 Y1.11520
X1.38000 Y1.11520
X1.38000 Y1.11420
X1.37900 Y1.11420
X1.37900 Y1.11320
X1.37800 Y1.11320
X1.37800 Y1.11220
X1.37700 Y1.11220
X1.37700 Y1.11120
X1.37600 Y1.11120
X1.37600 Y1.11020
X1.37500 Y1.11020
X1.37500 Y1.10920
X1.37400 Y1.10920
X1.37400 Y1.10820
X1.37300 Y1.10820
X1.37300 Y1.10720
X1.37200 Y1.10720
X1.37200 Y1.10620
X1.37100 Y1.10620
X1.37100 Y1.10520
X1.37000 Y1.10520
X1.37000 Y1.10420
X1.36900 Y1.10420
X1.36900 Y1.10320
X1.36800 Y1.10320
X1.36800 Y1.10220
X1.36700 Y1.10220
X1.36700 Y1.10120
X1.36600 Y1.10120
X1.36600 Y1.10020
X1.36500 Y1.10020
X1.36500 Y1.09920
X1.36400 Y1.09920
X1.36400 Y1.09820
X1.36300 Y1.09820
X1.36300 Y1.09720
X1.36200 Y1.09720
X1.36200 Y1.09620
X1.36100 Y1.09620
X1.36100 Y1.09520
X1.36000 Y1.09520
X1.36000 Y1.09420
X1.35900 Y1.09420
X1.35900 Y1.09320
X1.35800 Y1.09320
X1.35800 Y1.09220
X1.35700 Y1.09220
X1.35700 Y1.09120
X1.35600 Y1.09120
X1.35600 Y1.09020
X1.35500 Y1.09020
X1.35500 Y1.08920
X1.35400 Y1.08920
X1.35400 Y1.08820
X1.35300 Y1.08820
X1.35300 Y1.08720
X1.35200 Y1.08720
X1.35200 Y1.08620
X1.35000 Y1.08620
X1.35000 Y1.08720
X1.22100 Y1.08720
X1.22100 Y1.08820
X1.22000 Y1.08820
X1.22000 Y1.08920
X1.21900 Y1.08920
X1.21900 Y1.09020
X1.21800 Y1.09020
X1.21800 Y1.09120
X1.21700 Y1.09120
X1.21700 Y1.09220
X1.21600 Y1.09220
X1.21600 Y1.09320
X1.21500 Y1.09320
X1.21500 Y1.09420
X1.21400 Y1.09420
X1.21400 Y1.09520
X1.21300 Y1.09520
X1.21300 Y1.09620
X1.21200 Y1.09620
X1.21200 Y1.09720
X1.21100 Y1.09720
X1.21100 Y1.09820
X1.21000 Y1.09820
X1.21000 Y1.09920
X1.20900 Y1.09920
X1.20900 Y1.10020
X1.20800 Y1.10020
X1.20800 Y1.10120
X1.20700 Y1.10120
X1.20700 Y1.10220
X1.20600 Y1.10220
X1.20600 Y1.10320
X1.20500 Y1.10320
X1.20500 Y1.10420
X1.20400 Y1.10420
X1.20400 Y1.10520
X1.20300 Y1.10520
X1.20300 Y1.10620
X1.20200 Y1.10620
X1.20200 Y1.10720
X1.20100 Y1.10720
X1.20100 Y1.10820
X1.20000 Y1.10820
X1.20000 Y1.10920
X1.19100 Y1.10920
X1.19100 Y1.10820
X1.19000 Y1.10820
X1.19000 Y1.10720
X1.18800 Y1.10720
X1.18800 Y1.10620
X1.18600 Y1.10620
X1.18600 Y1.10720
X1.18500 Y1.10720
X1.18500 Y1.10820
X1.18400 Y1.10820
X1.18400 Y1.10920
X1.16500 Y1.10920
X1.16500 Y1.11020
X0.95000 Y1.11020
X0.95000 Y1.21020
X1.16500 Y1.21020
X1.16500 Y1.20920
X1.18400 Y1.20920
X1.18400 Y1.20820
X1.18500 Y1.20820
X1.18500 Y1.20720
X1.18600 Y1.20720
X1.18600 Y1.20620
X1.18800 Y1.20620
X1.18800 Y1.20720
X1.19000 Y1.20720
X1.19000 Y1.20820
X1.19100 Y1.20820
X1.19100 Y1.20920
X1.20000 Y1.20920
X1.20000 Y1.20820
X1.20100 Y1.20820
X1.20100 Y1.20720
X1.20200 Y1.20720
X1.20200 Y1.20620
X1.20300 Y1.20620
X1.20300 Y1.20520
X1.20400 Y1.20520
X1.20400 Y1.20420
X1.20500 Y1.20420
X1.20500 Y1.20320
X1.20600 Y1.20320
X1.20600 Y1.20220
X1.20700 Y1.20220
X1.20700 Y1.20120
X1.20800 Y1.20120
X1.20800 Y1.20020
X1.20900 Y1.20020
X1.20900 Y1.19920
X1.21000 Y1.19920
X1.21000 Y1.19820
X1.21100 Y1.19820
X1.21100 Y1.19720
X1.21200 Y1.19720
X1.21200 Y1.19620
X1.21300 Y1.19620
X1.21300 Y1.19520
X1.21400 Y1.19520
X1.21400 Y1.19420
